davideferrari95/admittance_controller/debug/input_trajectory_debug.csv
frame_id,seq,sec,nsec,     ,pos_joint1,pos_joint2,pos_joint2,pos_joint4,pos_joint5,pos_joint6,     ,vel_joint1,vel_joint2,vel_joint3,vel_joint4,vel_joint5,vel_joint6

,0,1608313887,351671868, ,0.624476,-1.85921,-1.25244,-1.65515,1.65942,-0.20402, ,0,0,-0,0,-1.23931e-25,0,
,0,1608313887,353653201, ,0.624476,-1.85916,-1.25241,-1.65515,1.65939,-0.204007, ,0,0,-0,0,-1.20915e-27,0,
,0,1608313887,355640804, ,0.6245,-1.85917,-1.25243,-1.65518,1.65942,-0.204007, ,0,0,-0,0,-1.17972e-29,0,
,0,1608313887,357673057, ,0.624476,-1.85922,-1.25246,-1.65513,1.65944,-0.204044, ,0,0,-0,0,-1.151e-31,0,
,0,1608313887,359657386, ,0.624513,-1.85919,-1.25244,-1.65515,1.65937,-0.20402, ,0,0,-0,0,-1.12299e-33,0,
,0,1608313887,361654098, ,0.624488,-1.85921,-1.25243,-1.65518,1.65942,-0.204068, ,0,0,-0,0,-1.09566e-35,0,
,0,1608313887,363660529, ,0.624476,-1.85919,-1.25244,-1.65514,1.65944,-0.204031, ,0,0,-0,0,-1.06899e-37,0,
,0,1608313887,365681942, ,0.624488,-1.85922,-1.25242,-1.65518,1.65942,-0.204031, ,0,0,-0,0,-1.04297e-39,0,
,0,1608313887,367659227, ,0.624476,-1.85921,-1.25243,-1.65513,1.6594,-0.204031, ,0,0,-0,0,-1.01762e-41,0,
,0,1608313887,369653826, ,0.6245,-1.85919,-1.25244,-1.65514,1.65942,-0.204079, ,0,0,-0,0,-9.94922e-44,0,
,0,1608313887,371649699, ,0.6245,-1.85919,-1.25243,-1.65514,1.65941,-0.204031, ,0,0,-0,0,-1.4013e-45,0,
,0,1608313887,373645616, ,0.624465,-1.85917,-1.25242,-1.65517,1.65944,-0.204007, ,0,0,-0,0,-0,0,
,0,1608313887,375650035, ,0.624488,-1.85919,-1.25248,-1.65515,1.65945,-0.203996, ,0,0,-0,0,0,0,
,0,1608313887,377648329, ,0.624488,-1.85917,-1.25244,-1.65517,1.6594,-0.204068, ,0,0,-0,0,0,0,
,0,1608313887,379642054, ,0.624513,-1.85917,-1.25247,-1.65517,1.65944,-0.20402, ,0,0,-0,0,0,0,
,0,1608313887,381652132, ,0.624476,-1.85915,-1.25246,-1.65513,1.6594,-0.204031, ,0,0,-0,0,0,0,
,0,1608313887,383640449, ,0.624453,-1.85915,-1.25244,-1.65517,1.65944,-0.20402, ,0,0,-0,0,0,0,
,0,1608313887,385650909, ,0.624488,-1.85916,-1.25243,-1.65517,1.65941,-0.204031, ,0,0,-0,0,0,0,
,0,1608313887,387658697, ,0.624453,-1.85917,-1.25246,-1.65514,1.65945,-0.20402, ,0,0,-0,0,0,0,
,0,1608313887,389648530, ,0.624488,-1.85916,-1.25247,-1.65514,1.65942,-0.204031, ,0,0,-0,0,0,0,
,0,1608313887,391645630, ,0.624465,-1.85918,-1.25246,-1.65519,1.65942,-0.20402, ,0,0,-0,0,0,0,
,0,1608313887,393655105, ,0.624476,-1.85924,-1.25243,-1.65515,1.65947,-0.204007, ,0,0,-0,0,0,0,
,0,1608313887,395645534, ,0.624488,-1.85922,-1.25246,-1.65514,1.65942,-0.204068, ,0,0,-0,0,0,0,
,0,1608313887,397641240, ,0.624476,-1.85916,-1.25248,-1.6552,1.65945,-0.204068, ,0,0,-0,0,0,0,
,0,1608313887,399687002, ,0.624465,-1.85917,-1.25243,-1.65515,1.6594,-0.20402, ,0,0,-0,0,0,0,
,0,1608313887,401651451, ,0.624465,-1.85916,-1.25246,-1.65517,1.6594,-0.204031, ,0,0,-0,0,0,0,
,0,1608313887,403661995, ,0.624488,-1.85919,-1.25247,-1.65518,1.65942,-0.204055, ,0,0,-0,0,0,0,
,0,1608313887,405650436, ,0.624465,-1.85919,-1.25243,-1.65513,1.65945,-0.204044, ,0,0,-0,0,0,0,
,0,1608313887,407648479, ,0.624488,-1.85922,-1.25244,-1.65517,1.6594,-0.204031, ,0,0,-0,0,0,0,
,0,1608313887,409648196, ,0.624453,-1.85919,-1.25246,-1.65512,1.65945,-0.204055, ,0,0,-0,0,0,0,
,0,1608313887,411734213, ,0.624488,-1.85922,-1.25242,-1.65523,1.65944,-0.204044, ,0,0,-0,0,0,0,
,0,1608313887,413642739, ,0.6245,-1.85921,-1.25244,-1.65518,1.6594,-0.20402, ,0,0,-0,0,0,0,
,0,1608313887,415653223, ,0.624465,-1.85917,-1.25248,-1.65518,1.65945,-0.204031, ,0,0,-0,0,0,0,
,0,1608313887,417705909, ,0.624488,-1.85922,-1.25246,-1.65519,1.65942,-0.204055, ,0,0,-0,0,0,0,
,0,1608313887,419674753, ,0.6245,-1.85916,-1.25243,-1.65519,1.65944,-0.204031, ,0,0,-0,0,0,0,
,0,1608313887,421663230, ,0.624488,-1.85918,-1.25246,-1.65517,1.65944,-0.204068, ,0,0,-0,0,0,0,
,0,1608313887,423646545, ,0.6245,-1.85917,-1.25241,-1.65515,1.6594,-0.204031, ,0,0,-0,0,0,0,
,0,1608313887,425643009, ,0.624488,-1.85917,-1.25244,-1.65515,1.65941,-0.204068, ,0,0,-0,0,0,0,
,0,1608313887,427642838, ,0.624476,-1.85917,-1.25242,-1.65514,1.65944,-0.204068, ,0,0,-0,0,0,0,
,0,1608313887,429671933, ,0.6245,-1.85913,-1.25243,-1.65515,1.65942,-0.204007, ,0,0,-0,0,0,0,
,0,1608313887,431652413, ,0.624488,-1.85915,-1.25246,-1.65515,1.65944,-0.204044, ,0,0,-0,0,0,0,
,0,1608313887,433651397, ,0.6245,-1.85916,-1.25244,-1.65515,1.6594,-0.204055, ,0,0,-0,0,0,0,
,0,1608313887,435660373, ,0.624465,-1.85917,-1.25248,-1.65513,1.65944,-0.204007, ,0,0,-0,0,0,0,
,0,1608313887,437645330, ,0.624465,-1.85913,-1.25246,-1.65518,1.65944,-0.204007, ,0,0,-0,0,0,0,
,0,1608313887,439653683, ,0.624476,-1.85921,-1.25244,-1.65519,1.65944,-0.204044, ,0,0,-0,0,0,0,
,0,1608313887,441646985, ,0.6245,-1.85918,-1.25247,-1.65518,1.65941,-0.204055, ,0,0,-0,0,0,0,
,0,1608313887,443658517, ,0.624476,-1.85919,-1.25248,-1.65517,1.65941,-0.204068, ,0,0,-0,0,0,0,
,0,1608313887,445649748, ,0.6245,-1.85917,-1.25246,-1.65517,1.65942,-0.20402, ,0,0,-0,0,0,0,
,0,1608313887,447663720, ,0.624476,-1.85919,-1.25246,-1.65514,1.65941,-0.203972, ,0,0,-0,0,0,0,
,0,1608313887,449655771, ,0.624465,-1.85921,-1.25246,-1.65517,1.65942,-0.203984, ,0,0,-0,0,0,0,
,0,1608313887,451652973, ,0.624476,-1.85919,-1.25243,-1.65513,1.65937,-0.20402, ,0,0,-0,0,0,0,
,0,1608313887,453647386, ,0.624453,-1.85919,-1.25243,-1.65515,1.65945,-0.20402, ,0,0,-0,0,0,0,
,0,1608313887,455649524, ,0.624465,-1.85917,-1.25247,-1.65517,1.65942,-0.203996, ,0,0,-0,0,0,0,
,0,1608313887,457652215, ,0.624488,-1.85922,-1.25243,-1.65518,1.65944,-0.204031, ,0,0,-0,0,0,0,
,0,1608313887,459694992, ,0.624488,-1.85918,-1.25247,-1.65518,1.65941,-0.204044, ,0,0,-0,0,0,0,
,0,1608313887,461661106, ,0.624488,-1.85921,-1.25244,-1.65518,1.6594,-0.203996, ,0,0,-0,0,0,0,
,0,1608313887,463653792, ,0.624453,-1.85921,-1.25246,-1.65515,1.65941,-0.20402, ,0,0,-0,0,0,0,
,0,1608313887,465732351, ,0.624488,-1.85915,-1.25244,-1.65513,1.65942,-0.204055, ,0,0,-0,0,0,0,
,0,1608313887,467656963, ,0.624465,-1.85919,-1.25244,-1.6552,1.65945,-0.204007, ,0,0,-0,0,0,0,
,0,1608313887,469644999, ,0.624488,-1.85916,-1.25246,-1.65515,1.65942,-0.204068, ,0,0,-0,0,0,0,
,0,1608313887,471669092, ,0.624513,-1.85917,-1.25246,-1.65515,1.65944,-0.204007, ,0,0,-0,0,0,0,
,0,1608313887,473669163, ,0.624465,-1.85916,-1.25244,-1.65513,1.6594,-0.204031, ,0,0,-0,0,0,0,
,0,1608313887,475664296, ,0.6245,-1.85918,-1.25247,-1.65517,1.65944,-0.204044, ,0,0,-0,0,0,0,
,0,1608313887,477662135, ,0.6245,-1.85919,-1.25247,-1.65518,1.65941,-0.204044, ,0,0,-0,0,0,0,
,0,1608313887,479662352, ,0.624453,-1.85922,-1.25243,-1.65519,1.6594,-0.204031, ,0,0,-0,0,0,0,
,0,1608313887,481659327, ,0.624465,-1.85919,-1.25244,-1.65514,1.65942,-0.204031, ,0,0,-0,0,0,0,
,0,1608313887,483666379, ,0.624488,-1.85919,-1.25248,-1.65517,1.6594,-0.203984, ,0,0,-0,0,0,0,
,0,1608313887,485651737, ,0.624465,-1.85915,-1.25244,-1.65514,1.6594,-0.204031, ,0,0,-0,0,0,0,
,0,1608313887,487654657, ,0.624476,-1.85916,-1.25243,-1.65513,1.65936,-0.20402, ,0,0,-0,0,0,0,
,0,1608313887,489648739, ,0.624476,-1.85918,-1.25243,-1.65519,1.6594,-0.204068, ,0,0,-0,0,0,0,
,0,1608313887,491652311, ,0.624476,-1.85919,-1.25247,-1.65517,1.65941,-0.204079, ,0,0,-0,0,0,0,
,0,1608313887,493659689, ,0.624488,-1.85917,-1.25244,-1.65517,1.65941,-0.204007, ,0,0,-0,0,0,0,
,0,1608313887,495661530, ,0.624476,-1.85919,-1.25242,-1.65517,1.65941,-0.204031, ,0,0,-0,0,0,0,
,0,1608313887,497661094, ,0.624465,-1.85921,-1.25243,-1.65515,1.65939,-0.204044, ,0,0,-0,0,0,0,
,0,1608313887,499660179, ,0.624441,-1.85916,-1.25243,-1.65513,1.65942,-0.204044, ,0,0,-0,0,0,0,
,0,1608313887,501653991, ,0.624476,-1.85919,-1.25244,-1.65521,1.65944,-0.204031, ,0,0,-0,0,0,0,
,0,1608313887,503661788, ,0.624488,-1.85918,-1.25243,-1.65515,1.65941,-0.204044, ,0,0,-0,0,0,0,
,0,1608313887,505660271, ,0.624476,-1.85922,-1.25244,-1.65515,1.65942,-0.20402, ,0,0,-0,0,0,0,
,0,1608313887,507657656, ,0.624465,-1.85921,-1.25247,-1.65514,1.65941,-0.204007, ,0,0,-0,0,0,0,
,0,1608313887,509655392, ,0.624465,-1.85917,-1.25244,-1.65517,1.65945,-0.20402, ,0,0,-0,0,0,0,
,0,1608313887,511658217, ,0.624513,-1.85919,-1.25244,-1.65518,1.65944,-0.20402, ,0,0,-0,0,0,0,
,0,1608313887,513654121, ,0.6245,-1.85919,-1.25246,-1.65514,1.65944,-0.204068, ,0,0,-0,0,0,0,
,0,1608313887,515661807, ,0.6245,-1.85917,-1.25246,-1.65518,1.65941,-0.204055, ,0,0,-0,0,0,0,
,0,1608313887,517684403, ,0.6245,-1.85916,-1.25248,-1.65514,1.65944,-0.204044, ,0,0,-0,0,0,0,
,0,1608313887,519686006, ,0.6245,-1.85916,-1.25247,-1.65513,1.65944,-0.203996, ,0,0,-0,0,0,0,
,0,1608313887,521670263, ,0.6245,-1.85917,-1.25243,-1.65514,1.65941,-0.204044, ,0,0,-0,0,0,0,
,0,1608313887,523656328, ,0.624488,-1.85917,-1.25249,-1.65512,1.65939,-0.204007, ,0,0,-0,0,0,0,
,0,1608313887,525655260, ,0.624465,-1.85918,-1.25243,-1.65518,1.65941,-0.203996, ,0,0,-0,0,0,0,
,0,1608313887,527651577, ,0.624465,-1.85921,-1.25246,-1.6552,1.6594,-0.20402, ,0,0,-0,0,0,0,
,0,1608313887,529725055, ,0.624465,-1.85921,-1.25249,-1.65515,1.65942,-0.204044, ,0,0,-0,0,0,0,
,0,1608313887,531656969, ,0.624488,-1.85918,-1.25247,-1.65518,1.65944,-0.204007, ,0,0,-0,0,0,0,
,0,1608313887,533655171, ,0.624441,-1.85915,-1.25241,-1.65515,1.65945,-0.203984, ,0,0,-0,0,0,0,
,0,1608313887,535653707, ,0.624513,-1.85917,-1.25243,-1.65515,1.6594,-0.204055, ,0,0,-0,0,0,0,
,0,1608313887,537650569, ,0.624513,-1.85913,-1.25244,-1.65518,1.65942,-0.20396, ,0,0,-0,0,0,0,
,0,1608313887,539654643, ,0.624476,-1.85921,-1.25246,-1.65519,1.65946,-0.204031, ,0,0,-0,0,0,0,
,0,1608313887,541646842, ,0.624453,-1.85916,-1.25244,-1.65517,1.65942,-0.204007, ,0,0,-0,0,0,0,
,0,1608313887,543651383, ,0.624488,-1.85924,-1.25243,-1.65518,1.65944,-0.204031, ,0,0,-0,0,0,0,
,0,1608313887,545647727, ,0.624465,-1.85918,-1.25243,-1.65515,1.65942,-0.204044, ,0,0,-0,0,0,0,
,0,1608313887,547655897, ,0.624513,-1.85919,-1.25247,-1.65517,1.65945,-0.204031, ,0,0,-0,0,0,0,
,0,1608313887,549651517, ,0.624465,-1.85921,-1.25247,-1.65514,1.65942,-0.204031, ,0,0,-0,0,0,0,
,0,1608313887,551652882, ,0.624465,-1.85916,-1.25247,-1.65518,1.65942,-0.204031, ,0,0,-0,0,0,0,
,0,1608313887,553648385, ,0.624513,-1.85919,-1.25243,-1.65514,1.65946,-0.204007, ,0,0,-0,0,0,0,
,0,1608313887,555646374, ,0.624488,-1.85917,-1.25244,-1.65514,1.6594,-0.20402, ,0,0,-0,0,0,0,
,0,1608313887,557657700, ,0.624476,-1.85915,-1.25244,-1.65514,1.65941,-0.204055, ,0,0,-0,0,0,0,
,0,1608313887,559644364, ,0.624476,-1.85922,-1.25246,-1.65517,1.65939,-0.204031, ,0,0,-0,0,0,0,
,0,1608313887,561648048, ,0.624488,-1.85917,-1.25244,-1.65513,1.65944,-0.204068, ,0,0,-0,0,0,0,
,0,1608313887,563656090, ,0.624525,-1.85917,-1.25244,-1.65515,1.65937,-0.204055, ,0,0,-0,0,0,0,
,0,1608313887,565644093, ,0.6245,-1.85918,-1.25244,-1.65518,1.6594,-0.204044, ,0,0,-0,0,0,0,
,0,1608313887,567648187, ,0.624476,-1.85913,-1.25248,-1.65513,1.65944,-0.204068, ,0,0,-0,0,0,0,
,0,1608313887,569639451, ,0.6245,-1.85918,-1.25243,-1.65518,1.65944,-0.20402, ,0,0,-0,0,0,0,
,0,1608313887,571657370, ,0.624476,-1.85916,-1.25243,-1.65519,1.65942,-0.203996, ,0,0,-0,0,0,0,
,0,1608313887,573641784, ,0.624465,-1.85921,-1.25244,-1.65515,1.65942,-0.204031, ,0,0,-0,0,0,0,
,0,1608313887,575645220, ,0.6245,-1.85919,-1.25246,-1.65515,1.6594,-0.204068, ,0,0,-0,0,0,0,
,0,1608313887,577645278, ,0.624476,-1.85923,-1.25243,-1.65519,1.65944,-0.204068, ,0,0,-0,0,0,0,
,0,1608313887,579653146, ,0.624525,-1.85922,-1.25242,-1.65513,1.6594,-0.204055, ,0,0,-0,0,0,0,
,0,1608313887,581637788, ,0.624476,-1.85917,-1.25243,-1.65515,1.65941,-0.204055, ,0,0,-0,0,0,0,
,0,1608313887,583646676, ,0.624465,-1.85921,-1.25244,-1.65515,1.65941,-0.204007, ,0,0,-0,0,0,0,
,0,1608313887,585664897, ,0.624488,-1.85923,-1.25244,-1.65515,1.65942,-0.204031, ,0,0,-0,0,0,0,
,0,1608313887,587651883, ,0.624476,-1.85922,-1.25243,-1.65515,1.65941,-0.20402, ,0,0,-0,0,0,0,
,0,1608313887,589636840, ,0.6245,-1.85913,-1.25242,-1.65513,1.65941,-0.204007, ,0,0,-0,0,0,0,
,0,1608313887,591642204, ,0.624465,-1.85917,-1.25244,-1.65518,1.65944,-0.203984, ,0,0,-0,0,0,0,
,0,1608313887,593644949, ,0.624488,-1.85919,-1.25244,-1.65513,1.65939,-0.20402, ,0,0,-0,0,0,0,
,0,1608313887,595639403, ,0.624476,-1.85918,-1.25243,-1.65518,1.6594,-0.204044, ,0,0,-0,0,0,0,
,0,1608313887,597631618, ,0.624476,-1.85916,-1.25243,-1.65517,1.6594,-0.204055, ,0,0,-0,0,0,0,
,0,1608313887,599635017, ,0.6245,-1.85915,-1.25246,-1.65514,1.65941,-0.204007, ,0,0,-0,0,0,0,
,0,1608313887,601642778, ,0.6245,-1.85915,-1.25246,-1.65514,1.65941,-0.204044, ,0,0,-0,0,0,0,
,0,1608313887,603635604, ,0.624465,-1.85917,-1.25246,-1.65518,1.65941,-0.20402, ,0,0,-0,0,0,0,
,0,1608313887,605635240, ,0.624488,-1.85919,-1.25246,-1.65517,1.65939,-0.204055, ,0,0,-0,0,0,0,
,0,1608313887,607632457, ,0.6245,-1.85918,-1.25248,-1.65517,1.6594,-0.204031, ,0,0,-0,0,0,0,
,0,1608313887,609662185, ,0.624476,-1.85915,-1.25244,-1.65515,1.65942,-0.204031, ,0,0,-0,0,0,0,
,0,1608313887,611657059, ,0.624476,-1.85916,-1.25242,-1.65515,1.65942,-0.204007, ,0,0,-0,0,0,0,
,0,1608313887,613647775, ,0.624476,-1.85923,-1.25243,-1.65517,1.65942,-0.204007, ,0,0,-0,0,0,0,
,0,1608313887,615649591, ,0.624488,-1.85916,-1.25246,-1.65518,1.65937,-0.204079, ,0,0,-0,0,0,0,
,0,1608313887,617668278, ,0.624453,-1.85918,-1.25244,-1.65515,1.65945,-0.204068, ,0,0,-0,0,0,0,
,0,1608313887,619690719, ,0.624488,-1.85921,-1.25244,-1.65512,1.65941,-0.204044, ,0,0,-0,0,0,0,
,0,1608313887,621644851, ,0.624488,-1.85922,-1.25247,-1.65519,1.65944,-0.204031, ,0,0,-0,0,0,0,
,0,1608313887,623641843, ,0.624488,-1.85915,-1.25243,-1.65514,1.65942,-0.203984, ,0,0,-0,0,0,0,
,0,1608313887,625648223, ,0.624465,-1.85913,-1.25244,-1.65515,1.65944,-0.203984, ,0,0,-0,0,0,0,
,0,1608313887,627640590, ,0.6245,-1.85918,-1.25244,-1.65517,1.65939,-0.204068, ,0,0,-0,0,0,0,
,0,1608313887,629642751, ,0.624476,-1.85917,-1.25247,-1.6552,1.6594,-0.20402, ,0,0,-0,0,0,0,
,0,1608313887,631641669, ,0.624525,-1.85916,-1.25247,-1.65514,1.65942,-0.204007, ,0,0,-0,0,0,0,
,0,1608313887,633634924, ,0.624465,-1.85916,-1.25242,-1.65514,1.6594,-0.204007, ,0,0,-0,0,0,0,
,0,1608313887,635637073, ,0.624465,-1.85918,-1.25243,-1.65518,1.65942,-0.203984, ,0,0,-0,0,0,0,
,0,1608313887,637636275, ,0.624465,-1.85917,-1.25243,-1.65517,1.65942,-0.204044, ,0,0,-0,0,0,0,
,0,1608313887,639635618, ,0.624476,-1.85919,-1.25246,-1.65517,1.65944,-0.203996, ,0,0,-0,0,0,0,
,0,1608313887,641637426, ,0.624465,-1.85917,-1.25244,-1.65515,1.65945,-0.20402, ,0,0,-0,0,0,0,
,0,1608313887,643648890, ,0.6245,-1.85918,-1.25244,-1.6552,1.65944,-0.204044, ,0,0,-0,0,0,0,
,0,1608313887,645656948, ,0.624488,-1.85917,-1.25244,-1.65514,1.65942,-0.204044, ,0,0,-0,0,0,0,
,0,1608313887,647658300, ,0.624465,-1.85916,-1.25246,-1.65519,1.65941,-0.204068, ,0,0,-0,0,0,0,
,0,1608313887,649646824, ,0.624488,-1.85916,-1.25246,-1.6552,1.65945,-0.20402, ,0,0,-0,0,0,0,
,0,1608313887,651661257, ,0.624488,-1.85921,-1.25242,-1.65514,1.65945,-0.204031, ,0,0,-0,0,0,0,
,0,1608313887,653658724, ,0.624465,-1.85912,-1.25246,-1.6552,1.65947,-0.20402, ,0,0,-0,0,0,0,
,0,1608313887,655661603, ,0.624488,-1.85922,-1.25246,-1.65517,1.65944,-0.204007, ,0,0,-0,0,0,0,
,0,1608313887,657644798, ,0.624476,-1.85922,-1.25244,-1.65517,1.65945,-0.204068, ,0,0,-0,0,0,0,
,0,1608313887,659667640, ,0.6245,-1.85922,-1.25244,-1.65518,1.65945,-0.204031, ,0,0,-0,0,0,0,
,0,1608313887,661647576, ,0.624488,-1.85916,-1.25243,-1.65515,1.6594,-0.20402, ,0,0,-0,0,0,0,
,0,1608313887,663654183, ,0.624476,-1.85918,-1.25244,-1.65515,1.65945,-0.204055, ,0,0,-0,0,0,0,
,0,1608313887,665648885, ,0.624488,-1.85918,-1.25244,-1.65513,1.65946,-0.204031, ,0,0,-0,0,0,0,
,0,1608313887,667663362, ,0.624513,-1.85916,-1.25244,-1.65517,1.65945,-0.204044, ,0,0,-0,0,0,0,
,0,1608313887,669644814, ,0.624476,-1.85917,-1.25247,-1.65518,1.65946,-0.203996, ,0,0,-0,0,0,0,
,0,1608313887,671667465, ,0.624476,-1.85918,-1.25246,-1.65517,1.65944,-0.204068, ,0,0,-0,0,0,0,
,0,1608313887,673661630, ,0.624476,-1.85921,-1.25242,-1.65518,1.65941,-0.203996, ,0,0,-0,0,0,0,
,0,1608313887,675655796, ,0.624465,-1.85918,-1.25243,-1.65517,1.65942,-0.203996, ,0,0,-0,0,0,0,
,0,1608313887,677651024, ,0.624453,-1.85919,-1.25247,-1.65514,1.65948,-0.204055, ,0,0,-0,0,0,0,
,0,1608313887,679646908, ,0.6245,-1.85916,-1.25243,-1.65517,1.65941,-0.204068, ,0,0,-0,0,0,0,
,0,1608313887,681646031, ,0.624465,-1.85919,-1.25246,-1.65518,1.65939,-0.204031, ,0,0,-0,0,0,0,
,0,1608313887,683652580, ,0.6245,-1.85917,-1.25244,-1.65515,1.65944,-0.204044, ,0,0,-0,0,0,0,
,0,1608313887,685648963, ,0.624513,-1.85918,-1.25244,-1.65517,1.65946,-0.204091, ,0,0,-0,0,0,0,
,0,1608313887,687649447, ,0.624488,-1.85919,-1.25243,-1.65517,1.65942,-0.204031, ,0,0,-0,0,0,0,
,0,1608313887,689642734, ,0.624465,-1.85921,-1.25243,-1.65515,1.65942,-0.203996, ,0,0,-0,0,0,0,
,0,1608313887,691654552, ,0.624476,-1.85919,-1.25243,-1.65514,1.65944,-0.204055, ,0,0,-0,0,0,0,
,0,1608313887,693666720, ,0.624476,-1.85916,-1.25242,-1.65518,1.65941,-0.204007, ,0,0,-0,0,0,0,
,0,1608313887,695659433, ,0.624476,-1.85922,-1.25247,-1.65524,1.6594,-0.20402, ,0,0,-0,0,0,0,
,0,1608313887,697653708, ,0.624453,-1.85913,-1.25248,-1.65518,1.65945,-0.204044, ,0,0,-0,0,0,0,
,0,1608313887,699653894, ,0.624465,-1.85918,-1.25244,-1.65518,1.65946,-0.204031, ,0,0,-0,0,0,0,
,0,1608313887,701659060, ,0.624465,-1.85921,-1.25244,-1.65515,1.65944,-0.20402, ,0,0,-0,0,0,0,
,0,1608313887,703650903, ,0.624476,-1.85919,-1.25243,-1.65514,1.65944,-0.20402, ,0,0,-0,0,0,0,
,0,1608313887,705648348, ,0.624488,-1.85917,-1.25244,-1.65515,1.65944,-0.20402, ,0,0,-0,0,0,0,
,0,1608313887,707662825, ,0.624476,-1.85916,-1.25243,-1.65515,1.65942,-0.204068, ,0,0,-0,0,0,0,
,0,1608313887,709663855, ,0.624488,-1.85918,-1.25247,-1.65515,1.65942,-0.20402, ,0,0,-0,0,0,0,
,0,1608313887,711653290, ,0.6245,-1.85916,-1.25243,-1.6552,1.65944,-0.203996, ,0,0,-0,0,0,0,
,0,1608313887,713654363, ,0.624465,-1.85915,-1.25247,-1.65517,1.65942,-0.203972, ,0,0,-0,0,0,0,
,0,1608313887,715663121, ,0.624453,-1.85921,-1.25244,-1.65515,1.65939,-0.203996, ,0,0,-0,0,0,0,
,0,1608313887,717659551, ,0.624488,-1.85921,-1.25243,-1.65515,1.65945,-0.20402, ,0,0,-0,0,0,0,
,0,1608313887,719706028, ,0.6245,-1.85916,-1.25242,-1.65513,1.65942,-0.20402, ,0,0,-0,0,0,0,
,0,1608313887,721742180, ,0.624488,-1.85915,-1.25244,-1.65518,1.65941,-0.204007, ,0,0,-0,0,0,0,
,0,1608313887,723696214, ,0.624465,-1.85916,-1.25247,-1.65517,1.65942,-0.204055, ,0,0,-0,0,0,0,
,0,1608313887,725658516, ,0.624453,-1.85918,-1.25244,-1.65518,1.65944,-0.20396, ,0,0,-0,0,0,0,
,0,1608313887,727668779, ,0.624476,-1.85916,-1.25243,-1.65515,1.65948,-0.204055, ,0,0,-0,0,0,0,
,0,1608313887,729653993, ,0.624476,-1.85917,-1.25244,-1.65519,1.65945,-0.203996, ,0,0,-0,0,0,0,
,0,1608313887,731656573, ,0.624453,-1.85919,-1.25246,-1.6552,1.65946,-0.203984, ,0,0,-0,0,0,0,
,0,1608313887,733678806, ,0.624465,-1.85916,-1.25243,-1.6552,1.65944,-0.204031, ,0,0,-0,0,0,0,
,0,1608313887,735667414, ,0.624476,-1.85918,-1.25244,-1.65515,1.6594,-0.203996, ,0,0,-0,0,0,0,
,0,1608313887,737670353, ,0.624476,-1.85918,-1.25247,-1.65518,1.65941,-0.204007, ,0,0,-0,0,0,0,
,0,1608313887,741210619, ,0.6245,-1.85917,-1.25241,-1.65515,1.65941,-0.204007, ,0,0,-0,0,0,0,
,0,1608313887,742583839, ,0.6245,-1.85918,-1.25244,-1.65517,1.65944,-0.204031, ,0,0,-0,0,0,0,
,0,1608313887,743662329, ,0.624488,-1.85916,-1.25244,-1.65519,1.65945,-0.20402, ,0,0,-0,0,0,0,
,0,1608313887,745697941, ,0.624488,-1.85922,-1.25247,-1.65519,1.65942,-0.20402, ,0,0,-0,0,0,0,
,0,1608313887,747673650, ,0.624465,-1.85917,-1.25243,-1.65518,1.65944,-0.204007, ,0,0,-0,0,0,0,
,0,1608313887,749689449, ,0.624453,-1.85916,-1.25248,-1.65512,1.65937,-0.20402, ,0,0,-0,0,0,0,
,0,1608313887,751699755, ,0.6245,-1.85919,-1.25244,-1.65519,1.65942,-0.20402, ,0,0,-0,0,0,0,
,0,1608313887,753673689, ,0.624476,-1.85917,-1.25247,-1.65513,1.65944,-0.203996, ,0,0,-0,0,0,0,
,0,1608313887,755650112, ,0.6245,-1.85918,-1.25243,-1.65515,1.6594,-0.204044, ,0,0,-0,0,0,0,
,0,1608313887,757649873, ,0.6245,-1.85921,-1.25247,-1.65517,1.65942,-0.204079, ,0,0,-0,0,0,0,
,0,1608313887,759647158, ,0.624465,-1.85922,-1.25247,-1.65519,1.65939,-0.203996, ,0,0,-0,0,0,0,
,0,1608313887,761648500, ,0.624465,-1.85915,-1.25246,-1.65515,1.65941,-0.204055, ,0,0,-0,0,0,0,
,0,1608313887,763666515, ,0.624488,-1.85918,-1.25242,-1.65517,1.65941,-0.204007, ,0,0,-0,0,0,0,
,0,1608313887,765645262, ,0.6245,-1.85917,-1.25243,-1.65518,1.65942,-0.204007, ,0,0,-0,0,0,0,
,0,1608313887,767641148, ,0.624476,-1.85919,-1.25249,-1.6552,1.65937,-0.204007, ,0,0,-0,0,0,0,
,0,1608313887,769645414, ,0.6245,-1.85919,-1.25243,-1.65519,1.6594,-0.20402, ,0,0,-0,0,0,0,
,0,1608313887,771653242, ,0.624476,-1.85917,-1.25242,-1.65519,1.65941,-0.203996, ,0,0,-0,0,0,0,
,0,1608313887,773654153, ,0.624476,-1.85913,-1.25246,-1.65521,1.65944,-0.20402, ,0,0,-0,0,0,0,
,0,1608313887,775644680, ,0.624453,-1.85917,-1.25246,-1.65514,1.6594,-0.204007, ,0,0,-0,0,0,0,
,0,1608313887,777651150, ,0.6245,-1.85917,-1.25243,-1.65517,1.65942,-0.204044, ,0,0,-0,0,0,0,
,0,1608313887,779649005, ,0.624476,-1.85917,-1.25242,-1.65518,1.65945,-0.204031, ,0,0,-0,0,0,0,
,0,1608313887,781646065, ,0.624488,-1.85918,-1.25246,-1.65517,1.65942,-0.204007, ,0,0,-0,0,0,0,
,0,1608313887,783652889, ,0.624476,-1.85921,-1.25246,-1.65515,1.6594,-0.204055, ,0,0,-0,0,0,0,
,0,1608313887,785650454, ,0.624453,-1.85915,-1.25243,-1.65514,1.6594,-0.204079, ,0,0,-0,0,0,0,
,0,1608313887,787645764, ,0.624453,-1.85921,-1.25246,-1.65515,1.65942,-0.204055, ,0,0,-0,0,0,0,
,0,1608313887,789638266, ,0.624488,-1.85919,-1.25247,-1.65515,1.65941,-0.203972, ,0,0,-0,0,0,0,
,0,1608313887,791646933, ,0.624476,-1.85923,-1.25243,-1.65519,1.65939,-0.204007, ,0,0,-0,0,0,0,
,0,1608313887,793643191, ,0.6245,-1.85921,-1.25248,-1.65517,1.65942,-0.204055, ,0,0,-0,0,0,0,
,0,1608313887,795649809, ,0.624476,-1.85919,-1.25243,-1.6552,1.6594,-0.203972, ,0,0,-0,0,0,0,
,0,1608313887,797639944, ,0.624488,-1.85918,-1.25244,-1.65514,1.65941,-0.204007, ,0,0,-0,0,0,0,
,0,1608313887,799656022, ,0.624476,-1.85922,-1.25243,-1.65513,1.65939,-0.204044, ,0,0,-0,0,0,0,
,0,1608313887,801662384, ,0.624465,-1.85919,-1.25244,-1.65518,1.6594,-0.20402, ,0,0,-0,0,0,0,
,0,1608313887,803681718, ,0.624476,-1.85922,-1.25246,-1.65515,1.65941,-0.204055, ,0,0,-0,0,0,0,
,0,1608313887,805771214, ,0.624465,-1.85919,-1.25242,-1.65519,1.65945,-0.20402, ,0,0,-0,0,0,0,
,0,1608313887,807659265, ,0.624476,-1.85916,-1.25246,-1.65515,1.65944,-0.204007, ,0,0,-0,0,0,0,
,0,1608313887,809683946, ,0.624513,-1.85915,-1.25244,-1.65512,1.65942,-0.203984, ,0,0,-0,0,0,0,
,0,1608313887,811664472, ,0.624488,-1.85919,-1.25243,-1.65515,1.65941,-0.20402, ,0,0,-0,0,0,0,
,0,1608313887,813640567, ,0.624453,-1.85918,-1.25246,-1.65514,1.65945,-0.20402, ,0,0,-0,0,0,0,
,0,1608313887,815643211, ,0.624488,-1.85918,-1.25244,-1.65517,1.65946,-0.204055, ,0,0,-0,0,0,0,
,0,1608313887,817636723, ,0.624465,-1.85922,-1.25247,-1.65513,1.65942,-0.203996, ,0,0,-0,0,0,0,
,0,1608313887,819713694, ,0.624488,-1.85917,-1.25244,-1.65518,1.65939,-0.204044, ,0,0,-0,0,0,0,
,0,1608313887,821666565, ,0.624476,-1.85918,-1.25242,-1.65515,1.65941,-0.204031, ,0,0,-0,0,0,0,
,0,1608313887,823654949, ,0.624476,-1.85919,-1.25248,-1.65514,1.65945,-0.204055, ,0,0,-0,0,0,0,
,0,1608313887,825651297, ,0.624488,-1.85917,-1.25244,-1.65515,1.65941,-0.204007, ,0,0,-0,0,0,0,
,0,1608313887,827651136, ,0.624476,-1.85917,-1.25244,-1.65515,1.65942,-0.204031, ,0,0,-0,0,0,0,
,0,1608313887,829650505, ,0.624476,-1.85916,-1.25242,-1.65518,1.6594,-0.204044, ,0,0,-0,0,0,0,
,0,1608313887,831645552, ,0.624453,-1.85922,-1.25244,-1.65514,1.65944,-0.20402, ,0,0,-0,0,0,0,
,0,1608313887,833648951, ,0.624441,-1.85919,-1.25243,-1.6552,1.65944,-0.204031, ,0,0,-0,0,0,0,
,0,1608313887,835670934, ,0.624476,-1.85919,-1.25247,-1.65514,1.65942,-0.20402, ,0,0,-0,0,0,0,
,0,1608313887,837663484, ,0.624453,-1.85916,-1.25243,-1.65517,1.6594,-0.204044, ,0,0,-0,0,0,0,
,0,1608313887,840197403, ,0.624476,-1.85916,-1.25244,-1.65517,1.65942,-0.203996, ,0,0,-0,0,0,0,
,0,1608313887,842503279, ,0.624488,-1.85922,-1.25244,-1.65515,1.65945,-0.204055, ,0,0,-0,0,0,0,
,0,1608313887,843665199, ,0.624453,-1.85919,-1.25243,-1.65517,1.65945,-0.204007, ,0,0,-0,0,0,0,
,0,1608313887,845648370, ,0.624488,-1.85921,-1.25242,-1.65514,1.65942,-0.204055, ,0,0,-0,0,0,0,
,0,1608313887,847644893, ,0.624513,-1.85922,-1.25244,-1.65517,1.65939,-0.204007, ,0,0,-0,0,0,0,
,0,1608313887,849637975, ,0.6245,-1.85918,-1.25244,-1.65518,1.65942,-0.204031, ,0,0,-0,0,0,0,
,0,1608313887,851642423, ,0.624453,-1.85916,-1.25247,-1.65517,1.65941,-0.20402, ,0,0,-0,0,0,0,
,0,1608313887,853648884, ,0.624476,-1.85913,-1.25247,-1.65513,1.65941,-0.204007, ,0,0,-0,0,0,0,
,0,1608313887,855646063, ,0.624476,-1.85916,-1.25244,-1.65519,1.65941,-0.204044, ,0,0,-0,0,0,0,
,0,1608313887,857640530, ,0.624465,-1.85916,-1.25243,-1.65519,1.65939,-0.204044, ,0,0,-0,0,0,0,
,0,1608313887,859636996, ,0.624476,-1.85922,-1.25243,-1.65518,1.6594,-0.204007, ,0,0,-0,0,0,0,
,0,1608313887,861638944, ,0.624513,-1.85921,-1.25246,-1.6552,1.65941,-0.204031, ,0,0,-0,0,0,0,
,0,1608313887,863640325, ,0.624488,-1.85923,-1.25247,-1.65518,1.6594,-0.204031, ,0,0,-0,0,0,0,
,0,1608313887,865642965, ,0.624465,-1.85912,-1.25244,-1.65518,1.6594,-0.203996, ,0,0,-0,0,0,0,
,0,1608313887,867639717, ,0.624476,-1.85918,-1.25246,-1.65517,1.65939,-0.204031, ,0,0,-0,0,0,0,
,0,1608313887,869640419, ,0.6245,-1.85921,-1.25246,-1.65515,1.65946,-0.204055, ,0,0,-0,0,0,0,
,0,1608313887,871659530, ,0.624488,-1.85918,-1.25246,-1.65514,1.65939,-0.204007, ,0,0,-0,0,0,0,
,0,1608313887,873659455, ,0.6245,-1.85919,-1.25244,-1.65515,1.65941,-0.20402, ,0,0,-0,0,0,0,
,0,1608313887,875636606, ,0.624488,-1.85922,-1.25243,-1.65517,1.65944,-0.204007, ,0,0,-0,0,0,0,
,0,1608313887,877631775, ,0.624513,-1.85919,-1.25246,-1.65517,1.65945,-0.204068, ,0,0,-0,0,0,0,
,0,1608313887,879637725, ,0.624453,-1.85916,-1.25244,-1.65514,1.6594,-0.204031, ,0,0,-0,0,0,0,
,0,1608313887,881685952, ,0.624476,-1.85916,-1.25246,-1.65515,1.65941,-0.204055, ,0,0,-0,0,0,0,
,0,1608313887,883637417, ,0.624465,-1.85924,-1.25246,-1.65518,1.65941,-0.204007, ,0,0,-0,0,0,0,
,0,1608313887,885637297, ,0.624453,-1.85916,-1.25243,-1.65513,1.6594,-0.204031, ,0,0,-0,0,0,0,
,0,1608313887,887635906, ,0.6245,-1.85921,-1.25243,-1.65517,1.65942,-0.204031, ,0,0,-0,0,0,0,
,0,1608313887,889627726, ,0.624465,-1.85918,-1.25248,-1.65518,1.65939,-0.204007, ,0,0,-0,0,0,0,
,0,1608313887,891642567, ,0.624465,-1.85913,-1.25244,-1.65518,1.65944,-0.204007, ,0,0,-0,0,0,0,
,0,1608313887,893631260, ,0.6245,-1.85922,-1.25246,-1.65515,1.65941,-0.20402, ,0,0,-0,0,0,0,
,0,1608313887,895636077, ,0.6245,-1.85921,-1.25244,-1.65515,1.65946,-0.204031, ,0,0,-0,0,0,0,
,0,1608313887,897637257, ,0.624476,-1.85919,-1.25242,-1.65518,1.65942,-0.204044, ,0,0,-0,0,0,0,
,0,1608313887,899646992, ,0.624453,-1.85918,-1.25248,-1.65515,1.65944,-0.20402, ,0,0,-0,0,0,0,
,0,1608313887,901639491, ,0.624476,-1.85916,-1.25241,-1.65518,1.65939,-0.204007, ,0,0,-0,0,0,0,
,0,1608313887,903659454, ,0.624465,-1.85918,-1.25244,-1.65517,1.6594,-0.204031, ,0,0,-0,0,0,0,
,0,1608313887,905637819, ,0.624488,-1.85917,-1.25243,-1.65515,1.65941,-0.204031, ,0,0,-0,0,0,0,
,0,1608313887,907648562, ,0.624525,-1.85917,-1.25244,-1.65517,1.6594,-0.20402, ,0,0,-0,0,0,0,
,0,1608313887,909641207, ,0.624476,-1.85919,-1.25242,-1.65517,1.65942,-0.204068, ,0,0,-0,0,0,0,
,0,1608313887,911640547, ,0.6245,-1.85919,-1.25246,-1.65517,1.6594,-0.204031, ,0,0,-0,0,0,0,
,0,1608313887,913644121, ,0.624441,-1.85921,-1.25243,-1.65515,1.65944,-0.20402, ,0,0,-0,0,0,0,
,0,1608313887,915640097, ,0.624476,-1.85917,-1.25242,-1.65514,1.65939,-0.20402, ,0,0,-0,0,0,0,
,0,1608313887,917635517, ,0.6245,-1.85919,-1.25243,-1.65517,1.65941,-0.204031, ,0,0,-0,0,0,0,
,0,1608313887,919710943, ,0.624476,-1.85922,-1.25244,-1.65518,1.65937,-0.203996, ,0,0,-0,0,0,0,
,0,1608313887,921664486, ,0.6245,-1.85922,-1.25246,-1.65517,1.65944,-0.203996, ,0,0,-0,0,0,0,
,0,1608313887,923657341, ,0.624513,-1.85917,-1.25243,-1.65517,1.65944,-0.20402, ,0,0,-0,0,0,0,
,0,1608313887,925646954, ,0.624476,-1.85916,-1.25243,-1.65517,1.6594,-0.20402, ,0,0,-0,0,0,0,
,0,1608313887,927648768, ,0.624488,-1.85916,-1.25243,-1.65517,1.65941,-0.204079, ,0,0,-0,0,0,0,
,0,1608313887,929645370, ,0.624465,-1.85919,-1.25244,-1.65518,1.65944,-0.204007, ,0,0,-0,0,0,0,
,0,1608313887,931646949, ,0.624476,-1.85915,-1.25243,-1.65517,1.65936,-0.204031, ,0,0,-0,0,0,0,
,0,1608313887,933637526, ,0.624476,-1.85918,-1.25244,-1.65515,1.65941,-0.204007, ,0,0,-0,0,0,0,
,0,1608313887,935642458, ,0.624441,-1.85918,-1.25247,-1.65517,1.6594,-0.204007, ,0,0,-0,0,0,0,
,0,1608313887,937654207, ,0.624513,-1.85922,-1.25246,-1.65515,1.65941,-0.204031, ,0,0,-0,0,0,0,
,0,1608313887,939652467, ,0.624488,-1.85919,-1.25244,-1.65517,1.65941,-0.204031, ,0,0,-0,0,0,0,
,0,1608313887,941681048, ,0.624441,-1.85919,-1.25244,-1.65515,1.65941,-0.204007, ,0,0,-0,0,0,0,
,0,1608313887,943665842, ,0.624488,-1.85916,-1.25243,-1.65518,1.65945,-0.204031, ,0,0,-0,0,0,0,
,0,1608313887,947469305, ,0.624465,-1.85919,-1.25243,-1.65515,1.65941,-0.204055, ,0,0,-0,0,0,0,
,0,1608313887,949646584, ,0.624488,-1.85917,-1.25243,-1.65515,1.65942,-0.20402, ,0,0,-0,0,0,0,
,0,1608313887,951656310, ,0.6245,-1.85922,-1.25243,-1.6552,1.6594,-0.20402, ,0,0,-0,0,0,0,
,0,1608313887,953650712, ,0.624488,-1.85919,-1.25247,-1.65517,1.6594,-0.20402, ,0,0,-0,0,0,0,
,0,1608313887,955640939, ,0.624488,-1.85919,-1.25243,-1.65513,1.65942,-0.20402, ,0,0,-0,0,0,0,
,0,1608313887,957630948, ,0.624488,-1.85921,-1.25244,-1.6552,1.65941,-0.20402, ,0,0,-0,0,0,0,
,0,1608313887,959640342, ,0.6245,-1.85919,-1.25244,-1.65519,1.65942,-0.20402, ,0,0,-0,0,0,0,
,0,1608313887,961640304, ,0.6245,-1.85919,-1.25246,-1.65517,1.65942,-0.203984, ,0,0,-0,0,0,0,
,0,1608313887,963645381, ,0.624513,-1.85918,-1.25246,-1.65518,1.65944,-0.204031, ,0,0,-0,0,0,0,
,0,1608313887,965636264, ,0.624488,-1.85921,-1.25243,-1.65517,1.65942,-0.204044, ,0,0,-0,0,0,0,
,0,1608313887,967641732, ,0.624465,-1.85916,-1.25244,-1.65515,1.65944,-0.204044, ,0,0,-0,0,0,0,
,0,1608313887,969639152, ,0.6245,-1.85919,-1.25246,-1.65515,1.65942,-0.204031, ,0,0,-0,0,0,0,
,0,1608313887,971633711, ,0.624476,-1.85919,-1.25243,-1.65517,1.65942,-0.204007, ,0,0,-0,0,0,0,
,0,1608313887,973634311, ,0.624476,-1.85917,-1.25247,-1.65515,1.65945,-0.204044, ,0,0,-0,0,0,0,
,0,1608313887,975632176, ,0.624465,-1.85913,-1.25246,-1.65515,1.65944,-0.204007, ,0,0,-0,0,0,0,
,0,1608313887,977633936, ,0.624513,-1.85921,-1.25244,-1.65513,1.65946,-0.204055, ,0,0,-0,0,0,0,
,0,1608313887,979642794, ,0.624488,-1.85917,-1.25246,-1.65519,1.65939,-0.20402, ,0,0,-0,0,0,0,
,0,1608313887,981639491, ,0.624453,-1.85917,-1.25243,-1.65515,1.65941,-0.204007, ,0,0,-0,0,0,0,
,0,1608313887,983636536, ,0.624476,-1.85917,-1.25247,-1.65515,1.65944,-0.20402, ,0,0,-0,0,0,0,
,0,1608313887,985638599, ,0.624525,-1.85918,-1.25244,-1.65517,1.65942,-0.204044, ,0,0,-0,0,0,0,
,0,1608313887,987635464, ,0.624465,-1.85916,-1.25243,-1.65517,1.65945,-0.204007, ,0,0,-0,0,0,0,
,0,1608313887,989634476, ,0.624453,-1.85919,-1.25243,-1.65517,1.65944,-0.204044, ,0,0,-0,0,0,0,
,0,1608313887,991641922, ,0.6245,-1.85922,-1.25246,-1.65518,1.65941,-0.204007, ,0,0,-0,0,0,0,
,0,1608313887,993632649, ,0.624465,-1.85921,-1.25248,-1.65517,1.65944,-0.203996, ,0,0,-0,0,0,0,
,0,1608313887,995643670, ,0.624476,-1.85919,-1.25244,-1.65517,1.65941,-0.20402, ,0,0,-0,0,0,0,
,0,1608313887,997632389, ,0.624465,-1.85916,-1.25248,-1.65519,1.65942,-0.204055, ,0,0,-0,0,0,0,
,0,1608313887,999642748, ,0.624488,-1.85919,-1.25247,-1.65515,1.65942,-0.203984, ,0,0,-0,0,0,0,
,0,1608313888,1645945, ,0.6245,-1.85918,-1.25246,-1.65518,1.65941,-0.204055, ,0,0,-0,0,0,0,
,0,1608313888,3637500, ,0.6245,-1.85918,-1.25248,-1.65517,1.65944,-0.204031, ,0,0,-0,0,0,0,
,0,1608313888,5641225, ,0.624488,-1.85917,-1.25246,-1.65514,1.65942,-0.204055, ,0,0,-0,0,0,0,
,0,1608313888,7639954, ,0.6245,-1.85917,-1.25243,-1.65515,1.65944,-0.204007, ,0,0,-0,0,0,0,
,0,1608313888,9650065, ,0.624429,-1.85921,-1.25242,-1.65513,1.65944,-0.204031, ,0,0,-0,0,0,0,
,0,1608313888,11641104, ,0.6245,-1.85918,-1.25248,-1.65517,1.65944,-0.204044, ,0,0,-0,0,0,0,
,0,1608313888,13641436, ,0.624476,-1.85917,-1.25243,-1.65517,1.65942,-0.203996, ,0,0,-0,0,0,0,
,0,1608313888,15640101, ,0.6245,-1.85919,-1.25246,-1.65517,1.65944,-0.204044, ,0,0,-0,0,0,0,
,0,1608313888,17638938, ,0.624476,-1.85917,-1.25244,-1.65514,1.6594,-0.204007, ,0,0,-0,0,0,0,
,0,1608313888,19675853, ,0.624525,-1.85917,-1.25244,-1.65519,1.6594,-0.204044, ,0,0,-0,0,0,0,
,0,1608313888,21679314, ,0.624476,-1.85916,-1.25243,-1.65518,1.65944,-0.20402, ,0,0,-0,0,0,0,
,0,1608313888,23640727, ,0.624488,-1.85918,-1.25243,-1.65518,1.65941,-0.20402, ,0,0,-0,0,0,0,
,0,1608313888,25639968, ,0.624476,-1.85917,-1.25246,-1.6552,1.65944,-0.20402, ,0,0,-0,0,0,0,
,0,1608313888,27642369, ,0.624476,-1.85918,-1.25243,-1.65515,1.65942,-0.204044, ,0,0,-0,0,0,0,
,0,1608313888,29632465, ,0.624513,-1.85917,-1.25247,-1.65515,1.6594,-0.204007, ,0,0,-0,0,0,0,
,0,1608313888,31641366, ,0.624476,-1.85912,-1.25244,-1.65517,1.65941,-0.204044, ,0,0,-0,0,0,0,
,0,1608313888,33635733, ,0.624476,-1.85922,-1.25247,-1.65517,1.65942,-0.203984, ,0,0,-0,0,0,0,
,0,1608313888,35639856, ,0.624465,-1.85916,-1.25243,-1.65519,1.65941,-0.204031, ,0,0,-0,0,0,0,
,0,1608313888,37632670, ,0.624453,-1.85922,-1.25246,-1.65517,1.65941,-0.204031, ,0,0,-0,0,0,0,
,0,1608313888,39637862, ,0.624476,-1.85918,-1.25244,-1.65517,1.65942,-0.204068, ,0,0,-0,0,0,0,
,0,1608313888,41633178, ,0.624488,-1.85919,-1.25246,-1.65517,1.65941,-0.204068, ,0,0,-0,0,0,0,
,0,1608313888,43639303, ,0.6245,-1.85917,-1.25244,-1.65517,1.6594,-0.204007, ,0,0,-0,0,0,0,
,0,1608313888,45634240, ,0.624488,-1.85919,-1.25247,-1.65517,1.65942,-0.204007, ,0,0,-0,0,0,0,
,0,1608313888,47638352, ,0.624488,-1.85919,-1.25247,-1.65518,1.65941,-0.204007, ,0,0,-0,0,0,0,
,0,1608313888,49632921, ,0.624476,-1.85919,-1.25246,-1.65517,1.65944,-0.204031, ,0,0,-0,0,0,0,
,0,1608313888,51632717, ,0.624453,-1.85922,-1.25244,-1.65515,1.65944,-0.204031, ,0,0,-0,0,0,0,
,0,1608313888,53638099, ,0.624465,-1.85921,-1.25246,-1.65517,1.65945,-0.204031, ,0,0,-0,0,0,0,
,0,1608313888,55644485, ,0.624476,-1.8591,-1.25244,-1.65514,1.65942,-0.20402, ,0,0,-0,0,0,0,
,0,1608313888,57635067, ,0.624465,-1.85915,-1.25242,-1.65519,1.6594,-0.204007, ,0,0,-0,0,0,0,
,0,1608313888,59639814, ,0.6245,-1.85917,-1.25243,-1.65515,1.65942,-0.203996, ,0,0,-0,0,0,0,
,0,1608313888,61632215, ,0.624465,-1.85917,-1.25246,-1.65515,1.65944,-0.204031, ,0,0,-0,0,0,0,
,0,1608313888,63646926, ,0.6245,-1.85917,-1.25246,-1.65514,1.65942,-0.203996, ,0,0,-0,0,0,0,
,0,1608313888,65643665, ,0.624488,-1.85915,-1.25246,-1.65517,1.65945,-0.204031, ,0,0,-0,0,0,0,
,0,1608313888,67634070, ,0.624465,-1.85917,-1.25246,-1.65517,1.65945,-0.204031, ,0,0,-0,0,0,0,
,0,1608313888,69633630, ,0.624476,-1.85921,-1.25244,-1.65518,1.6594,-0.204079, ,0,0,-0,0,0,0,
,0,1608313888,71659850, ,0.624465,-1.85919,-1.25241,-1.65517,1.65939,-0.203996, ,0,0,-0,0,0,0,
,0,1608313888,73653677, ,0.624476,-1.85918,-1.25242,-1.65517,1.65942,-0.203996, ,0,0,-0,0,0,0,
,0,1608313888,75640270, ,0.624465,-1.85919,-1.25248,-1.65515,1.65944,-0.204031, ,0,0,-0,0,0,0,
,0,1608313888,77632146, ,0.624465,-1.85913,-1.25244,-1.65515,1.65942,-0.20402, ,0,0,-0,0,0,0,
,0,1608313888,79641632, ,0.624488,-1.85917,-1.25241,-1.65515,1.65942,-0.20402, ,0,0,-0,0,0,0,
,0,1608313888,81639248, ,0.6245,-1.85918,-1.25243,-1.65518,1.65945,-0.204068, ,0,0,-0,0,0,0,
,0,1608313888,83635157, ,0.624488,-1.85918,-1.25244,-1.65515,1.65944,-0.204031, ,0,0,-0,0,0,0,
,0,1608313888,85634034, ,0.624488,-1.85916,-1.25246,-1.65518,1.65939,-0.203996, ,0,0,-0,0,0,0,
,0,1608313888,87637248, ,0.6245,-1.85922,-1.25246,-1.65517,1.6594,-0.204031, ,0,0,-0,0,0,0,
,0,1608313888,89634921, ,0.624476,-1.85915,-1.25248,-1.65517,1.65945,-0.203996, ,0,0,-0,0,0,0,
,0,1608313888,91634123, ,0.624465,-1.85922,-1.25243,-1.65517,1.65944,-0.204044, ,0,0,-0,0,0,0,
,0,1608313888,93635528, ,0.624453,-1.85921,-1.25246,-1.65517,1.65942,-0.203996, ,0,0,-0,0,0,0,
,0,1608313888,95635816, ,0.624488,-1.85921,-1.25241,-1.65514,1.65941,-0.204044, ,0,0,-0,0,0,0,
,0,1608313888,97638371, ,0.624488,-1.85918,-1.25244,-1.65518,1.6594,-0.204079, ,0,0,-0,0,0,0,
,0,1608313888,99636821, ,0.624465,-1.85921,-1.25248,-1.65517,1.65941,-0.204055, ,0,0,-0,0,0,0,
,0,1608313888,101638368, ,0.624476,-1.85922,-1.25244,-1.65517,1.65945,-0.204031, ,0,0,-0,0,0,0,
,0,1608313888,103633432, ,0.6245,-1.85922,-1.25246,-1.65514,1.65942,-0.203996, ,0,0,-0,0,0,0,
,0,1608313888,105629877, ,0.624441,-1.85916,-1.25248,-1.65519,1.6594,-0.204007, ,0,0,-0,0,0,0,
,0,1608313888,107649567, ,0.624513,-1.85917,-1.25246,-1.65515,1.65942,-0.20402, ,0,0,-0,0,0,0,
,0,1608313888,109638186, ,0.624465,-1.85919,-1.25244,-1.65515,1.65945,-0.204031, ,0,0,-0,0,0,0,
,0,1608313888,111644031, ,0.624476,-1.85915,-1.25248,-1.65515,1.65944,-0.204031, ,0,0,-0,0,0,0,
,0,1608313888,113630463, ,0.624488,-1.85917,-1.25246,-1.65515,1.65942,-0.204031, ,0,0,-0,0,0,0,
,0,1608313888,115634722, ,0.6245,-1.85918,-1.25244,-1.65518,1.65942,-0.204031, ,0,0,-0,0,0,0,
,0,1608313888,117637298, ,0.624513,-1.85917,-1.25246,-1.65517,1.65941,-0.204007, ,0,0,-0,0,0,0,
,0,1608313888,119663197, ,0.624488,-1.85921,-1.25247,-1.65517,1.65941,-0.204031, ,0,0,-0,0,0,0,
,0,1608313888,121677088, ,0.6245,-1.85917,-1.25243,-1.65514,1.65942,-0.204044, ,0,0,-0,0,0,0,
,0,1608313888,123649932, ,0.624476,-1.85918,-1.25246,-1.65514,1.65937,-0.20402, ,0,0,-0,0,0,0,
,0,1608313888,125660963, ,0.624488,-1.85916,-1.25241,-1.65518,1.6594,-0.204007, ,0,0,-0,0,0,0,
,0,1608313888,127636786, ,0.6245,-1.85919,-1.25243,-1.65517,1.65941,-0.204068, ,0,0,-0,0,0,0,
,0,1608313888,129632941, ,0.6245,-1.85918,-1.25246,-1.65515,1.65941,-0.204055, ,0,0,-0,0,0,0,
,0,1608313888,131633708, ,0.624465,-1.85918,-1.25246,-1.65515,1.65937,-0.204031, ,0,0,-0,0,0,0,
,0,1608313888,133638378, ,0.624476,-1.85916,-1.25246,-1.65515,1.65945,-0.204007, ,0,0,-0,0,0,0,
,0,1608313888,135654635, ,0.6245,-1.85917,-1.25246,-1.65515,1.65941,-0.203996, ,0,0,-0,0,0,0,
,0,1608313888,137647287, ,0.624465,-1.85919,-1.25243,-1.65517,1.65942,-0.204031, ,0,0,-0,0,0,0,
,0,1608313888,139640841, ,0.624513,-1.85921,-1.25246,-1.65519,1.65944,-0.20402, ,0,0,-0,0,0,0,
,0,1608313888,141641331, ,0.624465,-1.85916,-1.25243,-1.65515,1.65941,-0.204068, ,0,0,-0,0,0,0,
,0,1608313888,143661769, ,0.624488,-1.85921,-1.25246,-1.65518,1.65944,-0.204055, ,0,0,-0,0,0,0,
,0,1608313888,145642076, ,0.624488,-1.85921,-1.25244,-1.65515,1.65941,-0.204079, ,0,0,-0,0,0,0,
,0,1608313888,147643476, ,0.6245,-1.85923,-1.25247,-1.65517,1.65944,-0.204044, ,0,0,-0,0,0,0,
,0,1608313888,149636555, ,0.624476,-1.85919,-1.25243,-1.65517,1.65944,-0.20402, ,0,0,-0,0,0,0,
,0,1608313888,151640231, ,0.624476,-1.85913,-1.25247,-1.65512,1.65942,-0.203996, ,0,0,-0,0,0,0,
,0,1608313888,153641120, ,0.624488,-1.85919,-1.25244,-1.6552,1.6594,-0.204068, ,0,0,-0,0,0,0,
,0,1608313888,155645679, ,0.624476,-1.85918,-1.25244,-1.65517,1.65941,-0.20402, ,0,0,-0,0,0,0,
,0,1608313888,157639175, ,0.624465,-1.85919,-1.25247,-1.65518,1.65942,-0.204007, ,0,0,-0,0,0,0,
,0,1608313888,159636571, ,0.624465,-1.85917,-1.25244,-1.65517,1.65937,-0.204007, ,0,0,-0,0,0,0,
,0,1608313888,161638781, ,0.624488,-1.85921,-1.25244,-1.65523,1.65944,-0.204007, ,0,0,-0,0,0,0,
,0,1608313888,163641448, ,0.624465,-1.85922,-1.25243,-1.65514,1.65944,-0.204055, ,0,0,-0,0,0,0,
,0,1608313888,165688355, ,0.624476,-1.85922,-1.25247,-1.65517,1.65944,-0.204068, ,0,0,-0,0,0,0,
,0,1608313888,167641841, ,0.624441,-1.85919,-1.25244,-1.65515,1.65942,-0.204007, ,0,0,-0,0,0,0,
,0,1608313888,169640233, ,0.624488,-1.85913,-1.25248,-1.65518,1.65945,-0.204031, ,0,0,-0,0,0,0,
,0,1608313888,171647308, ,0.624488,-1.85919,-1.25246,-1.65518,1.65944,-0.20402, ,0,0,-0,0,0,0,
,0,1608313888,173637833, ,0.624465,-1.85917,-1.25246,-1.65518,1.65941,-0.204044, ,0,0,-0,0,0,0,
,0,1608313888,175641520, ,0.624513,-1.85916,-1.25247,-1.65514,1.65942,-0.204031, ,0,0,-0,0,0,0,
,0,1608313888,177634347, ,0.624488,-1.85917,-1.25248,-1.65515,1.65945,-0.204031, ,0,0,-0,0,0,0,
,0,1608313888,179654722, ,0.624476,-1.85918,-1.25246,-1.65519,1.65942,-0.204044, ,0,0,-0,0,0,0,
,0,1608313888,181641428, ,0.6245,-1.85918,-1.25244,-1.65517,1.6594,-0.204031, ,0,0,-0,0,0,0,
,0,1608313888,183644574, ,0.6245,-1.85917,-1.25244,-1.65519,1.65942,-0.204031, ,0,0,-0,0,0,0,
,0,1608313888,185644211, ,0.624476,-1.85919,-1.25243,-1.65517,1.65939,-0.20402, ,0,0,-0,0,0,0,
,0,1608313888,187654411, ,0.624488,-1.85918,-1.25247,-1.65514,1.65944,-0.204031, ,0,0,-0,0,0,0,
,0,1608313888,189673733, ,0.624476,-1.85916,-1.25248,-1.65512,1.65945,-0.203996, ,0,0,-0,0,0,0,
,0,1608313888,191642430, ,0.624465,-1.85917,-1.25244,-1.6552,1.65941,-0.204031, ,0,0,-0,0,0,0,
,0,1608313888,193638400, ,0.624453,-1.85915,-1.25241,-1.65515,1.65944,-0.204044, ,0,0,-0,0,0,0,
,0,1608313888,195645194, ,0.6245,-1.85916,-1.25243,-1.65515,1.65942,-0.204055, ,0,0,-0,0,0,0,
,0,1608313888,197640919, ,0.624488,-1.85917,-1.25243,-1.65517,1.65942,-0.20402, ,0,0,-0,0,0,0,
,0,1608313888,199644431, ,0.624476,-1.85918,-1.25244,-1.65515,1.65945,-0.204055, ,0,0,-0,0,0,0,
,0,1608313888,201643575, ,0.6245,-1.85919,-1.25244,-1.65517,1.65942,-0.204068, ,0,0,-0,0,0,0,
,0,1608313888,203639194, ,0.624476,-1.85917,-1.25243,-1.65517,1.65942,-0.20402, ,0,0,-0,0,0,0,
,0,1608313888,205639441, ,0.624513,-1.85916,-1.25243,-1.65518,1.65944,-0.204055, ,0,0,-0,0,0,0,
,0,1608313888,207637025, ,0.624488,-1.85917,-1.25248,-1.65517,1.65941,-0.204068, ,0,0,-0,0,0,0,
,0,1608313888,209640295, ,0.624476,-1.85918,-1.25247,-1.65515,1.65946,-0.204068, ,0,0,-0,0,0,0,
,0,1608313888,211655473, ,0.6245,-1.85917,-1.25246,-1.65513,1.65942,-0.204055, ,0,0,-0,0,0,0,
,0,1608313888,213664298, ,0.624488,-1.85918,-1.25246,-1.65517,1.65946,-0.204031, ,0,0,-0,0,0,0,
,0,1608313888,215645322, ,0.624465,-1.85923,-1.25246,-1.65515,1.65945,-0.204007, ,0,0,-0,0,0,0,
,0,1608313888,217636467, ,0.624488,-1.85912,-1.25244,-1.65517,1.65944,-0.204044, ,0,0,-0,0,0,0,
,0,1608313888,219652299, ,0.6245,-1.85917,-1.25244,-1.65518,1.65944,-0.204044, ,0,0,-0,0,0,0,
,0,1608313888,221683809, ,0.6245,-1.85917,-1.25246,-1.65515,1.65944,-0.204044, ,0,0,-0,0,0,0,
,0,1608313888,223671678, ,0.6245,-1.85919,-1.25243,-1.65515,1.65944,-0.204031, ,0,0,-0,0,0,0,
,0,1608313888,225678142, ,0.624488,-1.85919,-1.25246,-1.65519,1.65945,-0.204079, ,0,0,-0,0,0,0,
,0,1608313888,227646309, ,0.624488,-1.85913,-1.25244,-1.65517,1.65941,-0.20402, ,0,0,-0,0,0,0,
,0,1608313888,229640512, ,0.624465,-1.85919,-1.25244,-1.65513,1.6594,-0.204031, ,0,0,-0,0,0,0,
,0,1608313888,231643829, ,0.624476,-1.85918,-1.25243,-1.65518,1.65944,-0.204068, ,0,0,-0,0,0,0,
,0,1608313888,233656093, ,0.624476,-1.85916,-1.25247,-1.65519,1.65941,-0.204044, ,0,0,-0,0,0,0,
,0,1608313888,235662031, ,0.624488,-1.85923,-1.25243,-1.65517,1.65944,-0.204031, ,0,0,-0,0,0,0,
,0,1608313888,237681904, ,0.6245,-1.85922,-1.25243,-1.65518,1.65944,-0.204031, ,0,0,-0,0,0,0,
,0,1608313888,239654077, ,0.6245,-1.85918,-1.25243,-1.65515,1.6594,-0.20402, ,0,0,-0,0,0,0,
,0,1608313888,241664529, ,0.624465,-1.85918,-1.25243,-1.65514,1.65942,-0.204055, ,0,0,-0,0,0,0,
,0,1608313888,243655635, ,0.624513,-1.85922,-1.25243,-1.65515,1.65942,-0.20402, ,0,0,-0,0,0,0,
,0,1608313888,245637789, ,0.624465,-1.85922,-1.25247,-1.65517,1.65941,-0.204044, ,0,0,-0,0,0,0,
,0,1608313888,247634580, ,0.6245,-1.85919,-1.25244,-1.65515,1.65941,-0.204007, ,0,0,-0,0,0,0,
,0,1608313888,249636671, ,0.624513,-1.85921,-1.25243,-1.65515,1.6594,-0.204031, ,0,0,-0,0,0,0,
,0,1608313888,251642476, ,0.624476,-1.85921,-1.25243,-1.65514,1.65944,-0.204007, ,0,0,-0,0,0,0,
,0,1608313888,253631497, ,0.624465,-1.85918,-1.25243,-1.65514,1.65942,-0.204031, ,0,0,-0,0,0,0,
,0,1608313888,255632415, ,0.624476,-1.85915,-1.25243,-1.65514,1.65939,-0.20402, ,0,0,-0,0,0,0,
,0,1608313888,257632576, ,0.624513,-1.85913,-1.25246,-1.65515,1.65946,-0.204044, ,0,0,-0,0,0,0,
,0,1608313888,259643261, ,0.624488,-1.85918,-1.25247,-1.65517,1.65939,-0.20402, ,0,0,-0,0,0,0,
,0,1608313888,261635799, ,0.6245,-1.85918,-1.25244,-1.65515,1.65939,-0.20402, ,0,0,-0,0,0,0,
,0,1608313888,263633732, ,0.624476,-1.85917,-1.25244,-1.65517,1.65942,-0.20402, ,0,0,-0,0,0,0,
,0,1608313888,265637741, ,0.624465,-1.85915,-1.25243,-1.65513,1.65941,-0.204068, ,0,0,-0,0,0,0,
,0,1608313888,267640823, ,0.624476,-1.85918,-1.25244,-1.6552,1.65945,-0.20402, ,0,0,-0,0,0,0,
,0,1608313888,269651524, ,0.624441,-1.85921,-1.25244,-1.65513,1.65941,-0.204031, ,0,0,-0,0,0,0,
,0,1608313888,271661636, ,0.624537,-1.85917,-1.25246,-1.65517,1.65942,-0.204031, ,0,0,-0,0,0,0,
,0,1608313888,273673170, ,0.624465,-1.85919,-1.25247,-1.65515,1.65944,-0.204031, ,0,0,-0,0,0,0,
,0,1608313888,275665322, ,0.624513,-1.85918,-1.25246,-1.65515,1.65944,-0.204044, ,0,0,-0,0,0,0,
,0,1608313888,277649228, ,0.624488,-1.85916,-1.25246,-1.65515,1.65947,-0.204044, ,0,0,-0,0,0,0,
,0,1608313888,279645817, ,0.624476,-1.85919,-1.25243,-1.65518,1.65945,-0.204031, ,0,0,-0,0,0,0,
,0,1608313888,281657313, ,0.624488,-1.85919,-1.25247,-1.65515,1.65946,-0.204007, ,0,0,-0,0,0,0,
,0,1608313888,283675710, ,0.624476,-1.85917,-1.25246,-1.65519,1.65942,-0.20402, ,0,0,-0,0,0,0,
,0,1608313888,285650664, ,0.624513,-1.85915,-1.25246,-1.65518,1.65942,-0.204068, ,0,0,-0,0,0,0,
,0,1608313888,287811567, ,0.624488,-1.85919,-1.25244,-1.65518,1.65942,-0.204031, ,0,0,-0,0,0,0,
,0,1608313888,289658121, ,0.6245,-1.85919,-1.25246,-1.65515,1.65946,-0.204068, ,0,0,-0,0,0,0,
,0,1608313888,291644260, ,0.624476,-1.85916,-1.25246,-1.65517,1.65941,-0.204007, ,0,0,-0,0,0,0,
,0,1608313888,293637265, ,0.624465,-1.85919,-1.25247,-1.65515,1.6594,-0.20402, ,0,0,-0,0,0,0,
,0,1608313888,295673906, ,0.624465,-1.85919,-1.25246,-1.65518,1.65945,-0.204055, ,0,0,-0,0,0,0,
,0,1608313888,297645032, ,0.624488,-1.85923,-1.25247,-1.65518,1.65942,-0.204031, ,0,0,-0,0,0,0,
,0,1608313888,299637496, ,0.624453,-1.85922,-1.25244,-1.65515,1.65942,-0.204055, ,0,0,-0,0,0,0,
,0,1608313888,301631598, ,0.624476,-1.85919,-1.25246,-1.65511,1.65944,-0.203984, ,0,0,-0,0,0,0,
,0,1608313888,303634669, ,0.624465,-1.85917,-1.25247,-1.65514,1.65945,-0.204044, ,0,0,-0,0,0,0,
,0,1608313888,305630833, ,0.624453,-1.85916,-1.25244,-1.65518,1.6594,-0.204044, ,0,0,-0,0,0,0,
,0,1608313888,307630759, ,0.624488,-1.85922,-1.25244,-1.65517,1.6594,-0.204007, ,0,0,-0,0,0,0,
,0,1608313888,309693841, ,0.624513,-1.85917,-1.25246,-1.65517,1.65945,-0.20402, ,0,0,-0,0,0,0,
,0,1608313888,311654025, ,0.624465,-1.85921,-1.25243,-1.65514,1.6594,-0.204031, ,0,0,-0,0,0,0,
,0,1608313888,313695755, ,0.624465,-1.85921,-1.25246,-1.6552,1.65939,-0.204007, ,0,0,-0,0,0,0,
,0,1608313888,315650873, ,0.624488,-1.85918,-1.25244,-1.65514,1.65946,-0.204031, ,0,0,-0,0,0,0,
,0,1608313888,317641106, ,0.6245,-1.85919,-1.25243,-1.65517,1.65947,-0.204044, ,0,0,-0,0,0,0,
,0,1608313888,319648849, ,0.624453,-1.85919,-1.25244,-1.65514,1.65946,-0.204007, ,0,0,-0,0,0,0,
,0,1608313888,321710994, ,0.624488,-1.85917,-1.25247,-1.65519,1.65946,-0.204068, ,0,0,-0,0,0,0,
,0,1608313888,323676231, ,0.624488,-1.85919,-1.25248,-1.65514,1.65939,-0.20402, ,0,0,-0,0,0,0,
,0,1608313888,325664789, ,0.624429,-1.85917,-1.25244,-1.65517,1.6594,-0.204044, ,0,0,-0,0,0,0,
,0,1608313888,327647545, ,0.624465,-1.85921,-1.25248,-1.65514,1.65944,-0.204068, ,0,0,-0,0,0,0,
,0,1608313888,329647190, ,0.624476,-1.85917,-1.25246,-1.65517,1.65944,-0.203984, ,0,0,-0,0,0,0,
,0,1608313888,331652441, ,0.624476,-1.85913,-1.25244,-1.65519,1.65944,-0.20402, ,0,0,-0,0,0,0,
,0,1608313888,333654773, ,0.624476,-1.85918,-1.25246,-1.65512,1.6594,-0.204044, ,0,0,-0,0,0,0,
,0,1608313888,335646889, ,0.624488,-1.85918,-1.25243,-1.65517,1.6594,-0.203984, ,0,0,-0,0,0,0,
,0,1608313888,337652543, ,0.624476,-1.85921,-1.25243,-1.65515,1.65939,-0.20402, ,0,0,-0,0,0,0,
,0,1608313888,339647373, ,0.6245,-1.85918,-1.25244,-1.65519,1.65944,-0.204044, ,0,0,-0,0,0,0,
,0,1608313888,341652539, ,0.624465,-1.85917,-1.25246,-1.65515,1.6594,-0.204031, ,0,0,-0,0,0,0,
,0,1608313888,343648748, ,0.6245,-1.85915,-1.25248,-1.65513,1.6594,-0.204031, ,0,0,-0,0,0,0,
,0,1608313888,345645143, ,0.624488,-1.85917,-1.25242,-1.65519,1.65944,-0.204007, ,0,0,-0,0,0,0,
,0,1608313888,347656320, ,0.624476,-1.85917,-1.25247,-1.65518,1.6594,-0.204031, ,0,0,-0,0,0,0,
,0,1608313888,349672263, ,0.624476,-1.85919,-1.25246,-1.65518,1.65946,-0.204007, ,0,0,-0,0,0,0,
,0,1608313888,351653595, ,0.624476,-1.85917,-1.25246,-1.65514,1.65941,-0.204031, ,0,0,-0,0,0,0,
,0,1608313888,353641429, ,0.624453,-1.85917,-1.25246,-1.65517,1.65944,-0.20402, ,0,0,-0,0,0,0,
,0,1608313888,355648128, ,0.6245,-1.85919,-1.25246,-1.65512,1.65942,-0.204031, ,0,0,-0,0,0,0,
,0,1608313888,357645267, ,0.624488,-1.85922,-1.25246,-1.65515,1.65944,-0.204079, ,0,0,-0,0,0,0,
,0,1608313888,359655071, ,0.624465,-1.85919,-1.25244,-1.65514,1.65941,-0.204044, ,0,0,-0,0,0,0,
,0,1608313888,361645110, ,0.624476,-1.85922,-1.25246,-1.65517,1.65945,-0.204031, ,0,0,-0,0,0,0,
,0,1608313888,363647999, ,0.624465,-1.85921,-1.25247,-1.65514,1.65941,-0.204007, ,0,0,-0,0,0,0,
,0,1608313888,365638376, ,0.624476,-1.85916,-1.25247,-1.65515,1.65944,-0.204031, ,0,0,-0,0,0,0,
,0,1608313888,367671139, ,0.624488,-1.85918,-1.25243,-1.65514,1.6594,-0.203972, ,0,0,-0,0,0,0,
,0,1608313888,369649572, ,0.624513,-1.85918,-1.25244,-1.65517,1.65942,-0.204055, ,0,0,-0,0,0,0,
,0,1608313888,371654742, ,0.624476,-1.85916,-1.25243,-1.65517,1.6594,-0.20402, ,0,0,-0,0,0,0,
,0,1608313888,373648569, ,0.624513,-1.85918,-1.25244,-1.65518,1.65941,-0.204007, ,0,0,-0,0,0,0,
,0,1608313888,375647417, ,0.624488,-1.85921,-1.25246,-1.65514,1.65944,-0.203984, ,0,0,-0,0,0,0,
,0,1608313888,377651905, ,0.624488,-1.85915,-1.25246,-1.65518,1.6594,-0.20402, ,0,0,-0,0,0,0,
,0,1608313888,379650466, ,0.624513,-1.85916,-1.25246,-1.65515,1.65941,-0.204031, ,0,0,-0,0,0,0,
,0,1608313888,381641685, ,0.624513,-1.85916,-1.25247,-1.65515,1.65944,-0.20402, ,0,0,-0,0,0,0,
,0,1608313888,383646580, ,0.624441,-1.85916,-1.25246,-1.65515,1.65942,-0.204044, ,0,0,-0,0,0,0,
,0,1608313888,385646168, ,0.624476,-1.85923,-1.25248,-1.65515,1.65941,-0.204031, ,0,0,-0,0,0,0,
,0,1608313888,387655549, ,0.624513,-1.85913,-1.25242,-1.65517,1.65944,-0.204007, ,0,0,-0,0,0,0,
,0,1608313888,389643716, ,0.6245,-1.85916,-1.25244,-1.65515,1.65941,-0.204031, ,0,0,-0,0,0,0,
,0,1608313888,391649563, ,0.6245,-1.85917,-1.25244,-1.65514,1.65946,-0.204031, ,0,0,-0,0,0,0,
,0,1608313888,393648888, ,0.624465,-1.85916,-1.25242,-1.65514,1.65939,-0.204044, ,0,0,-0,0,0,0,
,0,1608313888,395657173, ,0.624476,-1.85918,-1.25246,-1.65513,1.65937,-0.204044, ,0,0,-0,0,0,0,
,0,1608313888,397649426, ,0.624488,-1.85919,-1.25243,-1.65513,1.65939,-0.204044, ,0,0,-0,0,0,0,
,0,1608313888,399648512, ,0.624476,-1.85916,-1.25248,-1.65514,1.65941,-0.204031, ,0,0,-0,0,0,0,
,0,1608313888,401646049, ,0.624465,-1.85917,-1.25243,-1.65517,1.65942,-0.204079, ,0,0,-0,0,0,0,
,0,1608313888,403648387, ,0.6245,-1.85922,-1.25244,-1.65513,1.65941,-0.204031, ,0,0,-0,0,0,0,
,0,1608313888,405647620, ,0.6245,-1.85921,-1.25244,-1.65515,1.6594,-0.204068, ,0,0,-0,0,0,0,
,0,1608313888,407645498, ,0.6245,-1.85917,-1.25244,-1.65512,1.65945,-0.20402, ,0,0,-0,0,0,0,
,0,1608313888,409649244, ,0.624465,-1.85917,-1.25246,-1.65511,1.65942,-0.204055, ,0,0,-0,0,0,0,
,0,1608313888,411651659, ,0.624488,-1.85916,-1.25246,-1.65515,1.65941,-0.204007, ,0,0,-0,0,0,0,
,0,1608313888,413650111, ,0.624465,-1.85918,-1.25247,-1.65518,1.65942,-0.203972, ,0,0,-0,0,0,0,
,0,1608313888,415650338, ,0.624476,-1.85917,-1.25246,-1.65514,1.65945,-0.20402, ,0,0,-0,0,0,0,
,0,1608313888,417649769, ,0.624513,-1.85918,-1.25246,-1.65517,1.65946,-0.20402, ,0,0,-0,0,0,0,
,0,1608313888,419648233, ,0.624488,-1.85918,-1.25246,-1.65517,1.65945,-0.204079, ,0,0,-0,0,0,0,
,0,1608313888,421697803, ,0.624476,-1.85916,-1.25247,-1.6552,1.65942,-0.204031, ,0,0,-0,0,0,0,
,0,1608313888,423673081, ,0.624476,-1.85919,-1.25244,-1.65515,1.65944,-0.20402, ,0,0,-0,0,0,0,
,0,1608313888,425678663, ,0.624465,-1.85919,-1.25247,-1.65518,1.65942,-0.204044, ,0,0,-0,0,0,0,
,0,1608313888,427650809, ,0.624476,-1.85916,-1.25244,-1.65518,1.65944,-0.20402, ,0,0,-0,0,0,0,
,0,1608313888,429651749, ,0.6245,-1.85918,-1.25247,-1.65515,1.65944,-0.204007, ,0,0,-0,0,0,0,
,0,1608313888,431665321, ,0.624488,-1.85917,-1.25242,-1.6552,1.65945,-0.204055, ,0,0,-0,0,0,0,
,0,1608313888,433650297, ,0.624465,-1.85917,-1.25247,-1.65515,1.65939,-0.204055, ,0,0,-0,0,0,0,
,0,1608313888,435648335, ,0.624488,-1.85915,-1.25246,-1.65518,1.65944,-0.203984, ,0,0,-0,0,0,0,
,0,1608313888,437643419, ,0.624453,-1.85917,-1.25244,-1.65519,1.65944,-0.204031, ,0,0,-0,0,0,0,
,0,1608313888,439642579, ,0.624476,-1.85917,-1.25248,-1.65514,1.65947,-0.204068, ,0,0,-0,0,0,0,
,0,1608313888,441646686, ,0.624476,-1.85921,-1.25246,-1.65517,1.65945,-0.20402, ,0,0,-0,0,0,0,
,0,1608313888,443651283, ,0.624465,-1.85919,-1.25246,-1.65517,1.65936,-0.204044, ,0,0,-0,0,0,0,
,0,1608313888,445647540, ,0.624465,-1.85915,-1.25244,-1.65514,1.65944,-0.204007, ,0,0,-0,0,0,0,
,0,1608313888,447650505, ,0.624476,-1.85916,-1.25244,-1.65514,1.65945,-0.20402, ,0,0,-0,0,0,0,
,0,1608313888,449648624, ,0.624476,-1.85917,-1.25244,-1.65515,1.6594,-0.203948, ,0,0,-0,0,0,0,
,0,1608313888,451651266, ,0.624465,-1.85916,-1.25242,-1.65518,1.6594,-0.204044, ,0,0,-0,0,0,0,
,0,1608313888,453645457, ,0.624513,-1.85919,-1.25244,-1.65514,1.65942,-0.204031, ,0,0,-0,0,0,0,
,0,1608313888,455643556, ,0.624453,-1.85918,-1.25247,-1.65517,1.65942,-0.204068, ,0,0,-0,0,0,0,
,0,1608313888,457648778, ,0.6245,-1.85913,-1.25244,-1.65515,1.65944,-0.204079, ,0,0,-0,0,0,0,
,0,1608313888,459652242, ,0.6245,-1.85915,-1.25242,-1.65514,1.65945,-0.204031, ,0,0,-0,0,0,0,
,0,1608313888,461646077, ,0.624465,-1.85917,-1.25246,-1.65514,1.65941,-0.204007, ,0,0,-0,0,0,0,
,0,1608313888,463652886, ,0.624465,-1.85918,-1.25244,-1.65515,1.65946,-0.204007, ,0,0,-0,0,0,0,
,0,1608313888,465645863, ,0.624441,-1.85919,-1.25247,-1.65514,1.65945,-0.203996, ,0,0,-0,0,0,0,
,0,1608313888,467653905, ,0.624476,-1.85919,-1.25244,-1.65517,1.65945,-0.203996, ,0,0,-0,0,0,0,
,0,1608313888,469645816, ,0.624465,-1.85921,-1.25247,-1.65512,1.65937,-0.204007, ,0,0,-0,0,0,0,
,0,1608313888,471672887, ,0.6245,-1.85918,-1.25246,-1.65513,1.65941,-0.20402, ,0,0,-0,0,0,0,
,0,1608313888,473646257, ,0.624488,-1.85917,-1.25247,-1.65515,1.65944,-0.204031, ,0,0,-0,0,0,0,
,0,1608313888,475638172, ,0.624513,-1.85917,-1.25249,-1.65515,1.65946,-0.204007, ,0,0,-0,0,0,0,
,0,1608313888,477631139, ,0.624488,-1.85917,-1.25244,-1.65515,1.65941,-0.203996, ,0,0,-0,0,0,0,
,0,1608313888,479636727, ,0.624476,-1.85917,-1.25247,-1.65515,1.65937,-0.204031, ,0,0,-0,0,0,0,
,0,1608313888,481638342, ,0.624513,-1.85919,-1.25243,-1.6552,1.65947,-0.20402, ,0,0,-0,0,0,0,
,0,1608313888,483630677, ,0.624465,-1.85913,-1.25242,-1.6552,1.65941,-0.204079, ,0,0,-0,0,0,0,
,0,1608313888,485632174, ,0.624488,-1.85919,-1.25246,-1.65517,1.65942,-0.20402, ,0,0,-0,0,0,0,
,0,1608313888,487632901, ,0.624476,-1.85916,-1.25243,-1.65514,1.65945,-0.204031, ,0,0,-0,0,0,0,
,0,1608313888,489624799, ,0.624513,-1.85921,-1.25246,-1.65514,1.65944,-0.20402, ,0,0,-0,0,0,0,
,0,1608313888,491659062, ,0.624465,-1.85919,-1.25242,-1.65513,1.65944,-0.204031, ,0,0,-0,0,0,0,
,0,1608313888,493650339, ,0.624488,-1.85916,-1.25246,-1.65517,1.65944,-0.204044, ,0,0,-0,0,0,0,
,0,1608313888,495653313, ,0.624465,-1.85918,-1.25246,-1.65515,1.65941,-0.20402, ,0,0,-0,0,0,0,
,0,1608313888,497644216, ,0.624465,-1.85916,-1.25244,-1.65515,1.65946,-0.204103, ,0,0,-0,0,0,0,
,0,1608313888,499647738, ,0.624453,-1.85915,-1.25247,-1.65517,1.65944,-0.204068, ,0,0,-0,0,0,0,
,0,1608313888,501647392, ,0.624476,-1.85916,-1.25248,-1.65518,1.6594,-0.204031, ,0,0,-0,0,0,0,
,0,1608313888,503644136, ,0.624465,-1.85918,-1.25246,-1.65515,1.65944,-0.20402, ,0,0,-0,0,0,0,
,0,1608313888,505643484, ,0.624488,-1.85918,-1.25242,-1.65519,1.6594,-0.20402, ,0,0,-0,0,0,0,
,0,1608313888,507651553, ,0.624453,-1.85923,-1.25244,-1.65515,1.65944,-0.204044, ,0,0,-0,0,0,0,
,0,1608313888,509642046, ,0.624476,-1.85922,-1.25243,-1.65515,1.65942,-0.204007, ,0,0,-0,0,0,0,
,0,1608313888,511647028, ,0.624476,-1.85917,-1.25244,-1.65517,1.6594,-0.204031, ,0,0,-0,0,0,0,
,0,1608313888,513645772, ,0.624465,-1.85918,-1.25244,-1.65515,1.65941,-0.204007, ,0,0,-0,0,0,0,
,0,1608313888,515649355, ,0.624476,-1.85915,-1.25244,-1.65518,1.65945,-0.204091, ,0,0,-0,0,0,0,
,0,1608313888,517646322, ,0.624476,-1.85921,-1.25248,-1.65515,1.65942,-0.204055, ,0,0,-0,0,0,0,
,0,1608313888,519646173, ,0.6245,-1.85915,-1.25244,-1.65513,1.65939,-0.204044, ,0,0,-0,0,0,0,
,0,1608313888,521672618, ,0.6245,-1.85917,-1.25243,-1.65515,1.65941,-0.204055, ,0,0,-0,0,0,0,
,0,1608313888,523698471, ,0.6245,-1.85917,-1.25243,-1.65512,1.65941,-0.204044, ,0,0,-0,0,0,0,
,0,1608313888,525654378, ,0.624488,-1.85917,-1.25244,-1.65512,1.65942,-0.20402, ,0,0,-0,0,0,0,
,0,1608313888,527652007, ,0.624465,-1.85918,-1.25246,-1.65517,1.6594,-0.204044, ,0,0,-0,0,0,0,
,0,1608313888,529641982, ,0.624465,-1.85924,-1.25244,-1.65518,1.65942,-0.20402, ,0,0,-0,0,0,0,
,0,1608313888,531654933, ,0.624476,-1.85917,-1.25241,-1.65517,1.6594,-0.204031, ,0,0,-0,0,0,0,
,0,1608313888,533656317, ,0.624513,-1.85916,-1.25247,-1.65514,1.6594,-0.204055, ,0,0,-0,0,0,0,
,0,1608313888,535644176, ,0.6245,-1.85919,-1.25246,-1.65517,1.65944,-0.204044, ,0,0,-0,0,0,0,
,0,1608313888,537660604, ,0.624488,-1.85915,-1.25244,-1.65519,1.65945,-0.204044, ,0,0,-0,0,0,0,
,0,1608313888,539658555, ,0.624476,-1.85917,-1.25243,-1.65515,1.65944,-0.204055, ,0,0,-0,0,0,0,
,0,1608313888,541646117, ,0.624488,-1.85919,-1.25243,-1.65513,1.65944,-0.204031, ,0,0,-0,0,0,0,
,0,1608313888,543647749, ,0.624465,-1.85924,-1.25244,-1.65514,1.6594,-0.204031, ,0,0,-0,0,0,0,
,0,1608313888,545681548, ,0.624465,-1.85915,-1.25243,-1.65517,1.65942,-0.203972, ,0,0,-0,0,0,0,
,0,1608313888,547659586, ,0.624488,-1.85919,-1.25243,-1.65515,1.65944,-0.203984, ,0,0,-0,0,0,0,
,0,1608313888,549659082, ,0.6245,-1.85919,-1.25244,-1.65514,1.65937,-0.204055, ,0,0,-0,0,0,0,
,0,1608313888,551653563, ,0.624513,-1.85918,-1.25243,-1.65515,1.65947,-0.204007, ,0,0,-0,0,0,0,
,0,1608313888,553648119, ,0.6245,-1.85916,-1.25244,-1.65518,1.65944,-0.204031, ,0,0,-0,0,0,0,
,0,1608313888,555648699, ,0.624416,-1.85916,-1.25246,-1.65515,1.65945,-0.204007, ,0,0,-0,0,0,0,
,0,1608313888,557646153, ,0.624476,-1.85917,-1.25248,-1.65517,1.65942,-0.203972, ,0,0,-0,0,0,0,
,0,1608313888,559649481, ,0.624513,-1.85922,-1.25243,-1.65513,1.6594,-0.204044, ,0,0,-0,0,0,0,
,0,1608313888,561648277, ,0.624465,-1.85918,-1.25247,-1.65517,1.65941,-0.203996, ,0,0,-0,0,0,0,
,0,1608313888,563653477, ,0.624465,-1.85919,-1.25243,-1.65515,1.6594,-0.204055, ,0,0,-0,0,0,0,
,0,1608313888,565650357, ,0.624488,-1.85919,-1.25244,-1.65515,1.65944,-0.204031, ,0,0,-0,0,0,0,
,0,1608313888,567653529, ,0.624453,-1.85918,-1.25243,-1.65518,1.65945,-0.204031, ,0,0,-0,0,0,0,
,0,1608313888,569649905, ,0.624488,-1.85916,-1.25246,-1.65515,1.65944,-0.204044, ,0,0,-0,0,0,0,
,0,1608313888,571658330, ,0.624488,-1.85919,-1.25244,-1.65517,1.65944,-0.204044, ,0,0,-0,0,0,0,
,0,1608313888,573648342, ,0.624488,-1.85918,-1.25242,-1.65519,1.65942,-0.204031, ,0,0,-0,0,0,0,
,0,1608313888,575648133, ,0.624513,-1.85916,-1.25246,-1.65517,1.65941,-0.204007, ,0,0,-0,0,0,0,
,0,1608313888,577638240, ,0.624488,-1.85916,-1.25243,-1.65515,1.65939,-0.204007, ,0,0,-0,0,0,0,
,0,1608313888,579635760, ,0.624465,-1.85917,-1.25243,-1.65515,1.65942,-0.204007, ,0,0,-0,0,0,0,
,0,1608313888,581635152, ,0.624465,-1.85918,-1.25243,-1.65512,1.65946,-0.204031, ,0,0,-0,0,0,0,
,0,1608313888,583633479, ,0.6245,-1.85919,-1.25241,-1.65515,1.65941,-0.204044, ,0,0,-0,0,0,0,
,0,1608313888,585653156, ,0.624476,-1.85915,-1.25247,-1.65518,1.65941,-0.20402, ,0,0,-0,0,0,0,
,0,1608313888,587641761, ,0.624465,-1.85917,-1.25246,-1.65515,1.65944,-0.204031, ,0,0,-0,0,0,0,
,0,1608313888,589634585, ,0.624465,-1.85916,-1.25246,-1.65519,1.65941,-0.20402, ,0,0,-0,0,0,0,
,0,1608313888,591643646, ,0.624488,-1.85916,-1.25248,-1.65517,1.65941,-0.204044, ,0,0,-0,0,0,0,
,0,1608313888,593633347, ,0.624476,-1.85917,-1.25247,-1.65514,1.65945,-0.203984, ,0,0,-0,0,0,0,
,0,1608313888,595637641, ,0.624488,-1.85916,-1.25244,-1.65517,1.65944,-0.204007, ,0,0,-0,0,0,0,
,0,1608313888,597631414, ,0.624465,-1.85922,-1.25246,-1.6552,1.65945,-0.20402, ,0,0,-0,0,0,0,
,0,1608313888,599636002, ,0.624488,-1.85916,-1.25244,-1.65515,1.65944,-0.204068, ,0,0,-0,0,0,0,
,0,1608313888,601640278, ,0.624476,-1.85922,-1.25243,-1.65517,1.65939,-0.203972, ,0,0,-0,0,0,0,
,0,1608313888,603634003, ,0.6245,-1.85916,-1.25242,-1.65514,1.65947,-0.204031, ,0,0,-0,0,0,0,
,0,1608313888,605632092, ,0.624465,-1.85916,-1.25243,-1.65515,1.65941,-0.204031, ,0,0,-0,0,0,0,
,0,1608313888,607634848, ,0.624488,-1.85922,-1.25244,-1.65517,1.65941,-0.20402, ,0,0,-0,0,0,0,
,0,1608313888,609635616, ,0.6245,-1.85917,-1.25248,-1.65515,1.65944,-0.204044, ,0,0,-0,0,0,0,
,0,1608313888,611632937, ,0.624476,-1.85916,-1.25244,-1.65515,1.65944,-0.204044, ,0,0,-0,0,0,0,
,0,1608313888,613637358, ,0.624488,-1.85917,-1.25243,-1.65515,1.65941,-0.204031, ,0,0,-0,0,0,0,
,0,1608313888,615645550, ,0.624513,-1.85918,-1.25243,-1.65515,1.65939,-0.20402, ,0,0,-0,0,0,0,
,0,1608313888,617635852, ,0.6245,-1.85919,-1.25246,-1.65515,1.65945,-0.204007, ,0,0,-0,0,0,0,
,0,1608313888,619644942, ,0.624476,-1.85915,-1.25247,-1.65517,1.65944,-0.204031, ,0,0,-0,0,0,0,
,0,1608313888,621652876, ,0.6245,-1.85917,-1.25246,-1.65514,1.65942,-0.20402, ,0,0,-0,0,0,0,
,0,1608313888,623684099, ,0.624488,-1.85917,-1.25248,-1.65515,1.65941,-0.204031, ,0,0,-0,0,0,0,
,0,1608313888,625674045, ,0.624453,-1.85916,-1.25246,-1.65517,1.65944,-0.20402, ,0,0,-0,0,0,0,
,0,1608313888,627649692, ,0.6245,-1.85919,-1.25247,-1.65514,1.65942,-0.204055, ,0,0,-0,0,0,0,
,0,1608313888,629644426, ,0.624488,-1.85916,-1.25244,-1.65517,1.65941,-0.20402, ,0,0,-0,0,0,0,
,0,1608313888,631645095, ,0.624488,-1.85918,-1.25244,-1.65513,1.65946,-0.204031, ,0,0,-0,0,0,0,
,0,1608313888,633654210, ,0.624476,-1.85918,-1.25244,-1.65515,1.65944,-0.203996, ,0,0,-0,0,0,0,
,0,1608313888,635653861, ,0.624476,-1.85917,-1.25244,-1.65511,1.6594,-0.204031, ,0,0,-0,0,0,0,
,0,1608313888,637637267, ,0.624513,-1.85921,-1.25242,-1.65518,1.65941,-0.204031, ,0,0,-0,0,0,0,
,0,1608313888,639642174, ,0.624476,-1.85916,-1.25244,-1.65517,1.65939,-0.204007, ,0,0,-0,0,0,0,
,0,1608313888,641642276, ,0.624488,-1.85918,-1.25243,-1.65515,1.65946,-0.204044, ,0,0,-0,0,0,0,
,0,1608313888,643658034, ,0.624513,-1.85918,-1.25243,-1.65515,1.65944,-0.20402, ,0,0,-0,0,0,0,
,0,1608313888,645657462, ,0.624488,-1.85918,-1.25244,-1.65513,1.65944,-0.204079, ,0,0,-0,0,0,0,
,0,1608313888,647657738, ,0.624465,-1.85913,-1.25244,-1.65514,1.6594,-0.204031, ,0,0,-0,0,0,0,
,0,1608313888,649652111, ,0.624476,-1.85917,-1.25243,-1.65514,1.6594,-0.204044, ,0,0,-0,0,0,0,
,0,1608313888,651649183, ,0.624476,-1.85919,-1.25244,-1.65514,1.65946,-0.204044, ,0,0,-0,0,0,0,
,0,1608313888,653646356, ,0.624465,-1.85917,-1.25248,-1.65518,1.65942,-0.204007, ,0,0,-0,0,0,0,
,0,1608313888,655653566, ,0.624513,-1.85913,-1.25243,-1.65515,1.65945,-0.204055, ,0,0,-0,0,0,0,
,0,1608313888,657645752, ,0.624476,-1.85916,-1.25243,-1.65515,1.65941,-0.204079, ,0,0,-0,0,0,0,
,0,1608313888,659655957, ,0.624513,-1.85917,-1.25243,-1.65518,1.65941,-0.204031, ,0,0,-0,0,0,0,
,0,1608313888,661654730, ,0.6245,-1.85916,-1.25246,-1.65517,1.65941,-0.20402, ,0,0,-0,0,0,0,
,0,1608313888,663651824, ,0.624488,-1.85921,-1.25244,-1.65517,1.65937,-0.204044, ,0,0,-0,0,0,0,
,0,1608313888,665666717, ,0.624453,-1.85921,-1.25247,-1.65518,1.65941,-0.204044, ,0,0,-0,0,0,0,
,0,1608313888,667650630, ,0.624465,-1.85913,-1.25246,-1.65513,1.65942,-0.204031, ,0,0,-0,0,0,0,
,0,1608313888,669644598, ,0.624465,-1.85916,-1.25244,-1.65518,1.65945,-0.204068, ,0,0,-0,0,0,0,
,0,1608313888,671655345, ,0.624465,-1.85917,-1.25243,-1.65512,1.65942,-0.204044, ,0,0,-0,0,0,0,
,0,1608313888,673647211, ,0.624453,-1.85917,-1.25243,-1.65515,1.65945,-0.204044, ,0,0,-0,0,0,0,
,0,1608313888,675642588, ,0.624476,-1.85921,-1.25243,-1.65515,1.65944,-0.204055, ,0,0,-0,0,0,0,
,0,1608313888,677645369, ,0.624476,-1.85915,-1.25244,-1.65517,1.65942,-0.204031, ,0,0,-0,0,0,0,
,0,1608313888,679637029, ,0.624476,-1.85913,-1.25242,-1.65517,1.6594,-0.203996, ,0,0,-0,0,0,0,
,0,1608313888,681632814, ,0.6245,-1.85917,-1.25246,-1.65515,1.6594,-0.204031, ,0,0,-0,0,0,0,
,0,1608313888,683637549, ,0.624488,-1.85916,-1.25243,-1.65512,1.65946,-0.204044, ,0,0,-0,0,0,0,
,0,1608313888,685647902, ,0.624465,-1.85919,-1.25246,-1.65513,1.65944,-0.204044, ,0,0,-0,0,0,0,
,0,1608313888,687634256, ,0.624453,-1.85918,-1.25243,-1.65514,1.65944,-0.204055, ,0,0,-0,0,0,0,
,0,1608313888,689629410, ,0.624476,-1.85921,-1.25246,-1.65513,1.65942,-0.204044, ,0,0,-0,0,0,0,
,0,1608313888,691633065, ,0.624476,-1.85917,-1.25241,-1.65521,1.65941,-0.204007, ,0,0,-0,0,0,0,
,0,1608313888,693635007, ,0.624476,-1.85919,-1.25244,-1.65512,1.65942,-0.204031, ,0,0,-0,0,0,0,
,0,1608313888,695650788, ,0.624465,-1.85917,-1.25244,-1.65514,1.65942,-0.204044, ,0,0,-0,0,0,0,
,0,1608313888,697641318, ,0.6245,-1.85919,-1.25244,-1.65517,1.65941,-0.204031, ,0,0,-0,0,0,0,
,0,1608313888,699643202, ,0.624453,-1.85916,-1.25243,-1.65514,1.65942,-0.204031, ,0,0,-0,0,0,0,
,0,1608313888,701641345, ,0.624476,-1.85916,-1.25243,-1.65517,1.65944,-0.204031, ,0,0,-0,0,0,0,
,0,1608313888,703637122, ,0.624488,-1.85919,-1.25243,-1.65517,1.65942,-0.204044, ,0,0,-0,0,0,0,
,0,1608313888,705658033, ,0.624476,-1.85918,-1.25247,-1.65519,1.65945,-0.203996, ,0,0,-0,0,0,0,
,0,1608313888,707657232, ,0.624488,-1.85919,-1.25246,-1.65518,1.65942,-0.204031, ,0,0,-0,0,0,0,
,0,1608313888,709652911, ,0.624488,-1.85917,-1.25244,-1.65517,1.65946,-0.20402, ,0,0,-0,0,0,0,
,0,1608313888,711664347, ,0.624513,-1.85917,-1.25243,-1.65517,1.65942,-0.204007, ,0,0,-0,0,0,0,
,0,1608313888,713657449, ,0.624476,-1.85913,-1.25246,-1.65512,1.65942,-0.204031, ,0,0,-0,0,0,0,
,0,1608313888,715657245, ,0.624488,-1.85913,-1.25247,-1.65514,1.65944,-0.204031, ,0,0,-0,0,0,0,
,0,1608313888,717646049, ,0.6245,-1.85919,-1.25244,-1.65518,1.65945,-0.20402, ,0,0,-0,0,0,0,
,0,1608313888,719654485, ,0.624488,-1.85918,-1.25243,-1.65519,1.65945,-0.20402, ,0,0,-0,0,0,0,
,0,1608313888,721660329, ,0.6245,-1.85923,-1.25246,-1.65514,1.65939,-0.20402, ,0,0,-0,0,0,0,
,0,1608313888,723707887, ,0.624488,-1.85917,-1.25248,-1.65515,1.65941,-0.204044, ,0,0,-0,0,0,0,
,0,1608313888,725746808, ,0.6245,-1.85917,-1.25242,-1.6552,1.65941,-0.203972, ,0,0,-0,0,0,0,
,0,1608313888,727699516, ,0.624476,-1.85917,-1.25246,-1.65515,1.65941,-0.204044, ,0,0,-0,0,0,0,
,0,1608313888,729646978, ,0.624513,-1.85917,-1.25246,-1.65517,1.65942,-0.204031, ,0,0,-0,0,0,0,
,0,1608313888,731658128, ,0.624488,-1.85917,-1.25246,-1.65514,1.65939,-0.204055, ,0,0,-0,0,0,0,
,0,1608313888,733647089, ,0.624476,-1.85918,-1.25243,-1.6552,1.65944,-0.204031, ,0,0,-0,0,0,0,
,0,1608313888,735636848, ,0.624488,-1.85917,-1.25246,-1.65515,1.65941,-0.204007, ,0,0,-0,0,0,0,
,0,1608313888,737641636, ,0.624465,-1.85918,-1.25243,-1.65514,1.65939,-0.204044, ,0,0,-0,0,0,0,
,0,1608313888,739634235, ,0.624488,-1.85917,-1.25243,-1.65515,1.65941,-0.204031, ,0,0,-0,0,0,0,
,0,1608313888,741652413, ,0.624488,-1.85918,-1.25244,-1.65517,1.6594,-0.204007, ,0,0,-0,0,0,0,
,0,1608313888,743656997, ,0.6245,-1.85917,-1.25247,-1.65515,1.65944,-0.204044, ,0,0,-0,0,0,0,
,0,1608313888,745674326, ,0.624488,-1.85917,-1.25244,-1.65519,1.65941,-0.204031, ,0,0,-0,0,0,0,
,0,1608313888,747650448, ,0.624513,-1.85917,-1.25247,-1.65518,1.65942,-0.20402, ,0,0,-0,0,0,0,
,0,1608313888,749650561, ,0.6245,-1.85921,-1.25244,-1.65512,1.65941,-0.204007, ,0,0,-0,0,0,0,
,0,1608313888,751649282, ,0.624513,-1.85919,-1.25246,-1.6552,1.65941,-0.204007, ,0,0,-0,0,0,0,
,0,1608313888,753642820, ,0.624465,-1.85913,-1.25246,-1.65517,1.65945,-0.20402, ,0,0,-0,0,0,0,
,0,1608313888,755639327, ,0.624488,-1.85921,-1.25244,-1.65519,1.65941,-0.203984, ,0,0,-0,0,0,0,
,0,1608313888,757637020, ,0.624465,-1.85917,-1.25247,-1.65518,1.65944,-0.204044, ,0,0,-0,0,0,0,
,0,1608313888,759642197, ,0.624476,-1.85917,-1.25243,-1.65517,1.65939,-0.20402, ,0,0,-0,0,0,0,
,0,1608313888,761641105, ,0.624476,-1.85915,-1.25246,-1.65515,1.6594,-0.204068, ,0,0,-0,0,0,0,
,0,1608313888,763643622, ,0.624465,-1.85916,-1.25244,-1.65512,1.65942,-0.204044, ,0,0,-0,0,0,0,
,0,1608313888,765653807, ,0.6245,-1.85921,-1.25247,-1.65513,1.6594,-0.204007, ,0,0,-0,0,0,0,
,0,1608313888,767649261, ,0.624513,-1.85916,-1.25244,-1.65514,1.6594,-0.203996, ,0,0,-0,0,0,0,
,0,1608313888,769643816, ,0.624513,-1.85915,-1.25246,-1.65517,1.65944,-0.20402, ,0,0,-0,0,0,0,
,0,1608313888,771644484, ,0.624488,-1.85915,-1.25246,-1.65514,1.6594,-0.204031, ,0,0,-0,0,0,0,
,0,1608313888,773642407, ,0.624465,-1.85919,-1.25246,-1.65519,1.65937,-0.203996, ,0,0,-0,0,0,0,
,0,1608313888,775642382, ,0.624513,-1.85921,-1.25248,-1.65517,1.65947,-0.20402, ,0,0,-0,0,0,0,
,0,1608313888,777645203, ,0.624476,-1.85917,-1.25244,-1.65515,1.65944,-0.203972, ,0,0,-0,0,0,0,
,0,1608313888,779656853, ,0.624488,-1.85917,-1.25244,-1.65514,1.65946,-0.204031, ,0,0,-0,0,0,0,
,0,1608313888,781652881, ,0.624488,-1.85917,-1.25246,-1.65513,1.6594,-0.204044, ,0,0,-0,0,0,0,
,0,1608313888,783647248, ,0.624476,-1.85917,-1.25246,-1.65517,1.65937,-0.204007, ,0,0,-0,0,0,0,
,0,1608313888,785638621, ,0.624453,-1.85916,-1.25246,-1.65515,1.65941,-0.204044, ,0,0,-0,0,0,0,
,0,1608313888,787638278, ,0.6245,-1.85913,-1.25246,-1.65518,1.6594,-0.204031, ,0,0,-0,0,0,0,
,0,1608313888,789637390, ,0.624488,-1.85924,-1.25244,-1.65517,1.65941,-0.203996, ,0,0,-0,0,0,0,
,0,1608313888,791635750, ,0.624441,-1.85921,-1.25243,-1.65514,1.65946,-0.204007, ,0,0,-0,0,0,0,
,0,1608313888,793632639, ,0.6245,-1.85921,-1.25242,-1.65514,1.65945,-0.204031, ,0,0,-0,0,0,0,
,0,1608313888,795647035, ,0.6245,-1.85919,-1.25244,-1.65513,1.65944,-0.204068, ,0,0,-0,0,0,0,
,0,1608313888,797639457, ,0.624488,-1.85917,-1.25243,-1.65518,1.65944,-0.204068, ,0,0,-0,0,0,0,
,0,1608313888,799638621, ,0.624525,-1.85918,-1.25249,-1.65517,1.6594,-0.204044, ,0,0,-0,0,0,0,
,0,1608313888,801630803, ,0.624513,-1.85913,-1.25247,-1.65515,1.65941,-0.204044, ,0,0,-0,0,0,0,
,0,1608313888,803631987, ,0.624488,-1.85917,-1.25248,-1.65514,1.65939,-0.204068, ,0,0,-0,0,0,0,
,0,1608313888,805633651, ,0.624465,-1.85918,-1.25248,-1.65518,1.65941,-0.20402, ,0,0,-0,0,0,0,
,0,1608313888,807633217, ,0.6245,-1.85921,-1.25243,-1.65517,1.6594,-0.204055, ,0,0,-0,0,0,0,
,0,1608313888,809636792, ,0.624441,-1.85918,-1.25243,-1.65518,1.65945,-0.203984, ,0,0,-0,0,0,0,
,0,1608313888,811651661, ,0.624476,-1.85919,-1.25244,-1.65514,1.65941,-0.204031, ,0,0,-0,0,0,0,
,0,1608313888,813649688, ,0.624537,-1.85919,-1.25248,-1.65515,1.6594,-0.204068, ,0,0,-0,0,0,0,
,0,1608313888,815669056, ,0.624476,-1.85916,-1.25243,-1.65514,1.65944,-0.204031, ,0,0,-0,0,0,0,
,0,1608313888,817654520, ,0.624525,-1.85919,-1.25243,-1.6552,1.6594,-0.204007, ,0,0,-0,0,0,0,
,0,1608313888,819656208, ,0.624476,-1.85916,-1.25246,-1.65514,1.65937,-0.20402, ,0,0,-0,0,0,0,
,0,1608313888,821645202, ,0.624488,-1.85917,-1.25243,-1.65515,1.65945,-0.204031, ,0,0,-0,0,0,0,
,0,1608313888,823700481, ,0.6245,-1.85919,-1.25244,-1.65515,1.65939,-0.204068, ,0,0,-0,0,0,0,
,0,1608313888,825657735, ,0.624476,-1.85922,-1.25243,-1.65515,1.6594,-0.203984, ,0,0,-0,0,0,0,
,0,1608313888,827646122, ,0.624453,-1.85916,-1.25246,-1.65517,1.6594,-0.204044, ,0,0,-0,0,0,0,
,0,1608313888,829626529, ,0.624488,-1.85918,-1.25243,-1.65518,1.6594,-0.204044, ,0,0,-0,0,0,0,
,0,1608313888,831647974, ,0.624476,-1.85919,-1.25247,-1.65515,1.65939,-0.20402, ,0,0,-0,0,0,0,
,0,1608313888,833635248, ,0.6245,-1.85918,-1.25242,-1.65515,1.65942,-0.204007, ,0,0,-0,0,0,0,
,0,1608313888,835626732, ,0.624465,-1.85916,-1.25246,-1.65515,1.65945,-0.203972, ,0,0,-0,0,0,0,
,0,1608313888,837629278, ,0.624465,-1.85917,-1.25246,-1.65514,1.65939,-0.204031, ,0,0,-0,0,0,0,
,0,1608313888,839629974, ,0.6245,-1.85917,-1.25248,-1.65518,1.65944,-0.204007, ,0,0,-0,0,0,0,
,0,1608313888,841631970, ,0.624453,-1.85922,-1.25242,-1.65514,1.65942,-0.203984, ,0,0,-0,0,0,0,
,0,1608313888,843630867, ,0.624453,-1.85921,-1.25244,-1.65515,1.65945,-0.203984, ,0,0,-0,0,0,0,
,0,1608313888,845626693, ,0.624476,-1.85922,-1.25243,-1.65512,1.6594,-0.203972, ,0,0,-0,0,0,0,
,0,1608313888,847635790, ,0.624465,-1.85921,-1.25246,-1.65513,1.65939,-0.20402, ,0,0,-0,0,0,0,
,0,1608313888,849630419, ,0.624488,-1.85921,-1.25243,-1.65515,1.6594,-0.204007, ,0,0,-0,0,0,0,
,0,1608313888,851640884, ,0.6245,-1.85922,-1.25247,-1.65517,1.65941,-0.203996, ,0,0,-0,0,0,0,
,0,1608313888,853632670, ,0.624476,-1.85918,-1.25247,-1.65515,1.6594,-0.204055, ,0,0,-0,0,0,0,
,0,1608313888,855637406, ,0.624476,-1.85917,-1.25246,-1.65518,1.65947,-0.204007, ,0,0,-0,0,0,0,
,0,1608313888,857631345, ,0.624476,-1.85916,-1.25247,-1.65519,1.65942,-0.20402, ,0,0,-0,0,0,0,
,0,1608313888,859643440, ,0.624476,-1.85915,-1.25246,-1.65517,1.65942,-0.204055, ,0,0,-0,0,0,0,
,0,1608313888,861632189, ,0.624476,-1.85917,-1.25243,-1.65518,1.6594,-0.204055, ,0,0,-0,0,0,0,
,0,1608313888,863633904, ,0.624453,-1.85921,-1.25243,-1.65512,1.65944,-0.203984, ,0,0,-0,0,0,0,
,0,1608313888,865648037, ,0.624465,-1.85915,-1.25246,-1.65512,1.65948,-0.204031, ,0,0,-0,0,0,0,
,0,1608313888,867627587, ,0.624488,-1.85915,-1.25244,-1.65515,1.65942,-0.204007, ,0,0,-0,0,0,0,
,0,1608313888,869632581, ,0.624488,-1.85919,-1.25243,-1.65519,1.65944,-0.204068, ,0,0,-0,0,0,0,
,0,1608313888,872091449, ,0.624476,-1.85919,-1.25244,-1.65517,1.6594,-0.204007, ,0,0,-0,0,0,0,
,0,1608313888,873650449, ,0.624441,-1.85916,-1.25246,-1.65517,1.65944,-0.204007, ,0,0,-0,0,0,0,
,0,1608313888,875644349, ,0.624453,-1.85917,-1.25248,-1.65515,1.65942,-0.20402, ,0,0,-0,0,0,0,
,0,1608313888,877683214, ,0.624513,-1.85918,-1.25246,-1.65517,1.65947,-0.20402, ,0,0,-0,0,0,0,
,0,1608313888,879644180, ,0.624488,-1.85921,-1.25243,-1.65517,1.65939,-0.204031, ,0,0,-0,0,0,0,
,0,1608313888,881631784, ,0.624488,-1.85922,-1.25244,-1.65517,1.65942,-0.203996, ,0,0,-0,0,0,0,
,0,1608313888,883629901, ,0.624476,-1.85923,-1.25244,-1.65517,1.65944,-0.204007, ,0,0,-0,0,0,0,
,0,1608313888,885633628, ,0.624525,-1.85916,-1.25244,-1.65519,1.65939,-0.20402, ,0,0,-0,0,0,0,
,0,1608313888,887640756, ,0.624441,-1.85913,-1.25248,-1.65519,1.65941,-0.204031, ,0,0,-0,0,0,0,
,0,1608313888,889634610, ,0.624453,-1.85916,-1.25243,-1.65518,1.65941,-0.204068, ,0,0,-0,0,0,0,
,0,1608313888,891633422, ,0.6245,-1.85917,-1.25244,-1.65513,1.6594,-0.204007, ,0,0,-0,0,0,0,
,0,1608313888,893647007, ,0.624476,-1.85916,-1.25244,-1.65519,1.65941,-0.204055, ,0,0,-0,0,0,0,
,0,1608313888,895641543, ,0.624488,-1.85919,-1.25244,-1.65515,1.65942,-0.204007, ,0,0,-0,0,0,0,
,0,1608313888,897636673, ,0.624465,-1.85919,-1.25244,-1.65517,1.65935,-0.204007, ,0,0,-0,0,0,0,
,0,1608313888,899643673, ,0.624465,-1.85916,-1.25246,-1.65515,1.65945,-0.204007, ,0,0,-0,0,0,0,
,0,1608313888,901642263, ,0.6245,-1.85917,-1.25243,-1.65518,1.65944,-0.204044, ,0,0,-0,0,0,0,
,0,1608313888,903641153, ,0.6245,-1.85922,-1.25246,-1.65514,1.6594,-0.204031, ,0,0,-0,0,0,0,
,0,1608313888,905641631, ,0.624476,-1.85917,-1.25244,-1.65515,1.65945,-0.204007, ,0,0,-0,0,0,0,
,0,1608313888,907642302, ,0.624476,-1.85919,-1.25246,-1.6552,1.6594,-0.204044, ,0,0,-0,0,0,0,
,0,1608313888,909656125, ,0.624488,-1.85918,-1.25247,-1.65517,1.65942,-0.203984, ,0,0,-0,0,0,0,
,0,1608313888,911636402, ,0.624465,-1.85917,-1.25246,-1.65514,1.65944,-0.204031, ,0,0,-0,0,0,0,
,0,1608313888,913635744, ,0.6245,-1.85921,-1.25242,-1.65517,1.65944,-0.20402, ,0,0,-0,0,0,0,
,0,1608313888,915638111, ,0.624465,-1.85918,-1.25246,-1.65515,1.65944,-0.204103, ,0,0,-0,0,0,0,
,0,1608313888,917643982, ,0.624453,-1.85919,-1.25246,-1.6552,1.65945,-0.204068, ,0,0,-0,0,0,0,
,0,1608313888,919646207, ,0.624488,-1.85916,-1.25246,-1.65517,1.65942,-0.204068, ,0,0,-0,0,0,0,
,0,1608313888,921629440, ,0.624488,-1.85922,-1.25243,-1.65518,1.65944,-0.204044, ,0,0,-0,0,0,0,
,0,1608313888,923729094, ,0.624476,-1.85919,-1.25246,-1.65519,1.65944,-0.20402, ,0,0,-0,0,0,0,
,0,1608313888,925662191, ,0.624488,-1.85915,-1.25243,-1.65518,1.65941,-0.20402, ,0,0,-0,0,0,0,
,0,1608313888,927639896, ,0.6245,-1.85918,-1.25243,-1.65515,1.65942,-0.204031, ,0,0,-0,0,0,0,
,0,1608313888,929652852, ,0.624513,-1.85918,-1.25246,-1.65515,1.65944,-0.204079, ,0,0,-0,0,0,0,
,0,1608313888,931643211, ,0.624488,-1.85913,-1.25242,-1.65515,1.65942,-0.204044, ,0,0,-0,0,0,0,
,0,1608313888,933654435, ,0.624488,-1.85917,-1.25244,-1.65519,1.65942,-0.204055, ,0,0,-0,0,0,0,
,0,1608313888,935662329, ,0.624513,-1.85916,-1.25247,-1.65513,1.65939,-0.204007, ,0,0,-0,0,0,0,
,0,1608313888,937652331, ,0.624488,-1.85917,-1.25246,-1.65518,1.6594,-0.203984, ,0,0,-0,0,0,0,
,0,1608313888,939654729, ,0.624488,-1.85918,-1.25244,-1.65515,1.65942,-0.204055, ,0,0,-0,0,0,0,
,0,1608313888,941649916, ,0.624476,-1.85918,-1.25247,-1.65513,1.65942,-0.204044, ,0,0,-0,0,0,0,
,0,1608313888,943663125, ,0.624476,-1.85919,-1.25242,-1.65517,1.65937,-0.203996, ,0,0,-0,0,0,0,
,0,1608313888,945650184, ,0.624488,-1.85919,-1.25244,-1.65514,1.65941,-0.20402, ,0,0,-0,0,0,0,
,0,1608313888,947646798, ,0.624513,-1.85918,-1.25246,-1.65515,1.65944,-0.204007, ,0,0,-0,0,0,0,
,0,1608313888,949644109, ,0.624488,-1.85913,-1.25244,-1.65517,1.65941,-0.204044, ,0,0,-0,0,0,0,
,0,1608313888,951649311, ,0.624488,-1.85917,-1.25244,-1.65512,1.65944,-0.204044, ,0,0,-0,0,0,0,
,0,1608313888,953638776, ,0.624453,-1.85916,-1.25246,-1.65515,1.6594,-0.204007, ,0,0,-0,0,0,0,
,0,1608313888,955635836, ,0.624488,-1.85921,-1.25244,-1.65513,1.65939,-0.204055, ,0,0,-0,0,0,0,
,0,1608313888,957628510, ,0.624513,-1.85916,-1.25244,-1.65515,1.65945,-0.204068, ,0,0,-0,0,0,0,
,0,1608313888,959684874, ,0.624476,-1.85918,-1.25247,-1.65519,1.65944,-0.204044, ,0,0,-0,0,0,0,
,0,1608313888,961631775, ,0.624513,-1.85919,-1.25246,-1.65517,1.6594,-0.20402, ,0,0,-0,0,0,0,
,0,1608313888,963637837, ,0.624453,-1.85918,-1.25243,-1.65515,1.65942,-0.204007, ,0,0,-0,0,0,0,
,0,1608313888,965629825, ,0.6245,-1.85918,-1.25249,-1.65513,1.65944,-0.204031, ,0,0,-0,0,0,0,
,0,1608313888,967636796, ,0.624476,-1.85921,-1.25248,-1.65515,1.65946,-0.204007, ,0,0,-0,0,0,0,
,0,1608313888,969663860, ,0.624488,-1.85917,-1.25248,-1.65519,1.65944,-0.204007, ,0,0,-0,0,0,0,
,0,1608313888,971649645, ,0.624488,-1.85916,-1.25248,-1.65515,1.65941,-0.204007, ,0,0,-0,0,0,0,
,0,1608313888,973644916, ,0.6245,-1.85915,-1.25242,-1.65514,1.6594,-0.204031, ,0,0,-0,0,0,0,
,0,1608313888,975643922, ,0.624488,-1.85916,-1.25244,-1.65514,1.65942,-0.20402, ,0,0,-0,0,0,0,
,0,1608313888,977671563, ,0.624476,-1.85915,-1.25242,-1.65517,1.6594,-0.204031, ,0,0,-0,0,0,0,
,0,1608313888,979637866, ,0.624476,-1.85919,-1.25242,-1.65519,1.65944,-0.204007, ,0,0,-0,0,0,0,
,0,1608313888,981645390, ,0.6245,-1.85918,-1.25242,-1.65515,1.65941,-0.204044, ,0,0,-0,0,0,0,
,0,1608313888,983647158, ,0.624476,-1.85919,-1.25247,-1.6552,1.65944,-0.204055, ,0,0,-0,0,0,0,
,0,1608313888,985634585, ,0.624488,-1.85919,-1.25242,-1.65519,1.65942,-0.203996, ,0,0,-0,0,0,0,
,0,1608313888,987639651, ,0.624488,-1.85919,-1.25244,-1.65515,1.65937,-0.204044, ,0,0,-0,0,0,0,
,0,1608313888,989623569, ,0.624488,-1.85915,-1.25243,-1.65517,1.65947,-0.204055, ,0,0,-0,0,0,0,
,0,1608313888,991640326, ,0.6245,-1.85925,-1.25246,-1.65515,1.65944,-0.204091, ,0,0,-0,0,0,0,
,0,1608313888,993629806, ,0.6245,-1.85916,-1.25243,-1.65518,1.65939,-0.203996, ,0,0,-0,0,0,0,
,0,1608313888,995632694, ,0.6245,-1.85917,-1.25243,-1.65515,1.6594,-0.20402, ,0,0,-0,0,0,0,
,0,1608313888,997635026, ,0.6245,-1.85917,-1.25242,-1.65518,1.65942,-0.204044, ,0,0,-0,0,0,0,
,0,1608313888,999639329, ,0.624476,-1.85917,-1.25244,-1.65514,1.65942,-0.204055, ,0,0,-0,0,0,0,
,0,1608313889,1667791, ,0.624476,-1.85918,-1.25244,-1.65518,1.65941,-0.204007, ,0,0,-0,0,0,0,
,0,1608313889,3648267, ,0.624465,-1.85918,-1.25246,-1.65515,1.65945,-0.204031, ,0,0,-0,0,0,0,
,0,1608313889,5676683, ,0.624525,-1.85916,-1.25244,-1.65514,1.65942,-0.204044, ,0,0,-0,0,0,0,
,0,1608313889,7667540, ,0.624476,-1.85917,-1.25246,-1.65517,1.65944,-0.204007, ,0,0,-0,0,0,0,
,0,1608313889,9642035, ,0.624476,-1.85918,-1.25244,-1.65515,1.65942,-0.20402, ,0,0,-0,0,0,0,
,0,1608313889,11651909, ,0.624513,-1.85917,-1.25246,-1.65514,1.65944,-0.204044, ,0,0,-0,0,0,0,
,0,1608313889,13651940, ,0.6245,-1.85917,-1.25243,-1.65519,1.65945,-0.204044, ,0,0,-0,0,0,0,
,0,1608313889,15654521, ,0.624513,-1.85917,-1.25246,-1.65517,1.65942,-0.204031, ,0,0,-0,0,0,0,
,0,1608313889,17654239, ,0.624465,-1.85918,-1.25244,-1.65519,1.65944,-0.204007, ,0,0,-0,0,0,0,
,0,1608313889,19661166, ,0.6245,-1.85919,-1.25244,-1.65518,1.65945,-0.204055, ,0,0,-0,0,0,0,
,0,1608313889,21639027, ,0.624465,-1.85917,-1.25247,-1.65515,1.65942,-0.204068, ,0,0,-0,0,0,0,
,0,1608313889,23666021, ,0.6245,-1.85918,-1.25243,-1.65517,1.6594,-0.204044, ,0,0,-0,0,0,0,
,0,1608313889,25688790, ,0.624476,-1.85918,-1.25244,-1.65514,1.65942,-0.204055, ,0,0,-0,0,0,0,
,0,1608313889,27661709, ,0.624476,-1.85919,-1.25246,-1.65514,1.65942,-0.204007, ,0,0,-0,0,0,0,
,0,1608313889,29661765, ,0.624488,-1.85919,-1.25246,-1.65518,1.6594,-0.204031, ,0,0,-0,0,0,0,
,0,1608313889,31664035, ,0.624476,-1.85919,-1.25244,-1.65515,1.65941,-0.204007, ,0,0,-0,0,0,0,
,0,1608313889,33657950, ,0.624465,-1.85917,-1.25244,-1.65517,1.65944,-0.204055, ,0,0,-0,0,0,0,
,0,1608313889,35660845, ,0.624476,-1.85918,-1.25246,-1.65517,1.65941,-0.204007, ,0,0,-0,0,0,0,
,0,1608313889,37651259, ,0.624476,-1.85916,-1.25244,-1.65519,1.65941,-0.204007, ,0,0,-0,0,0,0,
,0,1608313889,39659352, ,0.624476,-1.85913,-1.25246,-1.65515,1.65942,-0.204007, ,0,0,-0,0,0,0,
,0,1608313889,41653026, ,0.6245,-1.85918,-1.25246,-1.65517,1.65944,-0.204031, ,0,0,-0,0,0,0,
,0,1608313889,43645640, ,0.624465,-1.85918,-1.25243,-1.65519,1.65942,-0.204031, ,0,0,-0,0,0,0,
,0,1608313889,45648410, ,0.624476,-1.85918,-1.25247,-1.65521,1.65942,-0.204044, ,0,0,-0,0,0,0,
,0,1608313889,47641407, ,0.624488,-1.85919,-1.25246,-1.65514,1.6594,-0.20402, ,0,0,-0,0,0,0,
,0,1608313889,49637810, ,0.624476,-1.85916,-1.25247,-1.65518,1.65944,-0.204068, ,0,0,-0,0,0,0,
,0,1608313889,51648590, ,0.624453,-1.85916,-1.25243,-1.65519,1.65942,-0.204044, ,0,0,-0,0,0,0,
,0,1608313889,53635471, ,0.624488,-1.85917,-1.25246,-1.65515,1.65946,-0.20402, ,0,0,-0,0,0,0,
,0,1608313889,55635330, ,0.624488,-1.85918,-1.25244,-1.65518,1.65942,-0.204068, ,0,0,-0,0,0,0,
,0,1608313889,57637273, ,0.624488,-1.85918,-1.25244,-1.65519,1.65942,-0.20402, ,0,0,-0,0,0,0,
,0,1608313889,59642159, ,0.624476,-1.85916,-1.25243,-1.65517,1.65941,-0.204031, ,0,0,-0,0,0,0,
,0,1608313889,61636983, ,0.624476,-1.85917,-1.25244,-1.6552,1.65944,-0.203996, ,0,0,-0,0,0,0,
,0,1608313889,63637768, ,0.624465,-1.85919,-1.25242,-1.65515,1.65944,-0.204055, ,0,0,-0,0,0,0,
,0,1608313889,65644893, ,0.624488,-1.85917,-1.25243,-1.65518,1.65942,-0.204055, ,0,0,-0,0,0,0,
,0,1608313889,67637876, ,0.624476,-1.85918,-1.25247,-1.65515,1.65942,-0.204044, ,0,0,-0,0,0,0,
,0,1608313889,69642816, ,0.624453,-1.85918,-1.25247,-1.65515,1.65942,-0.204055, ,0,0,-0,0,0,0,
,0,1608313889,71660231, ,0.624465,-1.85917,-1.25246,-1.65519,1.65946,-0.204103, ,0,0,-0,0,0,0,
,0,1608313889,73664260, ,0.624476,-1.85919,-1.25243,-1.65517,1.65944,-0.204055, ,0,0,-0,0,0,0,
,0,1608313889,75664569, ,0.624488,-1.85924,-1.25244,-1.65512,1.65941,-0.204031, ,0,0,-0,0,0,0,
,0,1608313889,77659700, ,0.624465,-1.85923,-1.25246,-1.65518,1.6594,-0.20396, ,0,0,-0,0,0,0,
,0,1608313889,79643122, ,0.624476,-1.85915,-1.25244,-1.65518,1.65942,-0.204031, ,0,0,-0,0,0,0,
,0,1608313889,81641284, ,0.624488,-1.85919,-1.25248,-1.65518,1.65941,-0.204031, ,0,0,-0,0,0,0,
,0,1608313889,83643599, ,0.624476,-1.85919,-1.25246,-1.65514,1.65941,-0.204007, ,0,0,-0,0,0,0,
,0,1608313889,85636943, ,0.624488,-1.85917,-1.25243,-1.65517,1.65942,-0.20402, ,0,0,-0,0,0,0,
,0,1608313889,87648348, ,0.624488,-1.85918,-1.25244,-1.6552,1.65944,-0.204055, ,0,0,-0,0,0,0,
,0,1608313889,89637492, ,0.624476,-1.85922,-1.25247,-1.65517,1.65942,-0.204055, ,0,0,-0,0,0,0,
,0,1608313889,91641594, ,0.624488,-1.85917,-1.25244,-1.65517,1.65944,-0.204044, ,0,0,-0,0,0,0,
,0,1608313889,93635714, ,0.624488,-1.85916,-1.25246,-1.65518,1.6594,-0.204044, ,0,0,-0,0,0,0,
,0,1608313889,95663047, ,0.624488,-1.85917,-1.25248,-1.65513,1.65941,-0.204044, ,0,0,-0,0,0,0,
,0,1608313889,97657709, ,0.624441,-1.85917,-1.25244,-1.65517,1.65944,-0.20396, ,0,0,-0,0,0,0,
,0,1608313889,99649801, ,0.624488,-1.85919,-1.25246,-1.65513,1.65945,-0.203984, ,0,0,-0,0,0,0,
,0,1608313889,101649314, ,0.624476,-1.85916,-1.25244,-1.65518,1.65944,-0.203996, ,0,0,-0,0,0,0,
,0,1608313889,103650104, ,0.624488,-1.85919,-1.25242,-1.65517,1.65939,-0.204055, ,0,0,-0,0,0,0,
,0,1608313889,105650029, ,0.624465,-1.85921,-1.25246,-1.65518,1.65942,-0.204044, ,0,0,-0,0,0,0,
,0,1608313889,107645475, ,0.6245,-1.85919,-1.25244,-1.65514,1.65942,-0.204031, ,0,0,-0,0,0,0,
,0,1608313889,109646310, ,0.624488,-1.85921,-1.25246,-1.65517,1.6594,-0.204044, ,0,0,-0,0,0,0,
,0,1608313889,111647857, ,0.624465,-1.85917,-1.25248,-1.65515,1.65946,-0.204007, ,0,0,-0,0,0,0,
,0,1608313889,113648192, ,0.624488,-1.85921,-1.25242,-1.65514,1.65939,-0.203996, ,0,0,-0,0,0,0,
,0,1608313889,115673726, ,0.624465,-1.85917,-1.25243,-1.65517,1.65942,-0.20402, ,0,0,-0,0,0,0,
,0,1608313889,117654473, ,0.624488,-1.85923,-1.25243,-1.65518,1.65944,-0.204031, ,0,0,-0,0,0,0,
,0,1608313889,119658066, ,0.624453,-1.85919,-1.25244,-1.65515,1.65941,-0.204007, ,0,0,-0,0,0,0,
,0,1608313889,121659854, ,0.624476,-1.85918,-1.25246,-1.65515,1.65945,-0.204031, ,0,0,-0,0,0,0,
,0,1608313889,123669049, ,0.6245,-1.85919,-1.25248,-1.65515,1.65941,-0.204007, ,0,0,-0,0,0,0,
,0,1608313889,125687909, ,0.6245,-1.85921,-1.25248,-1.65517,1.6594,-0.204031, ,0,0,-0,0,0,0,
,0,1608313889,127689601, ,0.624488,-1.85915,-1.25246,-1.65515,1.65944,-0.204044, ,0,0,-0,0,0,0,
,0,1608313889,129650327, ,0.624465,-1.85918,-1.25246,-1.65519,1.65944,-0.204044, ,0,0,-0,0,0,0,
,0,1608313889,131685835, ,0.624488,-1.85922,-1.25247,-1.65517,1.65945,-0.20402, ,0,0,-0,0,0,0,
,0,1608313889,133660086, ,0.624488,-1.85919,-1.25246,-1.65518,1.65944,-0.203996, ,0,0,-0,0,0,0,
,0,1608313889,135650965, ,0.624476,-1.85918,-1.25244,-1.65518,1.65944,-0.204055, ,0,0,-0,0,0,0,
,0,1608313889,137650251, ,0.624476,-1.85917,-1.25246,-1.65515,1.65941,-0.204031, ,0,0,-0,0,0,0,
,0,1608313889,139646013, ,0.6245,-1.85918,-1.25244,-1.65518,1.65944,-0.204055, ,0,0,-0,0,0,0,
,0,1608313889,141657879, ,0.624525,-1.85923,-1.25243,-1.65514,1.65946,-0.204044, ,0,0,-0,0,0,0,
,0,1608313889,143657744, ,0.6245,-1.85919,-1.25244,-1.65519,1.6594,-0.204055, ,0,0,-0,0,0,0,
,0,1608313889,145652133, ,0.624488,-1.85917,-1.25243,-1.65518,1.65942,-0.204007, ,0,0,-0,0,0,0,
,0,1608313889,147651349, ,0.624465,-1.85916,-1.25243,-1.65515,1.65946,-0.20402, ,0,0,-0,0,0,0,
,0,1608313889,149639499, ,0.624476,-1.85918,-1.25247,-1.65515,1.65944,-0.204007, ,0,0,-0,0,0,0,
,0,1608313889,151647927, ,0.624465,-1.85917,-1.25244,-1.65517,1.65942,-0.203972, ,0,0,-0,0,0,0,
,0,1608313889,153646264, ,0.624513,-1.85916,-1.25246,-1.65515,1.6594,-0.204031, ,0,0,-0,0,0,0,
,0,1608313889,155645626, ,0.624488,-1.85917,-1.25246,-1.65517,1.6594,-0.20402, ,0,0,-0,0,0,0,
,0,1608313889,157644639, ,0.624476,-1.85919,-1.25246,-1.65513,1.65942,-0.203996, ,0,0,-0,0,0,0,
,0,1608313889,159654122, ,0.624465,-1.85917,-1.25247,-1.65512,1.65945,-0.204031, ,0,0,-0,0,0,0,
,0,1608313889,161650096, ,0.624465,-1.85919,-1.25248,-1.65515,1.65945,-0.204031, ,0,0,-0,0,0,0,
,0,1608313889,163649287, ,0.624513,-1.85922,-1.25241,-1.6552,1.65945,-0.20402, ,0,0,-0,0,0,0,
,0,1608313889,165650700, ,0.6245,-1.85917,-1.25244,-1.65519,1.6594,-0.204007, ,0,0,-0,0,0,0,
,0,1608313889,167648511, ,0.624441,-1.85918,-1.25244,-1.65518,1.65944,-0.204044, ,0,0,-0,0,0,0,
,0,1608313889,169652157, ,0.624476,-1.85918,-1.25244,-1.65517,1.65945,-0.204031, ,0,0,-0,0,0,0,
,0,1608313889,171648581, ,0.624488,-1.85915,-1.25244,-1.65513,1.65945,-0.204031, ,0,0,-0,0,0,0,
,0,1608313889,173646117, ,0.624465,-1.85917,-1.25244,-1.65519,1.65944,-0.204007, ,0,0,-0,0,0,0,
,0,1608313889,175644884, ,0.624465,-1.85916,-1.25244,-1.65517,1.65944,-0.204044, ,0,0,-0,0,0,0,
,0,1608313889,177724438, ,0.624488,-1.85919,-1.25246,-1.65515,1.65939,-0.204068, ,0,0,-0,0,0,0,
,0,1608313889,179654217, ,0.6245,-1.85922,-1.25247,-1.65518,1.65946,-0.204007, ,0,0,-0,0,0,0,
,0,1608313889,181653559, ,0.624513,-1.85916,-1.25246,-1.65514,1.65946,-0.20402, ,0,0,-0,0,0,0,
,0,1608313889,183650493, ,0.6245,-1.85918,-1.25246,-1.65515,1.65939,-0.204031, ,0,0,-0,0,0,0,
,0,1608313889,185653051, ,0.624476,-1.85918,-1.25242,-1.65515,1.65941,-0.204068, ,0,0,-0,0,0,0,
,0,1608313889,187654293, ,0.624488,-1.85916,-1.25243,-1.65517,1.65947,-0.204044, ,0,0,-0,0,0,0,
,0,1608313889,189649264, ,0.624465,-1.85918,-1.25243,-1.65515,1.65944,-0.204044, ,0,0,-0,0,0,0,
,0,1608313889,191649008, ,0.624488,-1.85916,-1.25244,-1.65518,1.65944,-0.204031, ,0,0,-0,0,0,0,
,0,1608313889,193655970, ,0.624513,-1.85917,-1.25243,-1.65518,1.65941,-0.203984, ,0,0,-0,0,0,0,
,0,1608313889,195657874, ,0.624513,-1.85915,-1.25244,-1.65521,1.65942,-0.204031, ,0,0,-0,0,0,0,
,0,1608313889,197649294, ,0.624476,-1.85918,-1.25244,-1.65518,1.65945,-0.20402, ,0,0,-0,0,0,0,
,0,1608313889,199650355, ,0.6245,-1.85918,-1.25243,-1.65521,1.65941,-0.204007, ,0,0,-0,0,0,0,
,0,1608313889,201643819, ,0.624488,-1.85921,-1.25244,-1.65517,1.65944,-0.204055, ,0,0,-0,0,0,0,
,0,1608313889,203644679, ,0.624488,-1.85919,-1.25243,-1.65512,1.65942,-0.204044, ,0,0,-0,0,0,0,
,0,1608313889,205642666, ,0.624476,-1.85918,-1.25244,-1.65519,1.65941,-0.204031, ,0,0,-0,0,0,0,
,0,1608313889,207648063, ,0.624488,-1.85917,-1.25247,-1.6552,1.65944,-0.20402, ,0,0,-0,0,0,0,
,0,1608313889,209659152, ,0.624465,-1.85917,-1.25246,-1.65517,1.65948,-0.204031, ,0,0,-0,0,0,0,
,0,1608313889,211657950, ,0.624488,-1.85919,-1.25247,-1.65515,1.65941,-0.204031, ,0,0,-0,0,0,0,
,0,1608313889,213653848, ,0.624488,-1.85919,-1.25244,-1.65517,1.65941,-0.204031, ,0,0,-0,0,0,0,
,0,1608313889,215653468, ,0.624476,-1.85919,-1.25243,-1.65515,1.65944,-0.204044, ,0,0,-0,0,0,0,
,0,1608313889,217655873, ,0.6245,-1.85916,-1.25244,-1.65517,1.6594,-0.204031, ,0,0,-0,0,0,0,
,0,1608313889,219654912, ,0.624476,-1.85915,-1.25248,-1.65514,1.65936,-0.20402, ,0,0,-0,0,0,0,
,0,1608313889,221648947, ,0.624441,-1.85917,-1.25247,-1.65515,1.65941,-0.20402, ,0,0,-0,0,0,0,
,0,1608313889,223665953, ,0.624476,-1.85916,-1.25244,-1.65513,1.65946,-0.204031, ,0,0,-0,0,0,0,
,0,1608313889,225688768, ,0.624513,-1.85917,-1.25248,-1.65517,1.65942,-0.204007, ,0,0,-0,0,0,0,
,0,1608313889,227662902, ,0.624476,-1.85917,-1.25243,-1.65519,1.65937,-0.204044, ,0,0,-0,0,0,0,
,0,1608313889,229665999, ,0.624476,-1.85917,-1.25246,-1.65517,1.65946,-0.203984, ,0,0,-0,0,0,0,
,0,1608313889,231659506, ,0.624476,-1.85918,-1.25243,-1.65517,1.65942,-0.204007, ,0,0,-0,0,0,0,
,0,1608313889,233644782, ,0.624476,-1.85921,-1.25246,-1.65519,1.65942,-0.204031, ,0,0,-0,0,0,0,
,0,1608313889,235638376, ,0.624488,-1.85916,-1.25246,-1.65519,1.65942,-0.204007, ,0,0,-0,0,0,0,
,0,1608313889,237636284, ,0.6245,-1.85921,-1.25242,-1.65517,1.65942,-0.204031, ,0,0,-0,0,0,0,
,0,1608313889,239641773, ,0.624476,-1.85919,-1.25246,-1.65517,1.65945,-0.203984, ,0,0,-0,0,0,0,
,0,1608313889,241665697, ,0.624513,-1.85916,-1.25246,-1.65517,1.65944,-0.203972, ,0,0,-0,0,0,0,
,0,1608313889,243668981, ,0.624476,-1.85921,-1.25246,-1.65514,1.65944,-0.204044, ,0,0,-0,0,0,0,
,0,1608313889,245664919, ,0.6245,-1.85919,-1.25247,-1.65519,1.65944,-0.204007, ,0,0,-0,0,0,0,
,0,1608313889,247669454, ,0.624513,-1.85916,-1.25246,-1.65517,1.65941,-0.204031, ,0,0,-0,0,0,0,
,0,1608313889,249667133, ,0.624465,-1.85919,-1.25244,-1.65517,1.65944,-0.203984, ,0,0,-0,0,0,0,
,0,1608313889,251671805, ,0.624465,-1.85913,-1.25246,-1.65519,1.65941,-0.204007, ,0,0,-0,0,0,0,
,0,1608313889,253659540, ,0.624513,-1.85921,-1.25247,-1.65518,1.65942,-0.204031, ,0,0,-0,0,0,0,
,0,1608313889,255661081, ,0.624476,-1.85922,-1.25246,-1.65515,1.65944,-0.204007, ,0,0,-0,0,0,0,
,0,1608313889,257658422, ,0.624476,-1.85918,-1.25243,-1.65517,1.65942,-0.204007, ,0,0,-0,0,0,0,
,0,1608313889,259671587, ,0.624465,-1.85917,-1.25246,-1.65512,1.65942,-0.204044, ,0,0,-0,0,0,0,
,0,1608313889,261673962, ,0.624513,-1.85919,-1.25247,-1.65517,1.65942,-0.20402, ,0,0,-0,0,0,0,
,0,1608313889,263662648, ,0.624476,-1.85913,-1.25246,-1.65519,1.6594,-0.204044, ,0,0,-0,0,0,0,
,0,1608313889,265654061, ,0.6245,-1.85921,-1.25246,-1.65515,1.6594,-0.204055, ,0,0,-0,0,0,0,
,0,1608313889,267657816, ,0.624453,-1.85916,-1.25244,-1.65518,1.65942,-0.204068, ,0,0,-0,0,0,0,
,0,1608313889,269667792, ,0.624525,-1.85915,-1.25243,-1.65517,1.65941,-0.204055, ,0,0,-0,0,0,0,
,0,1608313889,271686883, ,0.624513,-1.85916,-1.25246,-1.65515,1.6594,-0.204031, ,0,0,-0,0,0,0,
,0,1608313889,273647961, ,0.624488,-1.85916,-1.25243,-1.65518,1.65944,-0.204044, ,0,0,-0,0,0,0,
,0,1608313889,275658795, ,0.624488,-1.85918,-1.25243,-1.65518,1.65945,-0.20402, ,0,0,-0,0,0,0,
,0,1608313889,277636611, ,0.624465,-1.85921,-1.25243,-1.65518,1.65941,-0.203996, ,0,0,-0,0,0,0,
,0,1608313889,279664889, ,0.624465,-1.85918,-1.25246,-1.65518,1.65942,-0.204079, ,0,0,-0,0,0,0,
,0,1608313889,281650297, ,0.624488,-1.85922,-1.25246,-1.65517,1.65942,-0.204044, ,0,0,-0,0,0,0,
,0,1608313889,283652283, ,0.624513,-1.85919,-1.25244,-1.65517,1.65939,-0.203996, ,0,0,-0,0,0,0,
,0,1608313889,285650613, ,0.624488,-1.85922,-1.25247,-1.65517,1.65941,-0.204055, ,0,0,-0,0,0,0,
,0,1608313889,287655067, ,0.624441,-1.85918,-1.25246,-1.65519,1.65939,-0.203996, ,0,0,-0,0,0,0,
,0,1608313889,289653009, ,0.624453,-1.85921,-1.25247,-1.65519,1.65942,-0.204044, ,0,0,-0,0,0,0,
,0,1608313889,291658279, ,0.624476,-1.85921,-1.25246,-1.65517,1.65944,-0.203984, ,0,0,-0,0,0,0,
,0,1608313889,293650179, ,0.624488,-1.85919,-1.25244,-1.65515,1.65944,-0.203972, ,0,0,-0,0,0,0,
,0,1608313889,295660457, ,0.624488,-1.85918,-1.25244,-1.65514,1.65941,-0.20402, ,0,0,-0,0,0,0,
,0,1608313889,297646184, ,0.624476,-1.85918,-1.25246,-1.65517,1.65946,-0.204055, ,0,0,-0,0,0,0,
,0,1608313889,299643487, ,0.624488,-1.85916,-1.25248,-1.65518,1.65945,-0.204031, ,0,0,-0,0,0,0,
,0,1608313889,301637135, ,0.624488,-1.85918,-1.25247,-1.65519,1.65944,-0.203972, ,0,0,-0,0,0,0,
,0,1608313889,303636890, ,0.6245,-1.85919,-1.25246,-1.65514,1.65945,-0.204031, ,0,0,-0,0,0,0,
,0,1608313889,305666027, ,0.624488,-1.85916,-1.25247,-1.65515,1.65939,-0.203996, ,0,0,-0,0,0,0,
,0,1608313889,307645465, ,0.6245,-1.85921,-1.25244,-1.65515,1.65944,-0.204031, ,0,0,-0,0,0,0,
,0,1608313889,309641867, ,0.624525,-1.85922,-1.25246,-1.65519,1.65942,-0.204031, ,0,0,-0,0,0,0,
,0,1608313889,311646736, ,0.624465,-1.85917,-1.25242,-1.65517,1.65941,-0.203996, ,0,0,-0,0,0,0,
,0,1608313889,313639278, ,0.624465,-1.85917,-1.25246,-1.65515,1.65946,-0.20402, ,0,0,-0,0,0,0,
,0,1608313889,315642515, ,0.624465,-1.85919,-1.25243,-1.65517,1.65945,-0.204007, ,0,0,-0,0,0,0,
,0,1608313889,317640669, ,0.624513,-1.85917,-1.25242,-1.65519,1.6594,-0.20402, ,0,0,-0,0,0,0,
,0,1608313889,319639150, ,0.6245,-1.85917,-1.25244,-1.65515,1.65942,-0.204031, ,0,0,-0,0,0,0,
,0,1608313889,321631883, ,0.624476,-1.85916,-1.25244,-1.65513,1.65944,-0.204031, ,0,0,-0,0,0,0,
,0,1608313889,323639677, ,0.624488,-1.85918,-1.25246,-1.65519,1.65942,-0.204044, ,0,0,-0,0,0,0,
,0,1608313889,325705571, ,0.624488,-1.85915,-1.25248,-1.65518,1.65941,-0.204031, ,0,0,-0,0,0,0,
,0,1608313889,327674148, ,0.624465,-1.85919,-1.25243,-1.65515,1.65946,-0.204044, ,0,0,-0,0,0,0,
,0,1608313889,329640823, ,0.624476,-1.85918,-1.25244,-1.65519,1.65944,-0.204031, ,0,0,-0,0,0,0,
,0,1608313889,331637593, ,0.624488,-1.85922,-1.25244,-1.6552,1.65945,-0.204007, ,0,0,-0,0,0,0,
,0,1608313889,333643851, ,0.624465,-1.85919,-1.25242,-1.65513,1.65944,-0.204031, ,0,0,-0,0,0,0,
,0,1608313889,335635634, ,0.624488,-1.85915,-1.25243,-1.65519,1.65939,-0.20402, ,0,0,-0,0,0,0,
,0,1608313889,337633756, ,0.624453,-1.85916,-1.25243,-1.65518,1.65944,-0.204007, ,0,0,-0,0,0,0,
,0,1608313889,339638080, ,0.624476,-1.85918,-1.25243,-1.65515,1.65941,-0.204007, ,0,0,-0,0,0,0,
,0,1608313889,341633457, ,0.624465,-1.85923,-1.25247,-1.65513,1.65944,-0.204007, ,0,0,-0,0,0,0,
,0,1608313889,343643702, ,0.624476,-1.85918,-1.25244,-1.65517,1.65941,-0.204007, ,0,0,-0,0,0,0,
,0,1608313889,345657807, ,0.624513,-1.85915,-1.25243,-1.65518,1.65942,-0.20402, ,0,0,-0,0,0,0,
,0,1608313889,347646963, ,0.624453,-1.85917,-1.25244,-1.65515,1.65945,-0.204044, ,0,0,-0,0,0,0,
,0,1608313889,349642006, ,0.624476,-1.85919,-1.25243,-1.65519,1.65941,-0.204044, ,0,0,-0,0,0,0,
,0,1608313889,351653768, ,0.6245,-1.85917,-1.25243,-1.65517,1.65942,-0.204007, ,0,0,-0,0,0,0,
,0,1608313889,353649225, ,0.624476,-1.85916,-1.25244,-1.65518,1.65942,-0.203996, ,0,0,-0,0,0,0,
,0,1608313889,355649493, ,0.624488,-1.85919,-1.25244,-1.65519,1.65941,-0.20402, ,0,0,-0,0,0,0,
,0,1608313889,357644114, ,0.624488,-1.85921,-1.25248,-1.65518,1.65944,-0.204044, ,0,0,-0,0,0,0,
,0,1608313889,359644375, ,0.624465,-1.85922,-1.25244,-1.65515,1.65945,-0.203996, ,0,0,-0,0,0,0,
,0,1608313889,361644999, ,0.624465,-1.85919,-1.25246,-1.65517,1.65945,-0.204007, ,0,0,-0,0,0,0,
,0,1608313889,363642481, ,0.624488,-1.85918,-1.25243,-1.65515,1.65944,-0.204055, ,0,0,-0,0,0,0,
,0,1608313889,365644022, ,0.624525,-1.85923,-1.25247,-1.65515,1.65946,-0.204031, ,0,0,-0,0,0,0,
,0,1608313889,367648421, ,0.624488,-1.85918,-1.25243,-1.65519,1.65941,-0.203996, ,0,0,-0,0,0,0,
,0,1608313889,369643013, ,0.624513,-1.85918,-1.25244,-1.65518,1.65942,-0.20402, ,0,0,-0,0,0,0,
,0,1608313889,371648968, ,0.624465,-1.85919,-1.25246,-1.65519,1.6594,-0.204031, ,0,0,-0,0,0,0,
,0,1608313889,373641982, ,0.624465,-1.85913,-1.25247,-1.65518,1.65945,-0.203984, ,0,0,-0,0,0,0,
,0,1608313889,375643916, ,0.624465,-1.85918,-1.25243,-1.65515,1.65941,-0.204068, ,0,0,-0,0,0,0,
,0,1608313889,377642408, ,0.6245,-1.85916,-1.25244,-1.65514,1.65944,-0.204007, ,0,0,-0,0,0,0,
,0,1608313889,379645252, ,0.624476,-1.85919,-1.25242,-1.65515,1.65942,-0.204055, ,0,0,-0,0,0,0,
,0,1608313889,381647971, ,0.624488,-1.85917,-1.25243,-1.65515,1.65942,-0.204031, ,0,0,-0,0,0,0,
,0,1608313889,383639369, ,0.624465,-1.85917,-1.25242,-1.65517,1.65942,-0.204007, ,0,0,-0,0,0,0,
,0,1608313889,385643206, ,0.624513,-1.85916,-1.25246,-1.65515,1.65941,-0.204055, ,0,0,-0,0,0,0,
,0,1608313889,387637520, ,0.624476,-1.85921,-1.25246,-1.65513,1.65944,-0.20402, ,0,0,-0,0,0,0,
,0,1608313889,389635002, ,0.624513,-1.85916,-1.25246,-1.65515,1.65942,-0.203984, ,0,0,-0,0,0,0,
,0,1608313889,391662183, ,0.624465,-1.85921,-1.25243,-1.65514,1.65944,-0.204055, ,0,0,-0,0,0,0,
,0,1608313889,393642349, ,0.624476,-1.85919,-1.25244,-1.65519,1.65942,-0.204007, ,0,0,-0,0,0,0,
,0,1608313889,395637832, ,0.6245,-1.85919,-1.25243,-1.65518,1.65944,-0.203972, ,0,0,-0,0,0,0,
,0,1608313889,397678360, ,0.624465,-1.85919,-1.25246,-1.65514,1.65945,-0.204031, ,0,0,-0,0,0,0,
,0,1608313889,399635562, ,0.624488,-1.85918,-1.25243,-1.65515,1.65941,-0.20402, ,0,0,-0,0,0,0,
,0,1608313889,401640823, ,0.6245,-1.85917,-1.25248,-1.65517,1.65941,-0.204031, ,0,0,-0,0,0,0,
,0,1608313889,403639114, ,0.624488,-1.85916,-1.25243,-1.65519,1.65941,-0.204079, ,0,0,-0,0,0,0,
,0,1608313889,405638023, ,0.624476,-1.85913,-1.25248,-1.65514,1.65942,-0.20402, ,0,0,-0,0,0,0,
,0,1608313889,407635664, ,0.624488,-1.85919,-1.25244,-1.65513,1.65939,-0.203996, ,0,0,-0,0,0,0,
,0,1608313889,409636267, ,0.624476,-1.85919,-1.25246,-1.65512,1.65939,-0.204031, ,0,0,-0,0,0,0,
,0,1608313889,411649104, ,0.624476,-1.85917,-1.25243,-1.65515,1.65945,-0.20402, ,0,0,-0,0,0,0,
,0,1608313889,413633242, ,0.624488,-1.85915,-1.25243,-1.65518,1.65946,-0.204007, ,0,0,-0,0,0,0,
,0,1608313889,415634434, ,0.624476,-1.85917,-1.25241,-1.65514,1.65945,-0.204044, ,0,0,-0,0,0,0,
,0,1608313889,417645636, ,0.624488,-1.85915,-1.25247,-1.65517,1.6594,-0.204044, ,0,0,-0,0,0,0,
,0,1608313889,419644099, ,0.624453,-1.85918,-1.25247,-1.65517,1.65944,-0.204007, ,0,0,-0,0,0,0,
,0,1608313889,421642526, ,0.624488,-1.85918,-1.25246,-1.65517,1.65944,-0.20402, ,0,0,-0,0,0,0,
,0,1608313889,423632791, ,0.624488,-1.85921,-1.25246,-1.65515,1.65939,-0.204031, ,0,0,-0,0,0,0,
,0,1608313889,425740074, ,0.624476,-1.85918,-1.25247,-1.65513,1.65942,-0.204031, ,0,0,-0,0,0,0,
,0,1608313889,427681191, ,0.624488,-1.85917,-1.25244,-1.65514,1.65944,-0.203996, ,0,0,-0,0,0,0,
,0,1608313889,429641899, ,0.6245,-1.85918,-1.25246,-1.65517,1.65939,-0.20402, ,0,0,-0,0,0,0,
,0,1608313889,431644513, ,0.624476,-1.85917,-1.25244,-1.65515,1.65942,-0.204044, ,0,0,-0,0,0,0,
,0,1608313889,433635128, ,0.624476,-1.85919,-1.25243,-1.65515,1.65941,-0.204044, ,0,0,-0,0,0,0,
,0,1608313889,435659242, ,0.624465,-1.85919,-1.25243,-1.65519,1.6594,-0.204031, ,0,0,-0,0,0,0,
,0,1608313889,437637072, ,0.6245,-1.85916,-1.25244,-1.65515,1.65942,-0.204044, ,0,0,-0,0,0,0,
,0,1608313889,439639247, ,0.624465,-1.85919,-1.25246,-1.65514,1.65947,-0.204044, ,0,0,-0,0,0,0,
,0,1608313889,441635176, ,0.624488,-1.85917,-1.25244,-1.65517,1.65945,-0.20402, ,0,0,-0,0,0,0,
,0,1608313889,443637405, ,0.624488,-1.85918,-1.25242,-1.65515,1.6594,-0.204044, ,0,0,-0,0,0,0,
,0,1608313889,445639295, ,0.624525,-1.85915,-1.25246,-1.65515,1.65942,-0.204031, ,0,0,-0,0,0,0,
