davideferrari95/admittance_controller/debug/input_trajectory_debug.csv
frame_id,seq,sec,nsec, ,pos_joint1,pos_joint2,pos_joint2,pos_joint4,pos_joint5,pos_joint6, ,vel_joint1,vel_joint2,vel_joint3,vel_joint4,vel_joint5,vel_joint6

,0,1604079203,877246056, ,0.84271,-1.84322,-1.82478,0.374059,1.49383,-0.0110315, ,-0,-0,-0,0,0,0,
,0,1604079203,879238857, ,0.842662,-1.84322,-1.82477,0.374047,1.49376,-0.0110672, ,-0,-0,-0,0,0,0,
,0,1604079203,881221691, ,0.842722,-1.84323,-1.82479,0.374047,1.49373,-0.0110191, ,-0,-0,-0,0,0,0,
,0,1604079203,883235668, ,0.842746,-1.84326,-1.8248,0.374071,1.49376,-0.0110315, ,-0,-0,-0,0,0,0,
,0,1604079203,885230141, ,0.84271,-1.84322,-1.82482,0.374059,1.49378,-0.0110315, ,-0,-0,-0,0,0,0,
,0,1604079203,887226935, ,0.842698,-1.84323,-1.82478,0.374047,1.49374,-0.0110315, ,-0,-0,-0,0,0,0,
,0,1604079203,889257254, ,0.842698,-1.84328,-1.82478,0.374059,1.49379,-0.0110553, ,-0,-0,-0,0,0,0,
,0,1604079203,891229020, ,0.842686,-1.84325,-1.82479,0.373975,1.49377,-0.0110672, ,-0,-0,-0,0,0,0,
,0,1604079203,893222749, ,0.842722,-1.84322,-1.8248,0.374035,1.49378,-0.0110915, ,-0,-0,-0,0,0,0,
,0,1604079203,895226345, ,0.842698,-1.84322,-1.82478,0.373999,1.49376,-0.0110672, ,-0,-0,-0,0,0,0,
,0,1604079203,897228482, ,0.842698,-1.84322,-1.82477,0.374071,1.49377,-0.0110915, ,-0,-0,-0,0,0,0,
,0,1604079203,899227239, ,0.842698,-1.84328,-1.82483,0.374059,1.49378,-0.0110553, ,-0,-0,-0,0,0,0,
,0,1604079203,901337855, ,0.84271,-1.84325,-1.82479,0.374047,1.49378,-0.011103, ,-0,-0,-0,0,0,0,
,0,1604079203,903228262, ,0.842686,-1.84323,-1.82478,0.373999,1.49376,-0.0110791, ,-0,-0,-0,0,0,0,
,0,1604079203,905250570, ,0.842698,-1.84322,-1.82477,0.374083,1.49377,-0.0110553, ,-0,-0,-0,0,0,0,
,0,1604079203,907227198, ,0.84271,-1.84325,-1.8248,0.374059,1.49376,-0.0110791, ,-0,-0,-0,0,0,0,
,0,1604079203,909224808, ,0.842686,-1.84325,-1.8248,0.374035,1.49378,-0.0110434, ,-0,-0,-0,0,0,0,
,0,1604079203,911227526, ,0.842686,-1.84323,-1.82479,0.374047,1.49377,-0.0110672, ,-0,-0,-0,0,0,0,
,0,1604079203,913237112, ,0.842698,-1.8432,-1.82482,0.374095,1.49374,-0.0110915, ,-0,-0,-0,0,0,0,
,0,1604079203,915231359, ,0.842722,-1.84325,-1.8248,0.374035,1.49378,-0.0110915, ,-0,-0,-0,0,0,0,
,0,1604079203,917273830, ,0.842734,-1.84323,-1.8248,0.374083,1.49378,-0.0110672, ,-0,-0,-0,0,0,0,
,0,1604079203,919258895, ,0.84271,-1.84321,-1.82478,0.374047,1.49377,-0.0110553, ,-0,-0,-0,0,0,0,
,0,1604079203,921321277, ,0.842698,-1.84321,-1.82479,0.374035,1.49378,-0.0110553, ,-0,-0,-0,0,0,0,
,0,1604079203,923385243, ,0.842674,-1.84321,-1.8248,0.374083,1.49376,-0.0110553, ,-0,-0,-0,0,0,0,
,0,1604079203,925284927, ,0.842686,-1.84323,-1.82478,0.374035,1.49373,-0.0110915, ,-0,-0,-0,0,0,0,
,0,1604079203,927227077, ,0.842698,-1.84322,-1.82479,0.374059,1.4938,-0.0110791, ,-0,-0,-0,0,0,0,
,0,1604079203,929235464, ,0.84271,-1.84323,-1.8248,0.374047,1.49377,-0.0110915, ,-0,-0,-0,0,0,0,
,0,1604079203,931226992, ,0.842698,-1.84322,-1.82478,0.374083,1.49379,-0.0110672, ,-0,-0,-0,0,0,0,
,0,1604079203,933249979, ,0.84271,-1.84323,-1.8248,0.374059,1.49379,-0.0110672, ,-0,-0,-0,0,0,0,
,0,1604079203,935264094, ,0.84271,-1.84322,-1.8248,0.374059,1.49379,-0.0110791, ,-0,-0,-0,0,0,0,
,0,1604079203,937245684, ,0.84271,-1.84327,-1.8248,0.374059,1.49376,-0.0110434, ,-0,-0,-0,0,0,0,
,0,1604079203,939220383, ,0.842686,-1.84323,-1.82478,0.373999,1.49378,-0.0110791, ,-0,-0,-0,0,0,0,
,0,1604079203,941224192, ,0.842698,-1.84323,-1.82479,0.374059,1.49377,-0.0110434, ,-0,-0,-0,0,0,0,
,0,1604079203,943232159, ,0.842686,-1.84323,-1.82482,0.374035,1.49377,-0.0110915, ,-0,-0,-0,0,0,0,
,0,1604079203,945236455, ,0.84271,-1.84322,-1.82477,0.374035,1.4938,-0.011103, ,-0,-0,-0,0,0,0,
,0,1604079203,947222888, ,0.842674,-1.84323,-1.82478,0.374071,1.49377,-0.0110191, ,-0,-0,-0,0,0,0,
,0,1604079203,949226275, ,0.842662,-1.84321,-1.8248,0.374035,1.49379,-0.0110915, ,-0,-0,-0,0,0,0,
,0,1604079203,951377279, ,0.84271,-1.84323,-1.8248,0.373987,1.49377,-0.0110915, ,-0,-0,-0,0,0,0,
,0,1604079203,953243202, ,0.842674,-1.84321,-1.8248,0.374011,1.4938,-0.0110434, ,-0,-0,-0,0,0,0,
,0,1604079203,955228134, ,0.84271,-1.84326,-1.8248,0.374047,1.4938,-0.0110315, ,-0,-0,-0,0,0,0,
,0,1604079203,957221514, ,0.842686,-1.84326,-1.82478,0.374011,1.49379,-0.0110315, ,-0,-0,-0,0,0,0,
,0,1604079203,959222880, ,0.842698,-1.84325,-1.82479,0.374059,1.49383,-0.0110434, ,-0,-0,-0,0,0,0,
,0,1604079203,961240689, ,0.84271,-1.84321,-1.8248,0.373999,1.49379,-0.0110672, ,-0,-0,-0,0,0,0,
,0,1604079203,963225970, ,0.84271,-1.84323,-1.82478,0.374059,1.49377,-0.0110553, ,-0,-0,-0,0,0,0,
,0,1604079203,965222566, ,0.84271,-1.84323,-1.82482,0.374107,1.49379,-0.0110553, ,-0,-0,-0,0,0,0,
,0,1604079203,967376667, ,0.842722,-1.84325,-1.8248,0.374035,1.49378,-0.0110191, ,-0,-0,-0,0,0,0,
,0,1604079203,969251463, ,0.84271,-1.84326,-1.8248,0.374035,1.49377,-0.0110315, ,-0,-0,-0,0,0,0,
,0,1604079203,971234948, ,0.842698,-1.84327,-1.82477,0.374035,1.49379,-0.0110791, ,-0,-0,-0,0,0,0,
,0,1604079203,973228492, ,0.842698,-1.84319,-1.8248,0.374035,1.49379,-0.0110553, ,-0,-0,-0,0,0,0,
,0,1604079203,975220388, ,0.84271,-1.84323,-1.82479,0.374071,1.49378,-0.0110553, ,-0,-0,-0,0,0,0,
,0,1604079203,977227759, ,0.842698,-1.84326,-1.8248,0.374059,1.49378,-0.0110915, ,-0,-0,-0,0,0,0,
,0,1604079203,979238315, ,0.84271,-1.84325,-1.82478,0.374023,1.49376,-0.0110672, ,-0,-0,-0,0,0,0,
,0,1604079203,981253302, ,0.84271,-1.84326,-1.82482,0.374035,1.49376,-0.0110672, ,-0,-0,-0,0,0,0,
,0,1604079203,983235375, ,0.84271,-1.84325,-1.8248,0.374059,1.49378,-0.0109952, ,-0,-0,-0,0,0,0,
,0,1604079203,985226577, ,0.842734,-1.84325,-1.8248,0.374059,1.49376,-0.0110791, ,-0,-0,-0,0,0,0,
,0,1604079203,987228403, ,0.842698,-1.84325,-1.8248,0.374059,1.49377,-0.0110791, ,-0,-0,-0,0,0,0,
,0,1604079203,989225825, ,0.842698,-1.84327,-1.82479,0.374035,1.49377,-0.0110791, ,-0,-0,-0,0,0,0,
,0,1604079203,991224395, ,0.842662,-1.84321,-1.82478,0.374035,1.49378,-0.0110434, ,-0,-0,-0,0,0,0,
,0,1604079203,993223155, ,0.842722,-1.84323,-1.82479,0.374083,1.49374,-0.0111154, ,-0,-0,-0,0,0,0,
,0,1604079203,995226670, ,0.84271,-1.84326,-1.82482,0.374047,1.49379,-0.0110434, ,-0,-0,-0,0,0,0,
,0,1604079203,997231250, ,0.842722,-1.8432,-1.82479,0.374047,1.49379,-0.0110915, ,-0,-0,-0,0,0,0,
,0,1604079203,999226854, ,0.842698,-1.84325,-1.82478,0.374023,1.49377,-0.0110915, ,-0,-0,-0,0,0,0,
,0,1604079204,1226503, ,0.842698,-1.84326,-1.82479,0.374059,1.49379,-0.0110672, ,-0,-0,-0,0,0,0,
,0,1604079204,3231819, ,0.842722,-1.84325,-1.82478,0.374071,1.49378,-0.0110553, ,-0,-0,-0,0,0,0,
,0,1604079204,5225071, ,0.842698,-1.84325,-1.82478,0.374035,1.49374,-0.0110672, ,-0,-0,-0,0,0,0,
,0,1604079204,7231525, ,0.842686,-1.84322,-1.82478,0.374059,1.49378,-0.0110434, ,-0,-0,-0,0,0,0,
,0,1604079204,9228385, ,0.842698,-1.84327,-1.8248,0.374059,1.4938,-0.0110434, ,-0,-0,-0,0,0,0,
,0,1604079204,11233403, ,0.842722,-1.84325,-1.82478,0.374095,1.49376,-0.0110791, ,-0,-0,-0,0,0,0,
,0,1604079204,13222463, ,0.842698,-1.84323,-1.82477,0.374059,1.49378,-0.0110553, ,-0,-0,-0,0,0,0,
,0,1604079204,15233152, ,0.842734,-1.84323,-1.82479,0.374059,1.49379,-0.0110553, ,-0,-0,-0,0,0,0,
,0,1604079204,17238256, ,0.842674,-1.84327,-1.82479,0.374023,1.49378,-0.0110672, ,-0,-0,-0,0,0,0,
,0,1604079204,19237557, ,0.842674,-1.84327,-1.82482,0.374035,1.49383,-0.0111154, ,-0,-0,-0,0,0,0,
,0,1604079204,21328696, ,0.842686,-1.84322,-1.8248,0.374047,1.49377,-0.0110315, ,-0,-0,-0,0,0,0,
,0,1604079204,23240302, ,0.842722,-1.84325,-1.82479,0.374047,1.49377,-0.0110553, ,-0,-0,-0,0,0,0,
,0,1604079204,25243263, ,0.842686,-1.84326,-1.8248,0.374059,1.49378,-0.0110791, ,-0,-0,-0,0,0,0,
,0,1604079204,27236559, ,0.84271,-1.84326,-1.8248,0.374035,1.49379,-0.011103, ,-0,-0,-0,0,0,0,
,0,1604079204,29232962, ,0.842674,-1.84322,-1.82478,0.374047,1.4938,-0.0110553, ,-0,-0,-0,0,0,0,
,0,1604079204,31232931, ,0.842686,-1.84328,-1.82479,0.374035,1.49376,-0.0110791, ,-0,-0,-0,0,0,0,
,0,1604079204,33271595, ,0.842722,-1.84322,-1.82478,0.374011,1.4938,-0.0110434, ,-0,-0,-0,0,0,0,
,0,1604079204,35274215, ,0.84271,-1.84323,-1.82478,0.374083,1.4938,-0.0110672, ,-0,-0,-0,0,0,0,
,0,1604079204,37228229, ,0.842674,-1.84323,-1.82478,0.374035,1.49377,-0.0110672, ,-0,-0,-0,0,0,0,
,0,1604079204,39232848, ,0.842686,-1.84322,-1.8248,0.374023,1.49377,-0.0110553, ,-0,-0,-0,0,0,0,
,0,1604079204,41233209, ,0.84271,-1.84323,-1.82478,0.374071,1.4938,-0.0110672, ,-0,-0,-0,0,0,0,
,0,1604079204,43245271, ,0.84271,-1.84322,-1.8248,0.374059,1.4938,-0.0110315, ,-0,-0,-0,0,0,0,
,0,1604079204,45231018, ,0.842698,-1.84322,-1.82478,0.374059,1.4938,-0.0110434, ,-0,-0,-0,0,0,0,
,0,1604079204,47261422, ,0.842686,-1.84325,-1.82479,0.374071,1.49379,-0.0110791, ,-0,-0,-0,0,0,0,
,0,1604079204,49238176, ,0.842674,-1.84325,-1.8248,0.374095,1.49377,-0.0110553, ,-0,-0,-0,0,0,0,
,0,1604079204,51239686, ,0.842698,-1.8432,-1.82482,0.374035,1.49379,-0.0110434, ,-0,-0,-0,0,0,0,
,0,1604079204,53229605, ,0.842698,-1.8432,-1.82479,0.374023,1.49378,-0.0110791, ,-0,-0,-0,0,0,0,
,0,1604079204,55230404, ,0.842686,-1.84325,-1.82478,0.374035,1.49377,-0.0110915, ,-0,-0,-0,0,0,0,
,0,1604079204,57239350, ,0.842698,-1.84326,-1.8248,0.374071,1.49379,-0.0110553, ,-0,-0,-0,0,0,0,
,0,1604079204,59223840, ,0.842686,-1.84325,-1.82478,0.374059,1.49378,-0.0110553, ,-0,-0,-0,0,0,0,
,0,1604079204,61232024, ,0.842722,-1.84322,-1.82482,0.373999,1.49373,-0.0110315, ,-0,-0,-0,0,0,0,
,0,1604079204,63228995, ,0.842698,-1.84328,-1.8248,0.374023,1.49377,-0.0110915, ,-0,-0,-0,0,0,0,
,0,1604079204,65235223, ,0.842698,-1.84323,-1.82478,0.374047,1.4938,-0.0110672, ,-0,-0,-0,0,0,0,
,0,1604079204,67229599, ,0.842698,-1.84322,-1.8248,0.374023,1.49378,-0.0110672, ,-0,-0,-0,0,0,0,
,0,1604079204,69226466, ,0.842698,-1.84323,-1.82479,0.374011,1.4938,-0.0110672, ,-0,-0,-0,0,0,0,
,0,1604079204,71235914, ,0.842674,-1.84325,-1.8248,0.374023,1.49377,-0.0111154, ,-0,-0,-0,0,0,0,
,0,1604079204,73228225, ,0.84265,-1.84326,-1.82479,0.374047,1.49376,-0.0110315, ,-0,-0,-0,0,0,0,
,0,1604079204,75225778, ,0.842698,-1.84327,-1.82479,0.374035,1.49379,-0.0110791, ,-0,-0,-0,0,0,0,
,0,1604079204,77226287, ,0.842698,-1.8432,-1.82479,0.374071,1.49377,-0.0110434, ,-0,-0,-0,0,0,0,
,0,1604079204,79236717, ,0.842686,-1.84322,-1.82478,0.374059,1.49379,-0.0110791, ,-0,-0,-0,0,0,0,
,0,1604079204,81226557, ,0.842698,-1.84322,-1.82479,0.374047,1.49376,-0.0110315, ,-0,-0,-0,0,0,0,
,0,1604079204,83224920, ,0.842674,-1.84326,-1.8248,0.374059,1.49378,-0.0110672, ,-0,-0,-0,0,0,0,
,0,1604079204,85223529, ,0.84271,-1.84323,-1.8248,0.374059,1.4938,-0.0110672, ,-0,-0,-0,0,0,0,
,0,1604079204,87234899, ,0.842722,-1.84325,-1.82478,0.374035,1.49378,-0.0110434, ,-0,-0,-0,0,0,0,
,0,1604079204,89232814, ,0.842698,-1.84326,-1.82482,0.374059,1.49376,-0.0110915, ,-0,-0,-0,0,0,0,
,0,1604079204,91230076, ,0.842698,-1.84328,-1.82479,0.374071,1.49377,-0.0110672, ,-0,-0,-0,0,0,0,
,0,1604079204,93233078, ,0.84265,-1.84328,-1.82479,0.374047,1.49379,-0.0110315, ,-0,-0,-0,0,0,0,
,0,1604079204,95227441, ,0.842698,-1.84328,-1.8248,0.374023,1.49377,-0.0110672, ,-0,-0,-0,0,0,0,
,0,1604079204,97230706, ,0.84271,-1.84322,-1.82478,0.374047,1.49383,-0.0110553, ,-0,-0,-0,0,0,0,
,0,1604079204,99235637, ,0.842734,-1.84328,-1.82479,0.374023,1.49376,-0.0110553, ,-0,-0,-0,0,0,0,
,0,1604079204,101225020, ,0.84271,-1.84322,-1.8248,0.374035,1.49379,-0.0110672, ,-0,-0,-0,0,0,0,
,0,1604079204,103228367, ,0.84271,-1.84327,-1.8248,0.374035,1.49379,-0.0110915, ,-0,-0,-0,0,0,0,
,0,1604079204,105233507, ,0.842698,-1.84326,-1.8248,0.374059,1.4938,-0.0110672, ,-0,-0,-0,0,0,0,
,0,1604079204,107233829, ,0.842698,-1.84326,-1.8248,0.374071,1.49376,-0.0110672, ,-0,-0,-0,0,0,0,
,0,1604079204,109226922, ,0.84271,-1.84325,-1.82479,0.374047,1.49378,-0.0110915, ,-0,-0,-0,0,0,0,
,0,1604079204,111232009, ,0.84271,-1.84323,-1.82478,0.374035,1.49381,-0.011103, ,-0,-0,-0,0,0,0,
,0,1604079204,113229297, ,0.842722,-1.84321,-1.82477,0.374023,1.4938,-0.0110791, ,-0,-0,-0,0,0,0,
,0,1604079204,115229307, ,0.84271,-1.84327,-1.82478,0.374011,1.49376,-0.0110791, ,-0,-0,-0,0,0,0,
,0,1604079204,117232048, ,0.842722,-1.84323,-1.82479,0.374059,1.49378,-0.0110672, ,-0,-0,-0,0,0,0,
,0,1604079204,119232242, ,0.84271,-1.84328,-1.82478,0.374047,1.49377,-0.0110553, ,-0,-0,-0,0,0,0,
,0,1604079204,121335603, ,0.842722,-1.84323,-1.8248,0.374047,1.49377,-0.0110672, ,-0,-0,-0,0,0,0,
,0,1604079204,123280118, ,0.842686,-1.84328,-1.8248,0.374083,1.49378,-0.0110315, ,-0,-0,-0,0,0,0,
,0,1604079204,125235340, ,0.842698,-1.84322,-1.8248,0.374071,1.49376,-0.0110915, ,-0,-0,-0,0,0,0,
,0,1604079204,127243811, ,0.842698,-1.84323,-1.82479,0.374023,1.49379,-0.0110672, ,-0,-0,-0,0,0,0,
,0,1604079204,129231471, ,0.842734,-1.84323,-1.8248,0.374071,1.49377,-0.0110434, ,-0,-0,-0,0,0,0,
,0,1604079204,131231462, ,0.842722,-1.84326,-1.82478,0.374047,1.4938,-0.011103, ,-0,-0,-0,0,0,0,
,0,1604079204,133243856, ,0.842722,-1.84327,-1.82478,0.374047,1.49379,-0.0110791, ,-0,-0,-0,0,0,0,
,0,1604079204,135285294, ,0.842674,-1.84323,-1.82478,0.374047,1.49379,-0.0110672, ,-0,-0,-0,0,0,0,
,0,1604079204,137249019, ,0.84271,-1.84328,-1.82482,0.374035,1.49379,-0.0110553, ,-0,-0,-0,0,0,0,
,0,1604079204,139231523, ,0.84271,-1.84322,-1.82478,0.374083,1.49376,-0.0110191, ,-0,-0,-0,0,0,0,
,0,1604079204,141228019, ,0.842686,-1.84326,-1.82479,0.374035,1.49377,-0.0110791, ,-0,-0,-0,0,0,0,
,0,1604079204,143230032, ,0.842698,-1.84321,-1.82478,0.374071,1.49377,-0.0110672, ,-0,-0,-0,0,0,0,
,0,1604079204,145239748, ,0.842698,-1.84325,-1.82482,0.374071,1.4938,-0.0110672, ,-0,-0,-0,0,0,0,
,0,1604079204,147232936, ,0.842698,-1.84323,-1.82478,0.374035,1.49374,-0.0110791, ,-0,-0,-0,0,0,0,
,0,1604079204,149240469, ,0.842686,-1.84326,-1.82477,0.374059,1.49378,-0.0110791, ,-0,-0,-0,0,0,0,
,0,1604079204,151228084, ,0.842722,-1.84327,-1.82478,0.374059,1.49377,-0.0110553, ,-0,-0,-0,0,0,0,
,0,1604079204,153238885, ,0.842734,-1.84323,-1.8248,0.374047,1.49379,-0.0110553, ,-0,-0,-0,0,0,0,
,0,1604079204,155237432, ,0.842698,-1.84325,-1.8248,0.374035,1.49378,-0.0110553, ,-0,-0,-0,0,0,0,
,0,1604079204,157230633, ,0.84271,-1.84328,-1.82482,0.374059,1.49381,-0.0110915, ,-0,-0,-0,0,0,0,
,0,1604079204,159225411, ,0.842686,-1.84326,-1.82478,0.374083,1.49378,-0.0110553, ,-0,-0,-0,0,0,0,
,0,1604079204,161236697, ,0.842698,-1.84325,-1.82478,0.374035,1.49379,-0.0110191, ,-0,-0,-0,0,0,0,
,0,1604079204,163237361, ,0.84271,-1.84325,-1.8248,0.374047,1.49379,-0.0110553, ,-0,-0,-0,0,0,0,
,0,1604079204,165230911, ,0.842674,-1.84323,-1.8248,0.374011,1.49379,-0.0110553, ,-0,-0,-0,0,0,0,
,0,1604079204,167232663, ,0.842722,-1.84322,-1.82478,0.374059,1.49377,-0.0110791, ,-0,-0,-0,0,0,0,
,0,1604079204,169228706, ,0.842674,-1.84323,-1.82479,0.374059,1.4938,-0.0110915, ,-0,-0,-0,0,0,0,
,0,1604079204,171238984, ,0.842686,-1.84326,-1.82479,0.374059,1.49377,-0.0110315, ,-0,-0,-0,0,0,0,
,0,1604079204,173231094, ,0.84271,-1.84325,-1.82478,0.374071,1.49378,-0.0110434, ,-0,-0,-0,0,0,0,
,0,1604079204,175230817, ,0.84271,-1.84322,-1.8248,0.374059,1.49377,-0.0110191, ,-0,-0,-0,0,0,0,
,0,1604079204,177235471, ,0.842674,-1.84323,-1.82478,0.374047,1.49378,-0.0110553, ,-0,-0,-0,0,0,0,
,0,1604079204,179228262, ,0.842674,-1.84325,-1.82477,0.374083,1.49379,-0.0110672, ,-0,-0,-0,0,0,0,
,0,1604079204,181235198, ,0.84271,-1.84325,-1.82479,0.374035,1.49376,-0.0110672, ,-0,-0,-0,0,0,0,
,0,1604079204,183232088, ,0.842686,-1.84322,-1.82478,0.374083,1.4938,-0.0110791, ,-0,-0,-0,0,0,0,
,0,1604079204,185229634, ,0.842686,-1.84325,-1.8248,0.374035,1.49378,-0.0110553, ,-0,-0,-0,0,0,0,
,0,1604079204,187231813, ,0.842722,-1.84325,-1.82478,0.374071,1.49377,-0.0110434, ,-0,-0,-0,0,0,0,
,0,1604079204,189233403, ,0.842698,-1.84322,-1.82482,0.374047,1.49378,-0.0110672, ,-0,-0,-0,0,0,0,
,0,1604079204,191240362, ,0.842674,-1.84322,-1.82478,0.374059,1.49378,-0.0110672, ,-0,-0,-0,0,0,0,
,0,1604079204,193229261, ,0.842722,-1.84325,-1.82476,0.374011,1.49376,-0.0110553, ,-0,-0,-0,0,0,0,
,0,1604079204,195232178, ,0.842698,-1.84321,-1.8248,0.374011,1.49376,-0.0110076, ,-0,-0,-0,0,0,0,
,0,1604079204,197223303, ,0.842698,-1.84327,-1.82478,0.373987,1.49379,-0.0110791, ,-0,-0,-0,0,0,0,
,0,1604079204,199228790, ,0.842662,-1.84325,-1.8248,0.374035,1.49379,-0.0110315, ,-0,-0,-0,0,0,0,
,0,1604079204,201221893, ,0.842722,-1.84327,-1.82479,0.374011,1.4938,-0.011103, ,-0,-0,-0,0,0,0,
,0,1604079204,203221485, ,0.84271,-1.84326,-1.82478,0.373999,1.49377,-0.0110791, ,-0,-0,-0,0,0,0,
,0,1604079204,205217424, ,0.842698,-1.84323,-1.8248,0.374011,1.49379,-0.0110553, ,-0,-0,-0,0,0,0,
,0,1604079204,207224793, ,0.842722,-1.84322,-1.82478,0.374047,1.49377,-0.0110791, ,-0,-0,-0,0,0,0,
,0,1604079204,209222950, ,0.84271,-1.84322,-1.82478,0.374071,1.4938,-0.0110791, ,-0,-0,-0,0,0,0,
,0,1604079204,211224132, ,0.842674,-1.84323,-1.82478,0.374083,1.49379,-0.0110191, ,-0,-0,-0,0,0,0,
,0,1604079204,213221801, ,0.842734,-1.8432,-1.82482,0.374047,1.49379,-0.0110791, ,-0,-0,-0,0,0,0,
,0,1604079204,215220723, ,0.842686,-1.84325,-1.82479,0.374047,1.49379,-0.0110434, ,-0,-0,-0,0,0,0,
,0,1604079204,217240452, ,0.84271,-1.84325,-1.82477,0.374023,1.4938,-0.0110672, ,-0,-0,-0,0,0,0,
,0,1604079204,219225866, ,0.84271,-1.84327,-1.82479,0.374035,1.49383,-0.0110434, ,-0,-0,-0,0,0,0,
,0,1604079204,221269617, ,0.84271,-1.84323,-1.8248,0.374011,1.49383,-0.0110672, ,-0,-0,-0,0,0,0,
,0,1604079204,223288599, ,0.842722,-1.84323,-1.82478,0.374035,1.49377,-0.0110553, ,-0,-0,-0,0,0,0,
,0,1604079204,225229303, ,0.842698,-1.84321,-1.82482,0.374071,1.49378,-0.0110434, ,-0,-0,-0,0,0,0,
,0,1604079204,227228015, ,0.84271,-1.84328,-1.8248,0.374095,1.49378,-0.0110553, ,-0,-0,-0,0,0,0,
,0,1604079204,229230252, ,0.842722,-1.84328,-1.82479,0.374023,1.49377,-0.0110672, ,-0,-0,-0,0,0,0,
,0,1604079204,231217887, ,0.842674,-1.84327,-1.8248,0.374071,1.49379,-0.0110672, ,-0,-0,-0,0,0,0,
,0,1604079204,233261314, ,0.842698,-1.84325,-1.82478,0.374059,1.49383,-0.0110553, ,-0,-0,-0,0,0,0,
,0,1604079204,235265075, ,0.842674,-1.84325,-1.8248,0.374059,1.49376,-0.0110791, ,-0,-0,-0,0,0,0,
,0,1604079204,237226953, ,0.842734,-1.84327,-1.82483,0.374011,1.4938,-0.0110791, ,-0,-0,-0,0,0,0,
,0,1604079204,239220346, ,0.84271,-1.84323,-1.8248,0.374023,1.49377,-0.0110915, ,-0,-0,-0,0,0,0,
,0,1604079204,241246716, ,0.84271,-1.84322,-1.82479,0.374107,1.49377,-0.0110672, ,-0,-0,-0,0,0,0,
,0,1604079204,243226042, ,0.842698,-1.84322,-1.82478,0.374047,1.49376,-0.0110791, ,-0,-0,-0,0,0,0,
,0,1604079204,245238802, ,0.842686,-1.84325,-1.82478,0.374059,1.49379,-0.0110434, ,-0,-0,-0,0,0,0,
,0,1604079204,247246059, ,0.842722,-1.84322,-1.82479,0.374047,1.49381,-0.0110553, ,-0,-0,-0,0,0,0,
,0,1604079204,249234800, ,0.84271,-1.84321,-1.8248,0.374047,1.49378,-0.0110672, ,-0,-0,-0,0,0,0,
,0,1604079204,251223236, ,0.84271,-1.84322,-1.82479,0.374023,1.49374,-0.0110672, ,-0,-0,-0,0,0,0,
,0,1604079204,253220834, ,0.842686,-1.84322,-1.8248,0.374047,1.49379,-0.0110915, ,-0,-0,-0,0,0,0,
,0,1604079204,255234059, ,0.842722,-1.84326,-1.8248,0.374059,1.49381,-0.0110672, ,-0,-0,-0,0,0,0,
,0,1604079204,257232218, ,0.842686,-1.84322,-1.8248,0.374071,1.49379,-0.0110434, ,-0,-0,-0,0,0,0,
,0,1604079204,259221733, ,0.842734,-1.84323,-1.82478,0.374071,1.49377,-0.0110315, ,-0,-0,-0,0,0,0,
,0,1604079204,261229827, ,0.842686,-1.84325,-1.82478,0.374023,1.4938,-0.0110434, ,-0,-0,-0,0,0,0,
,0,1604079204,263233967, ,0.842698,-1.84326,-1.82479,0.374035,1.49376,-0.0110315, ,-0,-0,-0,0,0,0,
,0,1604079204,265234614, ,0.842686,-1.84326,-1.8248,0.374095,1.49378,-0.0110434, ,-0,-0,-0,0,0,0,
,0,1604079204,267222980, ,0.84271,-1.84322,-1.82479,0.374095,1.49379,-0.0110553, ,-0,-0,-0,0,0,0,
,0,1604079204,269221485, ,0.84271,-1.84323,-1.8248,0.374047,1.49378,-0.0110191, ,-0,-0,-0,0,0,0,
,0,1604079204,271227369, ,0.842722,-1.84329,-1.82479,0.374071,1.49378,-0.0110791, ,-0,-0,-0,0,0,0,
,0,1604079204,273226624, ,0.842734,-1.84325,-1.82478,0.374023,1.49376,-0.0110434, ,-0,-0,-0,0,0,0,
,0,1604079204,275217560, ,0.842734,-1.8432,-1.82482,0.374071,1.49378,-0.0110553, ,-0,-0,-0,0,0,0,
,0,1604079204,277222553, ,0.842698,-1.84326,-1.8248,0.374035,1.4938,-0.0110434, ,-0,-0,-0,0,0,0,
,0,1604079204,279221810, ,0.842686,-1.84321,-1.82479,0.374107,1.49378,-0.0110553, ,-0,-0,-0,0,0,0,
,0,1604079204,281223496, ,0.842734,-1.84323,-1.82482,0.374047,1.49379,-0.0110672, ,-0,-0,-0,0,0,0,
,0,1604079204,283231731, ,0.842686,-1.84325,-1.82479,0.374071,1.49379,-0.0110434, ,-0,-0,-0,0,0,0,
,0,1604079204,285222827, ,0.842698,-1.84323,-1.82478,0.374059,1.49374,-0.0110434, ,-0,-0,-0,0,0,0,
,0,1604079204,287224296, ,0.84271,-1.84322,-1.8248,0.374059,1.49379,-0.011103, ,-0,-0,-0,0,0,0,
,0,1604079204,289219778, ,0.842698,-1.84325,-1.82478,0.374047,1.4938,-0.0110434, ,-0,-0,-0,0,0,0,
,0,1604079204,291227497, ,0.842722,-1.84318,-1.8248,0.374023,1.49378,-0.0110434, ,-0,-0,-0,0,0,0,
,0,1604079204,293225224, ,0.84271,-1.84322,-1.82479,0.374047,1.49376,-0.011103, ,-0,-0,-0,0,0,0,
,0,1604079204,295228470, ,0.84271,-1.84327,-1.8248,0.374023,1.49377,-0.0110672, ,-0,-0,-0,0,0,0,
,0,1604079204,297224025, ,0.842674,-1.84326,-1.8248,0.374023,1.4938,-0.0110191, ,-0,-0,-0,0,0,0,
,0,1604079204,299232299, ,0.84271,-1.84326,-1.82479,0.374047,1.49378,-0.0110315, ,-0,-0,-0,0,0,0,
,0,1604079204,301224823, ,0.84271,-1.84323,-1.82478,0.374023,1.49379,-0.011103, ,-0,-0,-0,0,0,0,
,0,1604079204,303226312, ,0.842698,-1.84321,-1.82479,0.374035,1.4938,-0.0110553, ,-0,-0,-0,0,0,0,
,0,1604079204,305221021, ,0.842698,-1.84325,-1.82482,0.374023,1.4938,-0.0110434, ,-0,-0,-0,0,0,0,
,0,1604079204,307221632, ,0.842674,-1.84325,-1.8248,0.374095,1.49374,-0.011103, ,-0,-0,-0,0,0,0,
,0,1604079204,309234989, ,0.842674,-1.84323,-1.82478,0.374059,1.49381,-0.0110915, ,-0,-0,-0,0,0,0,
,0,1604079204,311226422, ,0.842686,-1.84325,-1.82477,0.374059,1.49379,-0.0110672, ,-0,-0,-0,0,0,0,
,0,1604079204,313232668, ,0.84271,-1.84325,-1.82478,0.374023,1.49379,-0.0110672, ,-0,-0,-0,0,0,0,
,0,1604079204,315222135, ,0.842686,-1.84322,-1.8248,0.374083,1.49377,-0.011103, ,-0,-0,-0,0,0,0,
,0,1604079204,317230211, ,0.842674,-1.84325,-1.82478,0.374095,1.49378,-0.0110915, ,-0,-0,-0,0,0,0,
,0,1604079204,319228032, ,0.842686,-1.84326,-1.8248,0.374059,1.49378,-0.011103, ,-0,-0,-0,0,0,0,
,0,1604079204,321243889, ,0.84271,-1.84322,-1.8248,0.374047,1.4938,-0.0110672, ,-0,-0,-0,0,0,0,
,0,1604079204,323322992, ,0.84271,-1.84326,-1.8248,0.374107,1.49381,-0.0110553, ,-0,-0,-0,0,0,0,
,0,1604079204,325221067, ,0.842686,-1.84326,-1.82478,0.374071,1.49377,-0.0110672, ,-0,-0,-0,0,0,0,
,0,1604079204,327236696, ,0.84271,-1.84325,-1.8248,0.374071,1.4938,-0.0110315, ,-0,-0,-0,0,0,0,
,0,1604079204,329227242, ,0.84271,-1.84319,-1.82478,0.374023,1.49378,-0.0110553, ,-0,-0,-0,0,0,0,
,0,1604079204,331232448, ,0.842722,-1.84325,-1.82478,0.374047,1.49378,-0.0110791, ,-0,-0,-0,0,0,0,
,0,1604079204,333244573, ,0.842722,-1.84329,-1.8248,0.374023,1.49376,-0.0110434, ,-0,-0,-0,0,0,0,
,0,1604079204,335251442, ,0.842698,-1.84327,-1.82478,0.374035,1.49379,-0.0110315, ,-0,-0,-0,0,0,0,
,0,1604079204,337257255, ,0.842734,-1.84322,-1.82478,0.374083,1.49379,-0.0110791, ,-0,-0,-0,0,0,0,
,0,1604079204,339222192, ,0.84271,-1.84326,-1.82477,0.374059,1.49379,-0.0110672, ,-0,-0,-0,0,0,0,
,0,1604079204,341224474, ,0.842686,-1.84325,-1.82478,0.374023,1.49379,-0.0110434, ,-0,-0,-0,0,0,0,
,0,1604079204,343224090, ,0.842686,-1.84326,-1.8248,0.374035,1.49377,-0.0110791, ,-0,-0,-0,0,0,0,
,0,1604079204,345237312, ,0.842746,-1.84325,-1.82478,0.374083,1.49378,-0.0110672, ,-0,-0,-0,0,0,0,
,0,1604079204,347252606, ,0.84271,-1.84325,-1.82478,0.374071,1.49374,-0.0110791, ,-0,-0,-0,0,0,0,
,0,1604079204,349230797, ,0.842686,-1.8432,-1.82478,0.374035,1.49379,-0.0111154, ,-0,-0,-0,0,0,0,
,0,1604079204,351230333, ,0.842722,-1.84329,-1.82478,0.374035,1.49379,-0.0110191, ,-0,-0,-0,0,0,0,
,0,1604079204,353225880, ,0.842734,-1.84326,-1.8248,0.374047,1.4938,-0.0110672, ,-0,-0,-0,0,0,0,
,0,1604079204,355229322, ,0.842722,-1.84322,-1.8248,0.374035,1.4938,-0.0110791, ,-0,-0,-0,0,0,0,
,0,1604079204,357226233, ,0.84271,-1.84326,-1.82478,0.374047,1.49377,-0.0111273, ,-0,-0,-0,0,0,0,
,0,1604079204,359223421, ,0.842662,-1.84323,-1.82479,0.374083,1.49379,-0.0110434, ,-0,-0,-0,0,0,0,
,0,1604079204,361227873, ,0.84271,-1.84323,-1.82478,0.374035,1.49377,-0.0110434, ,-0,-0,-0,0,0,0,
,0,1604079204,363236121, ,0.842698,-1.84325,-1.82479,0.374035,1.49378,-0.0110434, ,-0,-0,-0,0,0,0,
,0,1604079204,365231111, ,0.842698,-1.84326,-1.82478,0.374059,1.49383,-0.0110434, ,-0,-0,-0,0,0,0,
,0,1604079204,367224963, ,0.84271,-1.84322,-1.8248,0.374059,1.49378,-0.0110553, ,-0,-0,-0,0,0,0,
,0,1604079204,369224698, ,0.84271,-1.84325,-1.82479,0.374071,1.49379,-0.0111154, ,-0,-0,-0,0,0,0,
,0,1604079204,371328977, ,0.842698,-1.84325,-1.8248,0.374047,1.49377,-0.0110672, ,-0,-0,-0,0,0,0,
,0,1604079204,373253255, ,0.842674,-1.84322,-1.82478,0.374023,1.49376,-0.0110434, ,-0,-0,-0,0,0,0,
,0,1604079204,375226760, ,0.84271,-1.84325,-1.82479,0.374047,1.49379,-0.0110553, ,-0,-0,-0,0,0,0,
,0,1604079204,377246509, ,0.842722,-1.84323,-1.8248,0.374023,1.49377,-0.0110791, ,-0,-0,-0,0,0,0,
,0,1604079204,379226208, ,0.842686,-1.8432,-1.8248,0.374047,1.4938,-0.0110791, ,-0,-0,-0,0,0,0,
,0,1604079204,381239679, ,0.842734,-1.84326,-1.82478,0.374071,1.49377,-0.0110791, ,-0,-0,-0,0,0,0,
,0,1604079204,383226713, ,0.84271,-1.84323,-1.8248,0.374059,1.49377,-0.0110434, ,-0,-0,-0,0,0,0,
,0,1604079204,385229404, ,0.84271,-1.84323,-1.82478,0.374059,1.49378,-0.0110915, ,-0,-0,-0,0,0,0,
,0,1604079204,387225068, ,0.84271,-1.8432,-1.82478,0.374035,1.49377,-0.0110076, ,-0,-0,-0,0,0,0,
,0,1604079204,389227901, ,0.842722,-1.84321,-1.8248,0.374035,1.49378,-0.0110915, ,-0,-0,-0,0,0,0,
,0,1604079204,391233476, ,0.84271,-1.84323,-1.82479,0.374035,1.49377,-0.0110434, ,-0,-0,-0,0,0,0,
,0,1604079204,393229247, ,0.84271,-1.84323,-1.82483,0.374035,1.49377,-0.0110434, ,-0,-0,-0,0,0,0,
,0,1604079204,395264538, ,0.84271,-1.84322,-1.82479,0.374059,1.49381,-0.011103, ,-0,-0,-0,0,0,0,
,0,1604079204,397225587, ,0.842746,-1.84323,-1.82482,0.374035,1.49377,-0.0110553, ,-0,-0,-0,0,0,0,
,0,1604079204,399238664, ,0.842674,-1.8432,-1.8248,0.374023,1.49377,-0.0110553, ,-0,-0,-0,0,0,0,
,0,1604079204,401228838, ,0.842698,-1.84325,-1.82479,0.374083,1.4938,-0.0110315, ,-0,-0,-0,0,0,0,
,0,1604079204,403223726, ,0.842698,-1.84326,-1.82484,0.374047,1.49374,-0.0110672, ,-0,-0,-0,0,0,0,
,0,1604079204,405230278, ,0.84271,-1.84325,-1.8248,0.374047,1.4938,-0.0110915, ,-0,-0,-0,0,0,0,
,0,1604079204,407230882, ,0.842698,-1.8432,-1.82482,0.374023,1.49378,-0.0110553, ,-0,-0,-0,0,0,0,
,0,1604079204,409230307, ,0.842662,-1.84322,-1.82479,0.374059,1.49377,-0.0110434, ,-0,-0,-0,0,0,0,
,0,1604079204,411230614, ,0.842698,-1.84322,-1.8248,0.374059,1.49377,-0.0110672, ,-0,-0,-0,0,0,0,
,0,1604079204,413228857, ,0.842698,-1.84323,-1.82483,0.374047,1.49379,-0.0110791, ,-0,-0,-0,0,0,0,
,0,1604079204,415225530, ,0.84271,-1.84321,-1.82479,0.374011,1.49378,-0.0110553, ,-0,-0,-0,0,0,0,
,0,1604079204,417245057, ,0.842698,-1.84321,-1.82479,0.374059,1.49377,-0.0110915, ,-0,-0,-0,0,0,0,
,0,1604079204,419231927, ,0.84271,-1.84325,-1.82478,0.374071,1.49378,-0.0110791, ,-0,-0,-0,0,0,0,
,0,1604079204,421250067, ,0.842698,-1.84323,-1.82479,0.374023,1.4938,-0.0110672, ,-0,-0,-0,0,0,0,
,0,1604079204,423339124, ,0.842722,-1.84323,-1.82478,0.374035,1.49379,-0.0110915, ,-0,-0,-0,0,0,0,
,0,1604079204,425236878, ,0.842722,-1.84323,-1.82479,0.374047,1.49376,-0.0110434, ,-0,-0,-0,0,0,0,
,0,1604079204,427250578, ,0.842698,-1.84322,-1.8248,0.374023,1.49378,-0.0110076, ,-0,-0,-0,0,0,0,
,0,1604079204,429232434, ,0.842722,-1.84321,-1.82478,0.374023,1.49377,-0.0110553, ,-0,-0,-0,0,0,0,
,0,1604079204,431233222, ,0.842698,-1.84321,-1.82478,0.374035,1.49377,-0.0110553, ,-0,-0,-0,0,0,0,
,0,1604079204,433261561, ,0.842698,-1.84327,-1.8248,0.374059,1.49379,-0.0110315, ,-0,-0,-0,0,0,0,
,0,1604079204,435305985, ,0.84271,-1.84322,-1.82478,0.374035,1.49378,-0.011103, ,-0,-0,-0,0,0,0,
,0,1604079204,437233934, ,0.842722,-1.84323,-1.82478,0.374047,1.49376,-0.0111154, ,-0,-0,-0,0,0,0,
,0,1604079204,439225018, ,0.84271,-1.84326,-1.82478,0.374095,1.49377,-0.0110315, ,-0,-0,-0,0,0,0,
,0,1604079204,441235845, ,0.842698,-1.84321,-1.8248,0.374047,1.4938,-0.011103, ,-0,-0,-0,0,0,0,
,0,1604079204,443238004, ,0.84271,-1.84326,-1.8248,0.374035,1.49377,-0.011103, ,-0,-0,-0,0,0,0,
,0,1604079204,445243754, ,0.842686,-1.84319,-1.82479,0.374047,1.49377,-0.0110672, ,-0,-0,-0,0,0,0,
,0,1604079204,447233468, ,0.842698,-1.84325,-1.8248,0.374059,1.49377,-0.0110553, ,-0,-0,-0,0,0,0,
,0,1604079204,449235390, ,0.84271,-1.84323,-1.8248,0.374035,1.49378,-0.0110553, ,-0,-0,-0,0,0,0,
,0,1604079204,451229032, ,0.84271,-1.84322,-1.82478,0.374047,1.49377,-0.011103, ,-0,-0,-0,0,0,0,
,0,1604079204,453238135, ,0.842722,-1.84318,-1.8248,0.374059,1.49378,-0.0110672, ,-0,-0,-0,0,0,0,
,0,1604079204,455227476, ,0.84271,-1.84325,-1.82478,0.374071,1.49377,-0.0110672, ,-0,-0,-0,0,0,0,
,0,1604079204,457227353, ,0.842698,-1.84322,-1.8248,0.374095,1.49376,-0.0110672, ,-0,-0,-0,0,0,0,
,0,1604079204,459223667, ,0.842674,-1.84323,-1.82479,0.374083,1.49378,-0.0110315, ,-0,-0,-0,0,0,0,
,0,1604079204,461232519, ,0.84271,-1.84323,-1.8248,0.374071,1.49377,-0.0110791, ,-0,-0,-0,0,0,0,
,0,1604079204,463236156, ,0.842698,-1.84323,-1.82479,0.374095,1.49376,-0.0110553, ,-0,-0,-0,0,0,0,
,0,1604079204,465229358, ,0.842686,-1.84318,-1.82479,0.374059,1.49381,-0.0110191, ,-0,-0,-0,0,0,0,
,0,1604079204,467229105, ,0.842674,-1.84326,-1.82479,0.374071,1.49379,-0.0110434, ,-0,-0,-0,0,0,0,
,0,1604079204,469234696, ,0.84271,-1.8432,-1.82482,0.374023,1.49379,-0.0110191, ,-0,-0,-0,0,0,0,
,0,1604079204,471241178, ,0.842698,-1.84325,-1.82482,0.374083,1.49379,-0.0110434, ,-0,-0,-0,0,0,0,
,0,1604079204,473235970, ,0.842722,-1.84323,-1.82478,0.374095,1.49378,-0.0110553, ,-0,-0,-0,0,0,0,
,0,1604079204,475226611, ,0.84271,-1.84326,-1.82477,0.374071,1.49377,-0.0110553, ,-0,-0,-0,0,0,0,
,0,1604079204,477231213, ,0.842698,-1.84327,-1.82482,0.374011,1.49376,-0.0110672, ,-0,-0,-0,0,0,0,
,0,1604079204,479232238, ,0.84271,-1.84325,-1.82478,0.374047,1.49379,-0.0110553, ,-0,-0,-0,0,0,0,
,0,1604079204,481236588, ,0.842674,-1.84327,-1.82477,0.374071,1.49379,-0.0110791, ,-0,-0,-0,0,0,0,
,0,1604079204,483232546, ,0.84271,-1.84322,-1.8248,0.374059,1.4938,-0.0110434, ,-0,-0,-0,0,0,0,
,0,1604079204,485234903, ,0.842698,-1.84323,-1.82479,0.374059,1.49373,-0.0110315, ,-0,-0,-0,0,0,0,
,0,1604079204,487230595, ,0.842722,-1.84322,-1.82478,0.374059,1.49378,-0.0109833, ,-0,-0,-0,0,0,0,
,0,1604079204,489234858, ,0.842722,-1.8432,-1.8248,0.374071,1.4938,-0.0110791, ,-0,-0,-0,0,0,0,
,0,1604079204,491232776, ,0.842674,-1.84325,-1.8248,0.374047,1.49377,-0.0110672, ,-0,-0,-0,0,0,0,
,0,1604079204,493226198, ,0.842698,-1.84327,-1.82477,0.374035,1.49376,-0.0110315, ,-0,-0,-0,0,0,0,
,0,1604079204,495233102, ,0.842746,-1.84323,-1.82478,0.374047,1.49379,-0.0110672, ,-0,-0,-0,0,0,0,
,0,1604079204,497236995, ,0.84271,-1.84325,-1.82478,0.374071,1.49377,-0.0110553, ,-0,-0,-0,0,0,0,
,0,1604079204,499345650, ,0.842734,-1.84325,-1.82479,0.374035,1.4938,-0.0110076, ,-0,-0,-0,0,0,0,
,0,1604079204,501232545, ,0.842734,-1.84327,-1.82479,0.374035,1.49381,-0.0110553, ,-0,-0,-0,0,0,0,
,0,1604079204,503228447, ,0.842698,-1.84325,-1.82483,0.374059,1.49377,-0.011103, ,-0,-0,-0,0,0,0,
,0,1604079204,505237617, ,0.84271,-1.84322,-1.82478,0.374047,1.49377,-0.0110672, ,-0,-0,-0,0,0,0,
,0,1604079204,507222993, ,0.842686,-1.84323,-1.82482,0.374023,1.49376,-0.0110791, ,-0,-0,-0,0,0,0,
,0,1604079204,509226079, ,0.842662,-1.84327,-1.8248,0.374011,1.49377,-0.0110315, ,-0,-0,-0,0,0,0,
,0,1604079204,511247449, ,0.842674,-1.84326,-1.8248,0.374071,1.49378,-0.0110553, ,-0,-0,-0,0,0,0,
,0,1604079204,513233911, ,0.842674,-1.84325,-1.8248,0.374035,1.49377,-0.0110791, ,-0,-0,-0,0,0,0,
,0,1604079204,515231613, ,0.842686,-1.84326,-1.82478,0.373999,1.49374,-0.0110553, ,-0,-0,-0,0,0,0,
,0,1604079204,517240973, ,0.842674,-1.84323,-1.82478,0.374035,1.4938,-0.0110672, ,-0,-0,-0,0,0,0,
,0,1604079204,519252804, ,0.842746,-1.84326,-1.82478,0.374059,1.49377,-0.0110553, ,-0,-0,-0,0,0,0,
,0,1604079204,521244177, ,0.84271,-1.84327,-1.82479,0.374035,1.49377,-0.0110315, ,-0,-0,-0,0,0,0,
,0,1604079204,523345868, ,0.84271,-1.84322,-1.82478,0.374083,1.49376,-0.0110672, ,-0,-0,-0,0,0,0,
,0,1604079204,525294186, ,0.842746,-1.84322,-1.82478,0.374035,1.49379,-0.0110315, ,-0,-0,-0,0,0,0,
,0,1604079204,527254678, ,0.84271,-1.84327,-1.82479,0.374035,1.49381,-0.0110791, ,-0,-0,-0,0,0,0,
,0,1604079204,529233560, ,0.842734,-1.84323,-1.82478,0.374095,1.49377,-0.0110315, ,-0,-0,-0,0,0,0,
,0,1604079204,531221581, ,0.842686,-1.84325,-1.82478,0.374047,1.49379,-0.011103, ,-0,-0,-0,0,0,0,
,0,1604079204,533248575, ,0.84271,-1.84328,-1.82478,0.374047,1.49379,-0.0110791, ,-0,-0,-0,0,0,0,
,0,1604079204,535242233, ,0.842698,-1.84323,-1.8248,0.374047,1.49379,-0.0110791, ,-0,-0,-0,0,0,0,
,0,1604079204,537225496, ,0.842686,-1.84323,-1.82478,0.374059,1.49372,-0.0110791, ,-0,-0,-0,0,0,0,
,0,1604079204,539215963, ,0.842686,-1.84322,-1.82478,0.374035,1.4938,-0.0110915, ,-0,-0,-0,0,0,0,
,0,1604079204,541221797, ,0.842698,-1.84327,-1.82478,0.374083,1.49377,-0.0110791, ,-0,-0,-0,0,0,0,
,0,1604079204,543224479, ,0.842698,-1.84326,-1.82478,0.374023,1.4938,-0.0110791, ,-0,-0,-0,0,0,0,
,0,1604079204,545235706, ,0.84271,-1.84327,-1.8248,0.374071,1.49377,-0.0110434, ,-0,-0,-0,0,0,0,
,0,1604079204,547227411, ,0.842698,-1.8432,-1.8248,0.374035,1.49377,-0.0110434, ,-0,-0,-0,0,0,0,
,0,1604079204,549238063, ,0.84271,-1.84323,-1.82478,0.374023,1.49378,-0.0110791, ,-0,-0,-0,0,0,0,
,0,1604079204,551223867, ,0.842686,-1.84326,-1.82478,0.374071,1.49378,-0.0110553, ,-0,-0,-0,0,0,0,
,0,1604079204,553228887, ,0.842722,-1.84322,-1.82479,0.374071,1.49378,-0.0110791, ,-0,-0,-0,0,0,0,
,0,1604079204,555224595, ,0.842698,-1.8432,-1.8248,0.374047,1.49383,-0.011103, ,-0,-0,-0,0,0,0,
,0,1604079204,557223507, ,0.84271,-1.84323,-1.82479,0.374023,1.49377,-0.0110791, ,-0,-0,-0,0,0,0,
,0,1604079204,559222866, ,0.842722,-1.84327,-1.82478,0.374035,1.49381,-0.0110672, ,-0,-0,-0,0,0,0,
,0,1604079204,561225105, ,0.842722,-1.84327,-1.82478,0.374071,1.49377,-0.0110672, ,-0,-0,-0,0,0,0,
,0,1604079204,563225763, ,0.842686,-1.84325,-1.82478,0.374023,1.49378,-0.0110434, ,-0,-0,-0,0,0,0,
,0,1604079204,565239096, ,0.84271,-1.84325,-1.82477,0.374023,1.49378,-0.0110915, ,-0,-0,-0,0,0,0,
,0,1604079204,567228491, ,0.84271,-1.84322,-1.82478,0.374071,1.49376,-0.0111154, ,-0,-0,-0,0,0,0,
,0,1604079204,569222679, ,0.842698,-1.84323,-1.8248,0.374035,1.49377,-0.0110553, ,-0,-0,-0,0,0,0,
,0,1604079204,571239812, ,0.842686,-1.84322,-1.82482,0.374047,1.49374,-0.0110553, ,-0,-0,-0,0,0,0,
,0,1604079204,573227203, ,0.842686,-1.84323,-1.8248,0.374035,1.49376,-0.0110553, ,-0,-0,-0,0,0,0,
,0,1604079204,575224440, ,0.842662,-1.8432,-1.82482,0.374071,1.49379,-0.0110553, ,-0,-0,-0,0,0,0,
,0,1604079204,577229821, ,0.842686,-1.8432,-1.8248,0.374035,1.49378,-0.0110434, ,-0,-0,-0,0,0,0,
,0,1604079204,579224870, ,0.842686,-1.84325,-1.8248,0.374059,1.49378,-0.0110553, ,-0,-0,-0,0,0,0,
,0,1604079204,581231377, ,0.84271,-1.84322,-1.82479,0.374011,1.49378,-0.0110553, ,-0,-0,-0,0,0,0,
,0,1604079204,583228731, ,0.842734,-1.84325,-1.82478,0.374071,1.49379,-0.0110434, ,-0,-0,-0,0,0,0,
,0,1604079204,585227116, ,0.84271,-1.84327,-1.8248,0.374035,1.49376,-0.0110791, ,-0,-0,-0,0,0,0,
,0,1604079204,587228848, ,0.842698,-1.8432,-1.82477,0.374035,1.49377,-0.0111273, ,-0,-0,-0,0,0,0,
,0,1604079204,589234543, ,0.842674,-1.84325,-1.82478,0.374059,1.49374,-0.0110191, ,-0,-0,-0,0,0,0,
,0,1604079204,591223699, ,0.84271,-1.84326,-1.82479,0.374035,1.49378,-0.0110672, ,-0,-0,-0,0,0,0,
,0,1604079204,593231895, ,0.842698,-1.84325,-1.82478,0.374071,1.49379,-0.0110672, ,-0,-0,-0,0,0,0,
,0,1604079204,595226499, ,0.842686,-1.84322,-1.82478,0.374035,1.49376,-0.0110915, ,-0,-0,-0,0,0,0,
,0,1604079204,597227171, ,0.842698,-1.84326,-1.82478,0.374095,1.49379,-0.0110315, ,-0,-0,-0,0,0,0,
,0,1604079204,599229207, ,0.842698,-1.84322,-1.82483,0.374047,1.49374,-0.0110791, ,-0,-0,-0,0,0,0,
,0,1604079204,601228509, ,0.842722,-1.84327,-1.82478,0.374059,1.49377,-0.0110553, ,-0,-0,-0,0,0,0,
,0,1604079204,603232793, ,0.842686,-1.84325,-1.82479,0.374047,1.49376,-0.0110791, ,-0,-0,-0,0,0,0,
,0,1604079204,605222125, ,0.842698,-1.84327,-1.82478,0.374047,1.49377,-0.0110553, ,-0,-0,-0,0,0,0,
,0,1604079204,607234643, ,0.84271,-1.84322,-1.82478,0.374035,1.49379,-0.0110553, ,-0,-0,-0,0,0,0,
,0,1604079204,609226047, ,0.842722,-1.84326,-1.82483,0.374035,1.49379,-0.0110553, ,-0,-0,-0,0,0,0,
,0,1604079204,611231021, ,0.842698,-1.8432,-1.82479,0.374047,1.49381,-0.0110672, ,-0,-0,-0,0,0,0,
,0,1604079204,613222386, ,0.842698,-1.84325,-1.8248,0.374023,1.49376,-0.0110553, ,-0,-0,-0,0,0,0,
,0,1604079204,615234965, ,0.842686,-1.84325,-1.82479,0.374047,1.49378,-0.0110915, ,-0,-0,-0,0,0,0,
,0,1604079204,617254700, ,0.842722,-1.84321,-1.82478,0.374023,1.49378,-0.0110553, ,-0,-0,-0,0,0,0,
,0,1604079204,619246010, ,0.842698,-1.84322,-1.82479,0.374083,1.49376,-0.0110315, ,-0,-0,-0,0,0,0,
,0,1604079204,621264604, ,0.84271,-1.84323,-1.8248,0.374059,1.49378,-0.0110672, ,-0,-0,-0,0,0,0,
,0,1604079204,623317392, ,0.842698,-1.84323,-1.82483,0.374023,1.49376,-0.0110672, ,-0,-0,-0,0,0,0,
,0,1604079204,625280556, ,0.842722,-1.84326,-1.82479,0.374047,1.49378,-0.0110434, ,-0,-0,-0,0,0,0,
,0,1604079204,627272729, ,0.842686,-1.84323,-1.82478,0.374047,1.4938,-0.0110553, ,-0,-0,-0,0,0,0,
,0,1604079204,629238441, ,0.842698,-1.84323,-1.82478,0.374035,1.49378,-0.0110672, ,-0,-0,-0,0,0,0,
,0,1604079204,631234650, ,0.842686,-1.84322,-1.8248,0.374059,1.49378,-0.0110791, ,-0,-0,-0,0,0,0,
,0,1604079204,633258118, ,0.842698,-1.84325,-1.82479,0.374047,1.49376,-0.0110791, ,-0,-0,-0,0,0,0,
,0,1604079204,635248319, ,0.842698,-1.84322,-1.82478,0.374035,1.49378,-0.0110915, ,-0,-0,-0,0,0,0,
,0,1604079204,637225456, ,0.84271,-1.84322,-1.82478,0.374071,1.4938,-0.0110915, ,-0,-0,-0,0,0,0,
,0,1604079204,639224823, ,0.84271,-1.84327,-1.82479,0.374047,1.49374,-0.0110434, ,-0,-0,-0,0,0,0,
,0,1604079204,641224757, ,0.842698,-1.84325,-1.82479,0.374035,1.49378,-0.0110672, ,-0,-0,-0,0,0,0,
,0,1604079204,643228304, ,0.842698,-1.84323,-1.82482,0.374023,1.4938,-0.0110915, ,-0,-0,-0,0,0,0,
,0,1604079204,645231764, ,0.842686,-1.84321,-1.82478,0.374035,1.49376,-0.0110315, ,-0,-0,-0,0,0,0,
,0,1604079204,647227318, ,0.842698,-1.84322,-1.82478,0.374071,1.49377,-0.0110315, ,-0,-0,-0,0,0,0,
,0,1604079204,649226293, ,0.842698,-1.84326,-1.82482,0.374071,1.49377,-0.0110791, ,-0,-0,-0,0,0,0,
,0,1604079204,651220483, ,0.84271,-1.84323,-1.8248,0.374071,1.49379,-0.0110315, ,-0,-0,-0,0,0,0,
,0,1604079204,653234541, ,0.842722,-1.84328,-1.82478,0.374071,1.49377,-0.0110672, ,-0,-0,-0,0,0,0,
,0,1604079204,655228393, ,0.842734,-1.84323,-1.82479,0.374011,1.49378,-0.0110553, ,-0,-0,-0,0,0,0,
,0,1604079204,657242606, ,0.84271,-1.84325,-1.8248,0.374059,1.49377,-0.0110315, ,-0,-0,-0,0,0,0,
,0,1604079204,659227313, ,0.842686,-1.84325,-1.82482,0.374059,1.4938,-0.0110915, ,-0,-0,-0,0,0,0,
,0,1604079204,661267873, ,0.842698,-1.84325,-1.82477,0.374047,1.4938,-0.011103, ,-0,-0,-0,0,0,0,
,0,1604079204,663232244, ,0.842746,-1.84325,-1.8248,0.374059,1.49376,-0.0110672, ,-0,-0,-0,0,0,0,
,0,1604079204,665310598, ,0.842686,-1.84325,-1.8248,0.374059,1.4938,-0.0110791, ,-0,-0,-0,0,0,0,
,0,1604079204,667233883, ,0.842686,-1.84323,-1.8248,0.374035,1.49377,-0.0110315, ,-0,-0,-0,0,0,0,
,0,1604079204,669221085, ,0.842698,-1.84326,-1.82477,0.374071,1.4938,-0.0110553, ,-0,-0,-0,0,0,0,
,0,1604079204,671238749, ,0.842698,-1.8432,-1.8248,0.374059,1.49378,-0.0110791, ,-0,-0,-0,0,0,0,
,0,1604079204,673248913, ,0.84271,-1.84325,-1.8248,0.374023,1.4938,-0.0110553, ,-0,-0,-0,0,0,0,
,0,1604079204,675226391, ,0.84271,-1.84327,-1.82479,0.374071,1.49377,-0.0110553, ,-0,-0,-0,0,0,0,
,0,1604079204,677233529, ,0.842686,-1.84322,-1.82479,0.374047,1.49378,-0.0110915, ,-0,-0,-0,0,0,0,
,0,1604079204,679232952, ,0.84271,-1.84326,-1.8248,0.374119,1.49373,-0.0110791, ,-0,-0,-0,0,0,0,
,0,1604079204,681235531, ,0.84271,-1.84322,-1.82478,0.374083,1.49377,-0.0110553, ,-0,-0,-0,0,0,0,
,0,1604079204,683253248, ,0.84271,-1.84323,-1.82479,0.373999,1.49378,-0.0110553, ,-0,-0,-0,0,0,0,
,0,1604079204,685227543, ,0.84271,-1.84322,-1.82479,0.374071,1.49379,-0.0110791, ,-0,-0,-0,0,0,0,
,0,1604079204,687222790, ,0.842698,-1.8432,-1.82478,0.374059,1.49376,-0.0110553, ,-0,-0,-0,0,0,0,
,0,1604079204,689224630, ,0.842686,-1.84323,-1.82479,0.374047,1.49378,-0.0110791, ,-0,-0,-0,0,0,0,
,0,1604079204,691227621, ,0.84271,-1.84322,-1.8248,0.374035,1.4938,-0.0110553, ,-0,-0,-0,0,0,0,
,0,1604079204,693234852, ,0.84271,-1.84326,-1.82478,0.374047,1.49377,-0.0110672, ,-0,-0,-0,0,0,0,
,0,1604079204,695229734, ,0.842722,-1.84322,-1.82478,0.374095,1.4938,-0.0110915, ,-0,-0,-0,0,0,0,
,0,1604079204,697227083, ,0.842698,-1.84325,-1.82479,0.374047,1.49376,-0.0110791, ,-0,-0,-0,0,0,0,
,0,1604079204,699406957, ,0.842686,-1.84326,-1.82478,0.374059,1.49376,-0.0110915, ,-0,-0,-0,0,0,0,
,0,1604079204,701232054, ,0.842698,-1.84327,-1.82478,0.374011,1.4938,-0.0110672, ,-0,-0,-0,0,0,0,
,0,1604079204,703229342, ,0.84271,-1.84325,-1.82478,0.374047,1.49379,-0.0110672, ,-0,-0,-0,0,0,0,
,0,1604079204,705228860, ,0.842722,-1.84323,-1.82478,0.373999,1.49374,-0.0110672, ,-0,-0,-0,0,0,0,
,0,1604079204,707225717, ,0.84271,-1.84327,-1.82479,0.374035,1.49379,-0.0110791, ,-0,-0,-0,0,0,0,
,0,1604079204,709230928, ,0.842686,-1.84325,-1.82479,0.374059,1.4938,-0.0111154, ,-0,-0,-0,0,0,0,
,0,1604079204,711230268, ,0.842698,-1.84328,-1.8248,0.374071,1.49383,-0.0110434, ,-0,-0,-0,0,0,0,
,0,1604079204,713229933, ,0.842674,-1.84323,-1.82478,0.374035,1.49376,-0.0110553, ,-0,-0,-0,0,0,0,
,0,1604079204,715413164, ,0.842734,-1.84326,-1.82478,0.374035,1.49378,-0.0110915, ,-0,-0,-0,0,0,0,
,0,1604079204,717237822, ,0.84271,-1.84326,-1.82478,0.374023,1.4938,-0.0110791, ,-0,-0,-0,0,0,0,
,0,1604079204,719236091, ,0.842686,-1.84327,-1.82479,0.374023,1.49376,-0.0110791, ,-0,-0,-0,0,0,0,
,0,1604079204,721227575, ,0.84271,-1.84326,-1.82478,0.374059,1.49376,-0.0110672, ,-0,-0,-0,0,0,0,
,0,1604079204,723259482, ,0.842698,-1.84323,-1.82479,0.374059,1.49376,-0.0110434, ,-0,-0,-0,0,0,0,
,0,1604079204,725298784, ,0.842698,-1.84322,-1.82478,0.374035,1.49377,-0.0110791, ,-0,-0,-0,0,0,0,
,0,1604079204,727297526, ,0.842698,-1.84327,-1.82482,0.374011,1.49379,-0.0110672, ,-0,-0,-0,0,0,0,
,0,1604079204,729281909, ,0.84271,-1.84325,-1.8248,0.374035,1.4938,-0.0110791, ,-0,-0,-0,0,0,0,
,0,1604079204,731264636, ,0.842686,-1.8432,-1.82479,0.374059,1.49377,-0.0110434, ,-0,-0,-0,0,0,0,
,0,1604079204,733266142, ,0.84271,-1.84325,-1.82478,0.374059,1.49378,-0.011103, ,-0,-0,-0,0,0,0,
,0,1604079204,735354959, ,0.842698,-1.84322,-1.8248,0.374035,1.4938,-0.0110791, ,-0,-0,-0,0,0,0,
,0,1604079204,737254538, ,0.842698,-1.84321,-1.8248,0.374047,1.49374,-0.0110672, ,-0,-0,-0,0,0,0,
,0,1604079204,739251127, ,0.842686,-1.84322,-1.82478,0.374047,1.49374,-0.0110791, ,-0,-0,-0,0,0,0,
,0,1604079204,741259625, ,0.84271,-1.84323,-1.82478,0.374047,1.49376,-0.0110672, ,-0,-0,-0,0,0,0,
,0,1604079204,743259536, ,0.84271,-1.84327,-1.8248,0.374083,1.49377,-0.0110553, ,-0,-0,-0,0,0,0,
,0,1604079204,745275743, ,0.842698,-1.84325,-1.82478,0.373987,1.49376,-0.0110672, ,-0,-0,-0,0,0,0,
,0,1604079204,747264065, ,0.842722,-1.84329,-1.82482,0.374059,1.49377,-0.0110553, ,-0,-0,-0,0,0,0,
,0,1604079204,749249533, ,0.842686,-1.84322,-1.82478,0.374059,1.49377,-0.0110791, ,-0,-0,-0,0,0,0,
,0,1604079204,751246506, ,0.84271,-1.84321,-1.82478,0.374059,1.49379,-0.0110553, ,-0,-0,-0,0,0,0,
,0,1604079204,753253425, ,0.842686,-1.84325,-1.82482,0.374071,1.49377,-0.0110791, ,-0,-0,-0,0,0,0,
,0,1604079204,755263403, ,0.842722,-1.84323,-1.8248,0.374035,1.49379,-0.0110791, ,-0,-0,-0,0,0,0,
,0,1604079204,757244319, ,0.84271,-1.84322,-1.82478,0.374035,1.49379,-0.0111154, ,-0,-0,-0,0,0,0,
,0,1604079204,759255392, ,0.842734,-1.84325,-1.82482,0.374059,1.49374,-0.0110315, ,-0,-0,-0,0,0,0,
,0,1604079204,761250429, ,0.842698,-1.84321,-1.82479,0.374095,1.49376,-0.0110434, ,-0,-0,-0,0,0,0,
,0,1604079204,763251861, ,0.842698,-1.84323,-1.82478,0.374035,1.49378,-0.0110791, ,-0,-0,-0,0,0,0,
,0,1604079204,765246481, ,0.84271,-1.84321,-1.82478,0.374023,1.49379,-0.0110672, ,-0,-0,-0,0,0,0,
,0,1604079204,767247105, ,0.84271,-1.84323,-1.82479,0.374047,1.49377,-0.0110434, ,-0,-0,-0,0,0,0,
,0,1604079204,769248382, ,0.842722,-1.84323,-1.82479,0.374047,1.4938,-0.0110315, ,-0,-0,-0,0,0,0,
,0,1604079204,771255039, ,0.842698,-1.84322,-1.82479,0.374059,1.49377,-0.0110434, ,-0,-0,-0,0,0,0,
,0,1604079204,773252497, ,0.842686,-1.84321,-1.8248,0.374035,1.49377,-0.0110672, ,-0,-0,-0,0,0,0,
,0,1604079204,775260646, ,0.84271,-1.84323,-1.82478,0.374047,1.49378,-0.0110553, ,-0,-0,-0,0,0,0,
,0,1604079204,777257480, ,0.84271,-1.84321,-1.82479,0.374023,1.49376,-0.0111273, ,-0,-0,-0,0,0,0,
,0,1604079204,779255169, ,0.842686,-1.84325,-1.82479,0.374059,1.49378,-0.0110553, ,-0,-0,-0,0,0,0,
,0,1604079204,781263008, ,0.84271,-1.84322,-1.82483,0.374035,1.4938,-0.0110553, ,-0,-0,-0,0,0,0,
,0,1604079204,783243276, ,0.842674,-1.84323,-1.82482,0.374023,1.49379,-0.0110672, ,-0,-0,-0,0,0,0,
,0,1604079204,785247796, ,0.842734,-1.84325,-1.8248,0.374071,1.49378,-0.0110672, ,-0,-0,-0,0,0,0,
,0,1604079204,787245846, ,0.84271,-1.8432,-1.82478,0.374023,1.49379,-0.0110915, ,-0,-0,-0,0,0,0,
,0,1604079204,789267044, ,0.842686,-1.84326,-1.82479,0.374059,1.49379,-0.0110553, ,-0,-0,-0,0,0,0,
,0,1604079204,791273701, ,0.842698,-1.84326,-1.82477,0.374047,1.49378,-0.011103, ,-0,-0,-0,0,0,0,
,0,1604079204,793247402, ,0.842698,-1.84325,-1.82478,0.374035,1.49377,-0.0110434, ,-0,-0,-0,0,0,0,
,0,1604079204,795267140, ,0.842674,-1.84322,-1.82479,0.374047,1.49378,-0.0110434, ,-0,-0,-0,0,0,0,
,0,1604079204,797253952, ,0.842698,-1.84328,-1.8248,0.373999,1.49379,-0.0110672, ,-0,-0,-0,0,0,0,
,0,1604079204,799270057, ,0.842698,-1.8432,-1.82482,0.374071,1.49376,-0.0110076, ,-0,-0,-0,0,0,0,
,0,1604079204,801246906, ,0.842722,-1.84323,-1.82478,0.374023,1.49374,-0.0110791, ,-0,-0,-0,0,0,0,
,0,1604079204,803259879, ,0.842698,-1.84326,-1.82478,0.374035,1.49377,-0.0110672, ,-0,-0,-0,0,0,0,
,0,1604079204,805270710, ,0.842674,-1.84327,-1.82479,0.374011,1.49379,-0.0110434, ,-0,-0,-0,0,0,0,
,0,1604079204,807250497, ,0.84271,-1.84325,-1.82479,0.374059,1.49379,-0.0111154, ,-0,-0,-0,0,0,0,
,0,1604079204,809260474, ,0.842686,-1.84325,-1.8248,0.374071,1.49378,-0.0110915, ,-0,-0,-0,0,0,0,
,0,1604079204,811252302, ,0.842674,-1.84327,-1.8248,0.374059,1.49373,-0.0110791, ,-0,-0,-0,0,0,0,
,0,1604079204,813269580, ,0.842674,-1.84322,-1.82482,0.374035,1.49379,-0.0110553, ,-0,-0,-0,0,0,0,
,0,1604079204,815264575, ,0.842698,-1.84325,-1.8248,0.374023,1.4938,-0.0110672, ,-0,-0,-0,0,0,0,
,0,1604079204,817273299, ,0.84271,-1.84326,-1.82482,0.374095,1.49377,-0.0110915, ,-0,-0,-0,0,0,0,
,0,1604079204,819269951, ,0.842698,-1.84322,-1.82482,0.374083,1.49377,-0.0110672, ,-0,-0,-0,0,0,0,
,0,1604079204,821253842, ,0.842698,-1.84322,-1.82482,0.374071,1.49379,-0.0110915, ,-0,-0,-0,0,0,0,
,0,1604079204,823274033, ,0.842698,-1.84323,-1.8248,0.374035,1.49381,-0.0110672, ,-0,-0,-0,0,0,0,
,0,1604079204,825322040, ,0.842734,-1.84328,-1.82478,0.374059,1.4938,-0.0110672, ,-0,-0,-0,0,0,0,
,0,1604079204,827260336, ,0.84271,-1.84323,-1.82482,0.374059,1.49378,-0.0110434, ,-0,-0,-0,0,0,0,
,0,1604079204,829274189, ,0.842698,-1.84322,-1.82478,0.374023,1.49381,-0.0110434, ,-0,-0,-0,0,0,0,
,0,1604079204,831255814, ,0.842674,-1.84327,-1.82479,0.374083,1.49379,-0.0110553, ,-0,-0,-0,0,0,0,
,0,1604079204,833281934, ,0.842686,-1.84325,-1.82479,0.374047,1.49379,-0.0110791, ,-0,-0,-0,0,0,0,
,0,1604079204,835324944, ,0.842722,-1.8432,-1.82482,0.374107,1.49378,-0.0110672, ,-0,-0,-0,0,0,0,
,0,1604079204,837284936, ,0.842722,-1.84325,-1.82479,0.374047,1.49377,-0.0110791, ,-0,-0,-0,0,0,0,
,0,1604079204,839314512, ,0.842698,-1.84321,-1.8248,0.374059,1.49378,-0.0110315, ,-0,-0,-0,0,0,0,
,0,1604079204,841299462, ,0.842686,-1.84322,-1.82479,0.374071,1.49381,-0.0110791, ,-0,-0,-0,0,0,0,
,0,1604079204,843233793, ,0.842722,-1.84321,-1.8248,0.374035,1.49379,-0.0110791, ,-0,-0,-0,0,0,0,
,0,1604079204,845240521, ,0.842674,-1.84326,-1.82478,0.374035,1.4938,-0.0110672, ,-0,-0,-0,0,0,0,
,0,1604079204,847239808, ,0.842734,-1.84326,-1.8248,0.374047,1.49379,-0.0110553, ,-0,-0,-0,0,0,0,
,0,1604079204,849328101, ,0.842698,-1.84323,-1.8248,0.374059,1.49378,-0.0110672, ,-0,-0,-0,0,0,0,
,0,1604079204,851233264, ,0.842674,-1.84321,-1.82482,0.374047,1.49378,-0.0110434, ,-0,-0,-0,0,0,0,
,0,1604079204,853233521, ,0.84271,-1.84322,-1.8248,0.374011,1.49377,-0.0110434, ,-0,-0,-0,0,0,0,
,0,1604079204,855241218, ,0.842698,-1.8432,-1.8248,0.374059,1.49376,-0.0110315, ,-0,-0,-0,0,0,0,
,0,1604079204,857253337, ,0.842686,-1.84322,-1.82478,0.374035,1.49378,-0.0110672, ,-0,-0,-0,0,0,0,
,0,1604079204,859236844, ,0.842674,-1.84325,-1.82478,0.374059,1.49378,-0.011103, ,-0,-0,-0,0,0,0,
,0,1604079204,861236091, ,0.842698,-1.84326,-1.82479,0.374059,1.49376,-0.0110915, ,-0,-0,-0,0,0,0,
,0,1604079204,863231596, ,0.842698,-1.84323,-1.82476,0.374059,1.49379,-0.011103, ,-0,-0,-0,0,0,0,
,0,1604079204,865246613, ,0.842734,-1.84325,-1.82478,0.374047,1.49379,-0.0111154, ,-0,-0,-0,0,0,0,
,0,1604079204,867234975, ,0.842722,-1.84327,-1.82479,0.374059,1.4938,-0.0110915, ,-0,-0,-0,0,0,0,
,0,1604079204,869325560, ,0.842698,-1.84325,-1.82482,0.374047,1.4938,-0.0110315, ,-0,-0,-0,0,0,0,
,0,1604079204,871275198, ,0.842698,-1.84326,-1.82479,0.374035,1.49377,-0.0110915, ,-0,-0,-0,0,0,0,
,0,1604079204,873260829, ,0.842698,-1.84326,-1.8248,0.374011,1.49383,-0.011103, ,-0,-0,-0,0,0,0,
,0,1604079204,875260190, ,0.842722,-1.84323,-1.82478,0.374035,1.49378,-0.0110791, ,-0,-0,-0,0,0,0,
,0,1604079204,877239396, ,0.84271,-1.84331,-1.82479,0.374023,1.4938,-0.0110791, ,-0,-0,-0,0,0,0,
,0,1604079204,879243134, ,0.842674,-1.84323,-1.82479,0.374071,1.49377,-0.0110791, ,-0,-0,-0,0,0,0,
,0,1604079204,881249034, ,0.84271,-1.84325,-1.8248,0.374083,1.49378,-0.0110434, ,-0,-0,-0,0,0,0,
,0,1604079204,883249831, ,0.84271,-1.84321,-1.8248,0.374035,1.49377,-0.0110553, ,-0,-0,-0,0,0,0,
,0,1604079204,885232731, ,0.842722,-1.84328,-1.82478,0.374059,1.49378,-0.0110791, ,-0,-0,-0,0,0,0,
,0,1604079204,887238441, ,0.84271,-1.84327,-1.82477,0.374047,1.49376,-0.0110915, ,-0,-0,-0,0,0,0,
,0,1604079204,889249710, ,0.842698,-1.84323,-1.82478,0.374059,1.4938,-0.0110434, ,-0,-0,-0,0,0,0,
,0,1604079204,891239694, ,0.842698,-1.84323,-1.82478,0.374071,1.49376,-0.0110315, ,-0,-0,-0,0,0,0,
,0,1604079204,893244815, ,0.842662,-1.84325,-1.82478,0.374035,1.49379,-0.0110434, ,-0,-0,-0,0,0,0,
,0,1604079204,895240787, ,0.842734,-1.84328,-1.8248,0.374035,1.4938,-0.0111154, ,-0,-0,-0,0,0,0,
,0,1604079204,897259040, ,0.84271,-1.84321,-1.82477,0.374047,1.4938,-0.0110434, ,-0,-0,-0,0,0,0,
,0,1604079204,899238824, ,0.842686,-1.84325,-1.8248,0.374011,1.49377,-0.0110553, ,-0,-0,-0,0,0,0,
,0,1604079204,901252677, ,0.84271,-1.84325,-1.82478,0.374047,1.49378,-0.0110672, ,-0,-0,-0,0,0,0,
,0,1604079204,903250490, ,0.84271,-1.84323,-1.82478,0.374035,1.49378,-0.0110672, ,-0,-0,-0,0,0,0,
,0,1604079204,905243565, ,0.84271,-1.84329,-1.82478,0.374011,1.49377,-0.0110553, ,-0,-0,-0,0,0,0,
,0,1604079204,907242473, ,0.842686,-1.84325,-1.82478,0.374035,1.49383,-0.0110672, ,-0,-0,-0,0,0,0,
,0,1604079204,909235685, ,0.842698,-1.8432,-1.8248,0.374059,1.4938,-0.0110672, ,-0,-0,-0,0,0,0,
,0,1604079204,911258997, ,0.84271,-1.84325,-1.82477,0.374035,1.49377,-0.0110434, ,-0,-0,-0,0,0,0,
,0,1604079204,913244926, ,0.842698,-1.84325,-1.82482,0.374059,1.49378,-0.0110672, ,-0,-0,-0,0,0,0,
,0,1604079204,915244681, ,0.84271,-1.84322,-1.8248,0.374059,1.49381,-0.0110672, ,-0,-0,-0,0,0,0,
,0,1604079204,917236173, ,0.84271,-1.84323,-1.82478,0.374071,1.49379,-0.0110672, ,-0,-0,-0,0,0,0,
,0,1604079204,919241134, ,0.842722,-1.84322,-1.82482,0.374035,1.4938,-0.0110434, ,-0,-0,-0,0,0,0,
,0,1604079204,921247782, ,0.842722,-1.84326,-1.8248,0.374083,1.4938,-0.0110315, ,-0,-0,-0,0,0,0,
,0,1604079204,923262712, ,0.842722,-1.84326,-1.82482,0.374035,1.49377,-0.0110553, ,-0,-0,-0,0,0,0,
,0,1604079204,925362452, ,0.842686,-1.84327,-1.82479,0.374023,1.49379,-0.0110553, ,-0,-0,-0,0,0,0,
,0,1604079204,927258005, ,0.842686,-1.84327,-1.82478,0.374071,1.49379,-0.0110672, ,-0,-0,-0,0,0,0,
,0,1604079204,929259440, ,0.842662,-1.84325,-1.8248,0.374023,1.49378,-0.0110553, ,-0,-0,-0,0,0,0,
,0,1604079204,931242277, ,0.842698,-1.84321,-1.82478,0.374059,1.49374,-0.0110553, ,-0,-0,-0,0,0,0,
,0,1604079204,933253165, ,0.842686,-1.84326,-1.82479,0.374047,1.49376,-0.011103, ,-0,-0,-0,0,0,0,
,0,1604079204,935262305, ,0.842698,-1.84325,-1.82477,0.374047,1.49379,-0.0110672, ,-0,-0,-0,0,0,0,
,0,1604079204,937259723, ,0.842686,-1.84326,-1.82478,0.374059,1.49378,-0.0110434, ,-0,-0,-0,0,0,0,
,0,1604079204,939243607, ,0.842674,-1.84326,-1.82479,0.374059,1.49379,-0.0110791, ,-0,-0,-0,0,0,0,
,0,1604079204,941243690, ,0.842686,-1.84322,-1.82478,0.374023,1.49376,-0.0110791, ,-0,-0,-0,0,0,0,
,0,1604079204,943238809, ,0.842698,-1.84326,-1.82482,0.374035,1.49377,-0.0110672, ,-0,-0,-0,0,0,0,
,0,1604079204,945249839, ,0.842746,-1.84326,-1.82478,0.374047,1.49373,-0.0110434, ,-0,-0,-0,0,0,0,
,0,1604079204,947259189, ,0.84271,-1.84325,-1.82478,0.374059,1.49378,-0.0110315, ,-0,-0,-0,0,0,0,
,0,1604079204,949239285, ,0.84271,-1.84327,-1.82478,0.374047,1.49377,-0.0110553, ,-0,-0,-0,0,0,0,
,0,1604079204,951237137, ,0.842674,-1.84321,-1.82478,0.374047,1.49377,-0.0110672, ,-0,-0,-0,0,0,0,
,0,1604079204,953240951, ,0.842686,-1.84326,-1.8248,0.373999,1.49377,-0.0110672, ,-0,-0,-0,0,0,0,
,0,1604079204,955249812, ,0.842698,-1.84327,-1.82479,0.374083,1.49373,-0.0110553, ,-0,-0,-0,0,0,0,
,0,1604079204,957241016, ,0.842686,-1.84325,-1.82478,0.374035,1.4938,-0.0110672, ,-0,-0,-0,0,0,0,
,0,1604079204,959239444, ,0.842686,-1.84323,-1.82482,0.374095,1.49383,-0.0110191, ,-0,-0,-0,0,0,0,
,0,1604079204,961256089, ,0.842698,-1.84323,-1.82483,0.374011,1.49379,-0.0110672, ,-0,-0,-0,0,0,0,
,0,1604079204,963238726, ,0.842698,-1.8432,-1.82482,0.374047,1.49378,-0.0110672, ,-0,-0,-0,0,0,0,
,0,1604079204,965262601, ,0.842686,-1.84323,-1.82478,0.374047,1.49379,-0.0110191, ,-0,-0,-0,0,0,0,
,0,1604079204,967249797, ,0.842698,-1.84326,-1.8248,0.374035,1.49377,-0.0110672, ,-0,-0,-0,0,0,0,
,0,1604079204,969243422, ,0.84271,-1.84326,-1.82482,0.374011,1.4938,-0.0110672, ,-0,-0,-0,0,0,0,
,0,1604079204,971249959, ,0.84271,-1.84327,-1.8248,0.374047,1.49378,-0.0110076, ,-0,-0,-0,0,0,0,
,0,1604079204,973273827, ,0.842722,-1.84327,-1.82479,0.374035,1.49374,-0.0110191, ,-0,-0,-0,0,0,0,
,0,1604079204,975245400, ,0.842686,-1.84326,-1.8248,0.374011,1.49379,-0.0110553, ,-0,-0,-0,0,0,0,
,0,1604079204,977256342, ,0.84271,-1.84326,-1.82483,0.374035,1.49376,-0.0110191, ,-0,-0,-0,0,0,0,
,0,1604079204,979239262, ,0.842734,-1.84325,-1.82482,0.374071,1.49381,-0.0110791, ,-0,-0,-0,0,0,0,
,0,1604079204,981254397, ,0.842722,-1.84326,-1.82483,0.374047,1.49376,-0.0110553, ,-0,-0,-0,0,0,0,
,0,1604079204,983241025, ,0.842722,-1.8432,-1.82478,0.374035,1.49377,-0.0111154, ,-0,-0,-0,0,0,0,
,0,1604079204,985246505, ,0.842698,-1.84327,-1.82477,0.374023,1.49378,-0.0110791, ,-0,-0,-0,0,0,0,
,0,1604079204,987246939, ,0.84271,-1.84327,-1.82478,0.374071,1.4938,-0.0110076, ,-0,-0,-0,0,0,0,
,0,1604079204,989236563, ,0.842698,-1.84323,-1.82478,0.374047,1.49379,-0.0110434, ,-0,-0,-0,0,0,0,
,0,1604079204,991239378, ,0.842686,-1.84326,-1.82478,0.374023,1.49377,-0.0109952, ,-0,-0,-0,0,0,0,
,0,1604079204,993250378, ,0.842686,-1.84325,-1.8248,0.374023,1.49373,-0.0109952, ,-0,-0,-0,0,0,0,
,0,1604079204,995256666, ,0.84271,-1.8432,-1.82477,0.374083,1.4938,-0.0110915, ,-0,-0,-0,0,0,0,
,0,1604079204,997241168, ,0.84271,-1.84326,-1.82479,0.374035,1.49378,-0.0110553, ,-0,-0,-0,0,0,0,
,0,1604079204,999244564, ,0.842698,-1.84325,-1.82478,0.374023,1.49377,-0.0110672, ,-0,-0,-0,0,0,0,
,0,1604079205,1257431, ,0.842722,-1.84322,-1.82478,0.374035,1.49379,-0.0110915, ,-0,-0,-0,0,0,0,
,0,1604079205,3242901, ,0.84271,-1.84326,-1.82476,0.374047,1.49373,-0.011103, ,-0,-0,-0,0,0,0,
,0,1604079205,5239135, ,0.842674,-1.84323,-1.82482,0.374071,1.49378,-0.011103, ,-0,-0,-0,0,0,0,
,0,1604079205,7238575, ,0.842674,-1.84325,-1.82482,0.374059,1.4938,-0.0110315, ,-0,-0,-0,0,0,0,
,0,1604079205,9247271, ,0.842698,-1.84325,-1.82479,0.374083,1.49379,-0.0110315, ,-0,-0,-0,0,0,0,
,0,1604079205,11248508, ,0.842722,-1.84326,-1.82482,0.374035,1.49378,-0.0110791, ,-0,-0,-0,0,0,0,
,0,1604079205,13244759, ,0.84271,-1.84326,-1.82482,0.374035,1.49378,-0.0110315, ,-0,-0,-0,0,0,0,
,0,1604079205,15254855, ,0.842662,-1.84325,-1.82479,0.374059,1.4938,-0.0110191, ,-0,-0,-0,0,0,0,
,0,1604079205,17248861, ,0.842698,-1.84326,-1.82479,0.374071,1.49377,-0.0110553, ,-0,-0,-0,0,0,0,
,0,1604079205,19243418, ,0.842674,-1.84327,-1.82478,0.374083,1.49377,-0.011103, ,-0,-0,-0,0,0,0,
,0,1604079205,21247968, ,0.842686,-1.84321,-1.82479,0.374059,1.49377,-0.0111154, ,-0,-0,-0,0,0,0,
,0,1604079205,23250152, ,0.84271,-1.84326,-1.8248,0.374071,1.49374,-0.011103, ,-0,-0,-0,0,0,0,
,0,1604079205,25356618, ,0.842698,-1.84327,-1.82478,0.374023,1.49379,-0.0110791, ,-0,-0,-0,0,0,0,
,0,1604079205,27288198, ,0.84271,-1.84322,-1.82479,0.373999,1.49377,-0.0110434, ,-0,-0,-0,0,0,0,
,0,1604079205,29260042, ,0.842698,-1.84326,-1.8248,0.374023,1.49379,-0.0110553, ,-0,-0,-0,0,0,0,
,0,1604079205,31257577, ,0.842698,-1.84321,-1.82482,0.374071,1.4938,-0.0110915, ,-0,-0,-0,0,0,0,
,0,1604079205,33270442, ,0.842698,-1.84326,-1.82483,0.374059,1.49377,-0.0110553, ,-0,-0,-0,0,0,0,
,0,1604079205,35259368, ,0.84271,-1.84323,-1.82478,0.374035,1.49381,-0.0110672, ,-0,-0,-0,0,0,0,
,0,1604079205,37243954, ,0.842722,-1.84323,-1.82478,0.374035,1.49376,-0.0110915, ,-0,-0,-0,0,0,0,
,0,1604079205,39245894, ,0.842674,-1.84326,-1.82477,0.374047,1.49377,-0.0110915, ,-0,-0,-0,0,0,0,
,0,1604079205,41239315, ,0.842686,-1.84323,-1.8248,0.374023,1.49377,-0.0110553, ,-0,-0,-0,0,0,0,
,0,1604079205,43259263, ,0.84271,-1.84325,-1.82479,0.374047,1.49374,-0.0110191, ,-0,-0,-0,0,0,0,
,0,1604079205,45279230, ,0.842662,-1.84321,-1.82479,0.374059,1.49374,-0.011103, ,-0,-0,-0,0,0,0,
,0,1604079205,47276874, ,0.84271,-1.84325,-1.82478,0.374035,1.4938,-0.0110434, ,-0,-0,-0,0,0,0,
,0,1604079205,49252675, ,0.842698,-1.8432,-1.82479,0.374035,1.49377,-0.0110434, ,-0,-0,-0,0,0,0,
,0,1604079205,51243391, ,0.84271,-1.8432,-1.82482,0.374011,1.49381,-0.0110791, ,-0,-0,-0,0,0,0,
,0,1604079205,53241294, ,0.842698,-1.84325,-1.8248,0.374047,1.49377,-0.0110672, ,-0,-0,-0,0,0,0,
,0,1604079205,55242089, ,0.842722,-1.8432,-1.8248,0.374035,1.49377,-0.0110553, ,-0,-0,-0,0,0,0,
,0,1604079205,57247670, ,0.842722,-1.84327,-1.82479,0.374083,1.4938,-0.0110672, ,-0,-0,-0,0,0,0,
,0,1604079205,59242183, ,0.84271,-1.84323,-1.82478,0.374035,1.49383,-0.0110791, ,-0,-0,-0,0,0,0,
,0,1604079205,61248052, ,0.842674,-1.84326,-1.82478,0.374047,1.49378,-0.0110672, ,-0,-0,-0,0,0,0,
,0,1604079205,63241173, ,0.842662,-1.84325,-1.82478,0.373999,1.49378,-0.0110672, ,-0,-0,-0,0,0,0,
,0,1604079205,65258242, ,0.842686,-1.84323,-1.82478,0.374035,1.49378,-0.011103, ,-0,-0,-0,0,0,0,
,0,1604079205,67247671, ,0.84271,-1.84323,-1.82478,0.374023,1.49374,-0.0110553, ,-0,-0,-0,0,0,0,
,0,1604079205,69239592, ,0.842722,-1.84322,-1.82478,0.374047,1.49379,-0.0110672, ,-0,-0,-0,0,0,0,
,0,1604079205,71257825, ,0.84271,-1.8432,-1.82478,0.374023,1.49379,-0.0110434, ,-0,-0,-0,0,0,0,
,0,1604079205,73243854, ,0.84271,-1.84327,-1.82478,0.374047,1.49379,-0.0110791, ,-0,-0,-0,0,0,0,
,0,1604079205,75258379, ,0.842674,-1.84326,-1.82479,0.374035,1.49378,-0.0110315, ,-0,-0,-0,0,0,0,
,0,1604079205,77252011, ,0.842722,-1.84323,-1.82479,0.374035,1.49376,-0.0110434, ,-0,-0,-0,0,0,0,
,0,1604079205,79248522, ,0.842698,-1.84323,-1.82479,0.374083,1.49374,-0.0110434, ,-0,-0,-0,0,0,0,
,0,1604079205,81252938, ,0.842698,-1.84322,-1.82478,0.374047,1.49378,-0.0110915, ,-0,-0,-0,0,0,0,
,0,1604079205,83246421, ,0.84271,-1.84325,-1.82482,0.374047,1.49377,-0.0110434, ,-0,-0,-0,0,0,0,
,0,1604079205,85244298, ,0.842698,-1.84325,-1.8248,0.374047,1.49377,-0.0110434, ,-0,-0,-0,0,0,0,
,0,1604079205,87238393, ,0.84271,-1.84321,-1.82478,0.374035,1.49381,-0.0110791, ,-0,-0,-0,0,0,0,
,0,1604079205,89257267, ,0.842722,-1.84325,-1.82483,0.374083,1.49378,-0.0110315, ,-0,-0,-0,0,0,0,
,0,1604079205,91246892, ,0.84271,-1.84328,-1.82479,0.374047,1.49379,-0.011103, ,-0,-0,-0,0,0,0,
,0,1604079205,93254473, ,0.84271,-1.84322,-1.82478,0.374059,1.49379,-0.0111154, ,-0,-0,-0,0,0,0,
,0,1604079205,95256224, ,0.84271,-1.84322,-1.82477,0.374047,1.49377,-0.0110672, ,-0,-0,-0,0,0,0,
,0,1604079205,97256701, ,0.842698,-1.84323,-1.82478,0.374035,1.49373,-0.0110315, ,-0,-0,-0,0,0,0,
,0,1604079205,99248302, ,0.842698,-1.84323,-1.82478,0.374071,1.49377,-0.0110315, ,-0,-0,-0,0,0,0,
,0,1604079205,101246203, ,0.842698,-1.84322,-1.82478,0.374047,1.49378,-0.0110434, ,-0,-0,-0,0,0,0,
,0,1604079205,103247720, ,0.84271,-1.84326,-1.82479,0.374047,1.49378,-0.0110434, ,-0,-0,-0,0,0,0,
,0,1604079205,105248851, ,0.84271,-1.84327,-1.82477,0.374071,1.49381,-0.0110672, ,-0,-0,-0,0,0,0,
,0,1604079205,107255180, ,0.842686,-1.84323,-1.82478,0.374095,1.49378,-0.0110915, ,-0,-0,-0,0,0,0,
,0,1604079205,109242588, ,0.84271,-1.84323,-1.82478,0.374059,1.49377,-0.0110553, ,-0,-0,-0,0,0,0,
,0,1604079205,111261440, ,0.842734,-1.84325,-1.82478,0.374035,1.49376,-0.011103, ,-0,-0,-0,0,0,0,
,0,1604079205,113251025, ,0.842698,-1.84323,-1.82478,0.374035,1.49381,-0.0110553, ,-0,-0,-0,0,0,0,
,0,1604079205,115254193, ,0.842662,-1.84328,-1.82478,0.374047,1.49379,-0.0110672, ,-0,-0,-0,0,0,0,
,0,1604079205,117246205, ,0.842698,-1.84322,-1.8248,0.374023,1.49376,-0.0110791, ,-0,-0,-0,0,0,0,
,0,1604079205,119265092, ,0.842698,-1.84322,-1.82477,0.374035,1.49376,-0.0110076, ,-0,-0,-0,0,0,0,
,0,1604079205,121288610, ,0.842722,-1.84321,-1.82478,0.374035,1.49378,-0.0110791, ,-0,-0,-0,0,0,0,
,0,1604079205,123248343, ,0.842698,-1.84321,-1.82479,0.374035,1.49378,-0.0110791, ,-0,-0,-0,0,0,0,
,0,1604079205,125305835, ,0.842698,-1.84323,-1.82477,0.374011,1.49377,-0.0110434, ,-0,-0,-0,0,0,0,
,0,1604079205,127319574, ,0.84271,-1.84326,-1.82482,0.374035,1.49374,-0.011103, ,-0,-0,-0,0,0,0,
,0,1604079205,129297615, ,0.842722,-1.84322,-1.82478,0.374047,1.49378,-0.0110791, ,-0,-0,-0,0,0,0,
,0,1604079205,131270679, ,0.84271,-1.84323,-1.82479,0.374035,1.4938,-0.0110434, ,-0,-0,-0,0,0,0,
,0,1604079205,133249709, ,0.842698,-1.84326,-1.82479,0.374059,1.49376,-0.0110191, ,-0,-0,-0,0,0,0,
,0,1604079205,135269441, ,0.842686,-1.84322,-1.82482,0.374035,1.49379,-0.0110434, ,-0,-0,-0,0,0,0,
,0,1604079205,137250154, ,0.84271,-1.8432,-1.82478,0.374047,1.49376,-0.0110434, ,-0,-0,-0,0,0,0,
,0,1604079205,139249297, ,0.842674,-1.84325,-1.82482,0.374059,1.49378,-0.0110553, ,-0,-0,-0,0,0,0,
,0,1604079205,141248834, ,0.84271,-1.8432,-1.8248,0.374023,1.49378,-0.0110791, ,-0,-0,-0,0,0,0,
,0,1604079205,143245956, ,0.842698,-1.84322,-1.82479,0.374047,1.4938,-0.0110672, ,-0,-0,-0,0,0,0,
,0,1604079205,145256081, ,0.84271,-1.84325,-1.82478,0.374035,1.49376,-0.0110434, ,-0,-0,-0,0,0,0,
,0,1604079205,147263333, ,0.842722,-1.84323,-1.82478,0.374047,1.49377,-0.0110434, ,-0,-0,-0,0,0,0,
,0,1604079205,149249355, ,0.842722,-1.84323,-1.82478,0.374047,1.49376,-0.0110315, ,-0,-0,-0,0,0,0,
,0,1604079205,151244862, ,0.842674,-1.84325,-1.82478,0.374047,1.49377,-0.0110434, ,-0,-0,-0,0,0,0,
,0,1604079205,153249701, ,0.842686,-1.84321,-1.82479,0.374047,1.49377,-0.0110553, ,-0,-0,-0,0,0,0,
,0,1604079205,155250838, ,0.842722,-1.84323,-1.82482,0.374047,1.49374,-0.0110915, ,-0,-0,-0,0,0,0,
,0,1604079205,157245245, ,0.842686,-1.84325,-1.8248,0.373999,1.49377,-0.0110672, ,-0,-0,-0,0,0,0,
,0,1604079205,159247951, ,0.842698,-1.84325,-1.82479,0.374059,1.49379,-0.0110553, ,-0,-0,-0,0,0,0,
,0,1604079205,161251434, ,0.842722,-1.84323,-1.82479,0.374083,1.49378,-0.0110553, ,-0,-0,-0,0,0,0,
,0,1604079205,163251311, ,0.84271,-1.84321,-1.82479,0.374035,1.49377,-0.0110915, ,-0,-0,-0,0,0,0,
,0,1604079205,165255806, ,0.842698,-1.84329,-1.8248,0.374083,1.49379,-0.0110191, ,-0,-0,-0,0,0,0,
,0,1604079205,167244538, ,0.842698,-1.84326,-1.82478,0.374059,1.49378,-0.0110434, ,-0,-0,-0,0,0,0,
,0,1604079205,169257366, ,0.842686,-1.84322,-1.8248,0.374059,1.49378,-0.0110553, ,-0,-0,-0,0,0,0,
,0,1604079205,171252381, ,0.84271,-1.84327,-1.8248,0.374035,1.49376,-0.0110791, ,-0,-0,-0,0,0,0,
,0,1604079205,173253845, ,0.842698,-1.8432,-1.8248,0.374083,1.49379,-0.0110553, ,-0,-0,-0,0,0,0,
,0,1604079205,175254477, ,0.842722,-1.84322,-1.82478,0.374047,1.49377,-0.0110791, ,-0,-0,-0,0,0,0,
,0,1604079205,177255959, ,0.842698,-1.84323,-1.82479,0.374035,1.49378,-0.0110553, ,-0,-0,-0,0,0,0,
,0,1604079205,179247514, ,0.842686,-1.84327,-1.82478,0.374023,1.49377,-0.0110553, ,-0,-0,-0,0,0,0,
,0,1604079205,181242117, ,0.84271,-1.84325,-1.82478,0.374023,1.49379,-0.0110434, ,-0,-0,-0,0,0,0,
,0,1604079205,183252644, ,0.842698,-1.84325,-1.8248,0.374059,1.4938,-0.0110672, ,-0,-0,-0,0,0,0,
,0,1604079205,185253348, ,0.84271,-1.84325,-1.82478,0.374059,1.49376,-0.0110915, ,-0,-0,-0,0,0,0,
,0,1604079205,187248861, ,0.842686,-1.84325,-1.82478,0.374047,1.49376,-0.0111154, ,-0,-0,-0,0,0,0,
,0,1604079205,189246556, ,0.842698,-1.84325,-1.82478,0.374035,1.49381,-0.0110915, ,-0,-0,-0,0,0,0,
,0,1604079205,191250702, ,0.842686,-1.84319,-1.82479,0.374047,1.49377,-0.0110434, ,-0,-0,-0,0,0,0,
,0,1604079205,193253915, ,0.842686,-1.84325,-1.8248,0.374023,1.49378,-0.0110553, ,-0,-0,-0,0,0,0,
,0,1604079205,195246266, ,0.842734,-1.8432,-1.82482,0.374035,1.49379,-0.011103, ,-0,-0,-0,0,0,0,
,0,1604079205,197248558, ,0.842722,-1.84323,-1.8248,0.374035,1.49378,-0.0110315, ,-0,-0,-0,0,0,0,
,0,1604079205,199243607, ,0.842686,-1.84322,-1.8248,0.374035,1.49378,-0.0110315, ,-0,-0,-0,0,0,0,
,0,1604079205,201254306, ,0.842686,-1.84322,-1.82478,0.374047,1.49379,-0.0110791, ,-0,-0,-0,0,0,0,
,0,1604079205,203248372, ,0.84271,-1.8432,-1.82478,0.374023,1.49376,-0.0110791, ,-0,-0,-0,0,0,0,
,0,1604079205,205245040, ,0.842686,-1.84323,-1.8248,0.374035,1.49374,-0.0110434, ,-0,-0,-0,0,0,0,
,0,1604079205,207243193, ,0.842698,-1.84321,-1.82482,0.374059,1.4938,-0.0110315, ,-0,-0,-0,0,0,0,
,0,1604079205,209251825, ,0.842674,-1.84322,-1.82478,0.374035,1.49377,-0.0110672, ,-0,-0,-0,0,0,0,
,0,1604079205,211263306, ,0.842686,-1.84322,-1.82478,0.374035,1.49378,-0.0110553, ,-0,-0,-0,0,0,0,
,0,1604079205,213243051, ,0.84271,-1.84326,-1.82479,0.374023,1.49379,-0.0110672, ,-0,-0,-0,0,0,0,
,0,1604079205,215246973, ,0.842734,-1.84322,-1.82478,0.374035,1.49376,-0.0110076, ,-0,-0,-0,0,0,0,
,0,1604079205,217257757, ,0.842698,-1.84326,-1.82478,0.374047,1.49376,-0.0110672, ,-0,-0,-0,0,0,0,
,0,1604079205,219246544, ,0.842722,-1.84323,-1.82479,0.374047,1.4938,-0.0110434, ,-0,-0,-0,0,0,0,
,0,1604079205,221249471, ,0.842746,-1.8432,-1.8248,0.374059,1.49377,-0.0110791, ,-0,-0,-0,0,0,0,
,0,1604079205,223246528, ,0.842686,-1.84327,-1.82478,0.374047,1.49378,-0.0110915, ,-0,-0,-0,0,0,0,
,0,1604079205,225321137, ,0.842686,-1.84325,-1.8248,0.374035,1.49379,-0.0110915, ,-0,-0,-0,0,0,0,
,0,1604079205,227353088, ,0.842686,-1.84323,-1.82482,0.374035,1.49379,-0.0110315, ,-0,-0,-0,0,0,0,
,0,1604079205,229281670, ,0.842686,-1.84322,-1.82482,0.374011,1.49377,-0.0110672, ,-0,-0,-0,0,0,0,
,0,1604079205,231257621, ,0.842698,-1.84327,-1.82478,0.373999,1.49377,-0.011103, ,-0,-0,-0,0,0,0,
,0,1604079205,233280017, ,0.842698,-1.84325,-1.8248,0.374035,1.49376,-0.0110553, ,-0,-0,-0,0,0,0,
,0,1604079205,235276939, ,0.842722,-1.84327,-1.8248,0.374035,1.49377,-0.0110553, ,-0,-0,-0,0,0,0,
,0,1604079205,237263555, ,0.842722,-1.84326,-1.8248,0.374023,1.49379,-0.0110434, ,-0,-0,-0,0,0,0,
,0,1604079205,239255801, ,0.842698,-1.84327,-1.82478,0.374023,1.49379,-0.0110553, ,-0,-0,-0,0,0,0,
,0,1604079205,241246854, ,0.842734,-1.84327,-1.82478,0.374047,1.49381,-0.0110434, ,-0,-0,-0,0,0,0,
,0,1604079205,243246173, ,0.84271,-1.84326,-1.82478,0.374059,1.49376,-0.0110915, ,-0,-0,-0,0,0,0,
,0,1604079205,245253955, ,0.842674,-1.84329,-1.82478,0.374071,1.49379,-0.0110553, ,-0,-0,-0,0,0,0,
,0,1604079205,247259885, ,0.84271,-1.84323,-1.82478,0.374035,1.4938,-0.011103, ,-0,-0,-0,0,0,0,
,0,1604079205,249248827, ,0.842686,-1.84328,-1.8248,0.374047,1.49376,-0.0110672, ,-0,-0,-0,0,0,0,
,0,1604079205,251242326, ,0.84271,-1.84323,-1.82479,0.374083,1.49373,-0.011103, ,-0,-0,-0,0,0,0,
,0,1604079205,253251789, ,0.842722,-1.84325,-1.82476,0.374047,1.49376,-0.0110672, ,-0,-0,-0,0,0,0,
,0,1604079205,255245947, ,0.842698,-1.84325,-1.82484,0.374035,1.49379,-0.0110191, ,-0,-0,-0,0,0,0,
,0,1604079205,257250544, ,0.842674,-1.84325,-1.8248,0.374023,1.49377,-0.0110915, ,-0,-0,-0,0,0,0,
,0,1604079205,259244450, ,0.842698,-1.84322,-1.82476,0.374083,1.49378,-0.0110791, ,-0,-0,-0,0,0,0,
,0,1604079205,261267755, ,0.842698,-1.84325,-1.82478,0.374011,1.49377,-0.0110315, ,-0,-0,-0,0,0,0,
,0,1604079205,263257331, ,0.842674,-1.84326,-1.8248,0.374047,1.49378,-0.0110672, ,-0,-0,-0,0,0,0,
,0,1604079205,265259851, ,0.842746,-1.84323,-1.8248,0.374035,1.49383,-0.0110191, ,-0,-0,-0,0,0,0,
,0,1604079205,267261813, ,0.842686,-1.84325,-1.82478,0.374023,1.49377,-0.0110434, ,-0,-0,-0,0,0,0,
,0,1604079205,269248816, ,0.842698,-1.8432,-1.8248,0.374011,1.49376,-0.0110553, ,-0,-0,-0,0,0,0,
,0,1604079205,271246554, ,0.842698,-1.8432,-1.8248,0.374023,1.49377,-0.0110915, ,-0,-0,-0,0,0,0,
,0,1604079205,273257228, ,0.842686,-1.84323,-1.82478,0.374047,1.4938,-0.0110791, ,-0,-0,-0,0,0,0,
,0,1604079205,275252543, ,0.842758,-1.84323,-1.82478,0.374047,1.49378,-0.0110915, ,-0,-0,-0,0,0,0,
,0,1604079205,277255463, ,0.84271,-1.84325,-1.8248,0.374059,1.49377,-0.0110315, ,-0,-0,-0,0,0,0,
,0,1604079205,279246866, ,0.842698,-1.84326,-1.82482,0.374035,1.49379,-0.0110315, ,-0,-0,-0,0,0,0,
,0,1604079205,281248234, ,0.842746,-1.84327,-1.82478,0.374047,1.49376,-0.0110672, ,-0,-0,-0,0,0,0,
,0,1604079205,283243075, ,0.842698,-1.84325,-1.82477,0.374035,1.49381,-0.0110553, ,-0,-0,-0,0,0,0,
,0,1604079205,285246826, ,0.84271,-1.84327,-1.82478,0.374071,1.49376,-0.0110315, ,-0,-0,-0,0,0,0,
,0,1604079205,287249346, ,0.84271,-1.84321,-1.82478,0.374035,1.49377,-0.0111154, ,-0,-0,-0,0,0,0,
,0,1604079205,289240068, ,0.842686,-1.84323,-1.82482,0.374023,1.49376,-0.0110315, ,-0,-0,-0,0,0,0,
,0,1604079205,291248616, ,0.842674,-1.84326,-1.82479,0.374035,1.49379,-0.0110315, ,-0,-0,-0,0,0,0,
,0,1604079205,293249118, ,0.842722,-1.84323,-1.8248,0.374047,1.49381,-0.0110791, ,-0,-0,-0,0,0,0,
,0,1604079205,295255416, ,0.842674,-1.84321,-1.82482,0.374047,1.49377,-0.011103, ,-0,-0,-0,0,0,0,
,0,1604079205,297250585, ,0.84271,-1.84327,-1.82479,0.374023,1.49378,-0.0110315, ,-0,-0,-0,0,0,0,
,0,1604079205,299244242, ,0.84271,-1.84326,-1.8248,0.374035,1.49377,-0.0110791, ,-0,-0,-0,0,0,0,
,0,1604079205,301255864, ,0.84271,-1.84323,-1.82479,0.374059,1.49378,-0.011103, ,-0,-0,-0,0,0,0,
,0,1604079205,303246163, ,0.842722,-1.84325,-1.8248,0.374035,1.4938,-0.0110791, ,-0,-0,-0,0,0,0,
,0,1604079205,305245616, ,0.842698,-1.84326,-1.8248,0.374071,1.49377,-0.0110315, ,-0,-0,-0,0,0,0,
,0,1604079205,307245193, ,0.84271,-1.84325,-1.8248,0.374059,1.49378,-0.0110672, ,-0,-0,-0,0,0,0,
,0,1604079205,309246124, ,0.842698,-1.84323,-1.8248,0.374047,1.49378,-0.0110672, ,-0,-0,-0,0,0,0,
,0,1604079205,311254680, ,0.842698,-1.84321,-1.82478,0.374047,1.49377,-0.0110791, ,-0,-0,-0,0,0,0,
,0,1604079205,313248790, ,0.842698,-1.84325,-1.82479,0.374035,1.49377,-0.0110191, ,-0,-0,-0,0,0,0,
,0,1604079205,315249526, ,0.842698,-1.84326,-1.82479,0.374047,1.4938,-0.0110791, ,-0,-0,-0,0,0,0,
,0,1604079205,317244438, ,0.842698,-1.84323,-1.82482,0.374059,1.49378,-0.011103, ,-0,-0,-0,0,0,0,
,0,1604079205,319260512, ,0.842674,-1.84329,-1.82478,0.374035,1.49379,-0.0110791, ,-0,-0,-0,0,0,0,
,0,1604079205,321250677, ,0.842698,-1.8432,-1.82479,0.374071,1.49377,-0.0110915, ,-0,-0,-0,0,0,0,
,0,1604079205,323249992, ,0.842698,-1.84322,-1.82478,0.374071,1.49377,-0.0110791, ,-0,-0,-0,0,0,0,
,0,1604079205,325264295, ,0.842722,-1.84325,-1.8248,0.374035,1.49379,-0.0110791, ,-0,-0,-0,0,0,0,
,0,1604079205,327348719, ,0.842698,-1.84326,-1.8248,0.374035,1.49381,-0.0110434, ,-0,-0,-0,0,0,0,
,0,1604079205,329286234, ,0.84271,-1.84323,-1.82478,0.374035,1.49379,-0.0110672, ,-0,-0,-0,0,0,0,
,0,1604079205,331254846, ,0.842722,-1.84326,-1.82478,0.374059,1.49378,-0.0110915, ,-0,-0,-0,0,0,0,
,0,1604079205,333254834, ,0.84271,-1.84323,-1.8248,0.374047,1.4938,-0.0110553, ,-0,-0,-0,0,0,0,
,0,1604079205,335272420, ,0.84271,-1.84327,-1.82478,0.374035,1.49376,-0.0110791, ,-0,-0,-0,0,0,0,
,0,1604079205,337262102, ,0.842698,-1.84323,-1.8248,0.374047,1.49377,-0.0110791, ,-0,-0,-0,0,0,0,
,0,1604079205,339247758, ,0.84271,-1.84327,-1.82478,0.374059,1.49379,-0.0110672, ,-0,-0,-0,0,0,0,
,0,1604079205,341245085, ,0.842674,-1.84322,-1.82479,0.374071,1.4938,-0.0110315, ,-0,-0,-0,0,0,0,
,0,1604079205,343248769, ,0.84271,-1.84328,-1.8248,0.374059,1.49379,-0.0110672, ,-0,-0,-0,0,0,0,
,0,1604079205,345247392, ,0.842686,-1.84323,-1.82476,0.374047,1.49381,-0.0110315, ,-0,-0,-0,0,0,0,
,0,1604079205,347282657, ,0.842686,-1.84325,-1.8248,0.374047,1.49376,-0.0110791, ,-0,-0,-0,0,0,0,
,0,1604079205,349250347, ,0.842686,-1.84325,-1.82482,0.374071,1.49374,-0.011103, ,-0,-0,-0,0,0,0,
,0,1604079205,351253089, ,0.842722,-1.84323,-1.82479,0.374035,1.49376,-0.0110791, ,-0,-0,-0,0,0,0,
,0,1604079205,353249024, ,0.84271,-1.84322,-1.8248,0.374071,1.49377,-0.0110915, ,-0,-0,-0,0,0,0,
,0,1604079205,355260172, ,0.842698,-1.84326,-1.82477,0.374047,1.49377,-0.0110553, ,-0,-0,-0,0,0,0,
,0,1604079205,357253210, ,0.842722,-1.84322,-1.82479,0.374059,1.49379,-0.0110672, ,-0,-0,-0,0,0,0,
,0,1604079205,359244510, ,0.842686,-1.84325,-1.8248,0.374059,1.49381,-0.011103, ,-0,-0,-0,0,0,0,
,0,1604079205,361255054, ,0.842686,-1.84325,-1.8248,0.374059,1.49376,-0.0110791, ,-0,-0,-0,0,0,0,
,0,1604079205,363255090, ,0.84271,-1.84322,-1.82478,0.374059,1.49377,-0.0110434, ,-0,-0,-0,0,0,0,
,0,1604079205,365256724, ,0.842686,-1.84327,-1.82478,0.374023,1.49377,-0.0110915, ,-0,-0,-0,0,0,0,
,0,1604079205,367250076, ,0.84271,-1.84323,-1.82478,0.374023,1.49378,-0.0110791, ,-0,-0,-0,0,0,0,
,0,1604079205,369246152, ,0.842722,-1.84322,-1.82482,0.374059,1.49377,-0.0110553, ,-0,-0,-0,0,0,0,
,0,1604079205,371354692, ,0.842674,-1.84322,-1.82478,0.374059,1.49379,-0.0110791, ,-0,-0,-0,0,0,0,
,0,1604079205,373305157, ,0.842674,-1.84326,-1.82478,0.374071,1.49377,-0.0110672, ,-0,-0,-0,0,0,0,
,0,1604079205,375265342, ,0.842746,-1.84325,-1.8248,0.374023,1.49379,-0.0110553, ,-0,-0,-0,0,0,0,
,0,1604079205,377253496, ,0.842698,-1.84328,-1.8248,0.374047,1.49378,-0.0110553, ,-0,-0,-0,0,0,0,
,0,1604079205,379256464, ,0.84271,-1.84326,-1.8248,0.374047,1.49379,-0.0110315, ,-0,-0,-0,0,0,0,
,0,1604079205,381250061, ,0.84271,-1.84325,-1.82479,0.374035,1.4938,-0.0110791, ,-0,-0,-0,0,0,0,
,0,1604079205,383255886, ,0.842698,-1.84326,-1.8248,0.374023,1.49379,-0.0110672, ,-0,-0,-0,0,0,0,
,0,1604079205,385249211, ,0.842734,-1.84322,-1.82478,0.374035,1.4938,-0.0110672, ,-0,-0,-0,0,0,0,
,0,1604079205,387250321, ,0.842722,-1.84322,-1.82479,0.374035,1.49378,-0.0110315, ,-0,-0,-0,0,0,0,
,0,1604079205,389251633, ,0.842722,-1.84323,-1.82478,0.374035,1.4938,-0.0110434, ,-0,-0,-0,0,0,0,
,0,1604079205,391257830, ,0.842722,-1.84326,-1.82482,0.374047,1.49377,-0.0110672, ,-0,-0,-0,0,0,0,
,0,1604079205,393252862, ,0.842698,-1.84326,-1.82479,0.374047,1.49377,-0.011103, ,-0,-0,-0,0,0,0,
,0,1604079205,395260446, ,0.842734,-1.84327,-1.82478,0.374047,1.49376,-0.0110434, ,-0,-0,-0,0,0,0,
,0,1604079205,397257728, ,0.842722,-1.84323,-1.82478,0.374059,1.49377,-0.0110315, ,-0,-0,-0,0,0,0,
,0,1604079205,399250210, ,0.842674,-1.84322,-1.82478,0.374071,1.49379,-0.0110791, ,-0,-0,-0,0,0,0,
,0,1604079205,401254649, ,0.842722,-1.84322,-1.82478,0.374071,1.49377,-0.0110434, ,-0,-0,-0,0,0,0,
,0,1604079205,403256063, ,0.84271,-1.84323,-1.82477,0.374047,1.49376,-0.0110672, ,-0,-0,-0,0,0,0,
,0,1604079205,405248715, ,0.84271,-1.84321,-1.82478,0.374071,1.49376,-0.0111273, ,-0,-0,-0,0,0,0,
,0,1604079205,407247704, ,0.842698,-1.84327,-1.82478,0.374023,1.49378,-0.0110315, ,-0,-0,-0,0,0,0,
,0,1604079205,409265709, ,0.84271,-1.84323,-1.82478,0.374083,1.49378,-0.0110434, ,-0,-0,-0,0,0,0,
,0,1604079205,411256191, ,0.84271,-1.84325,-1.82477,0.374035,1.49379,-0.011103, ,-0,-0,-0,0,0,0,
,0,1604079205,413267263, ,0.842686,-1.84325,-1.8248,0.374071,1.49381,-0.0110553, ,-0,-0,-0,0,0,0,
,0,1604079205,415249301, ,0.842686,-1.84328,-1.82479,0.374059,1.49384,-0.011103, ,-0,-0,-0,0,0,0,
,0,1604079205,417252982, ,0.842722,-1.84323,-1.82478,0.374035,1.49377,-0.0110791, ,-0,-0,-0,0,0,0,
,0,1604079205,419257284, ,0.84271,-1.84325,-1.82478,0.374035,1.49374,-0.0111154, ,-0,-0,-0,0,0,0,
,0,1604079205,421247507, ,0.842662,-1.84327,-1.82479,0.374071,1.49376,-0.0110191, ,-0,-0,-0,0,0,0,
,0,1604079205,423249212, ,0.842722,-1.84326,-1.82479,0.374059,1.49378,-0.0110553, ,-0,-0,-0,0,0,0,
,0,1604079205,425284409, ,0.842734,-1.84325,-1.8248,0.374023,1.49377,-0.0110672, ,-0,-0,-0,0,0,0,
,0,1604079205,427351026, ,0.84271,-1.84326,-1.82478,0.374071,1.4938,-0.0110434, ,-0,-0,-0,0,0,0,
,0,1604079205,429336593, ,0.842686,-1.84325,-1.8248,0.374035,1.49377,-0.0110434, ,-0,-0,-0,0,0,0,
,0,1604079205,431314644, ,0.842698,-1.84322,-1.8248,0.374095,1.49378,-0.0110672, ,-0,-0,-0,0,0,0,
,0,1604079205,433278982, ,0.842686,-1.84327,-1.8248,0.374071,1.49376,-0.0110791, ,-0,-0,-0,0,0,0,
,0,1604079205,435271723, ,0.842722,-1.84323,-1.82478,0.374071,1.49376,-0.0110434, ,-0,-0,-0,0,0,0,
,0,1604079205,437270531, ,0.842698,-1.84327,-1.82478,0.374047,1.49379,-0.0110553, ,-0,-0,-0,0,0,0,
,0,1604079205,439247339, ,0.84265,-1.84326,-1.82478,0.374023,1.49376,-0.0110553, ,-0,-0,-0,0,0,0,
,0,1604079205,441252244, ,0.84271,-1.84325,-1.82478,0.374071,1.49377,-0.0110791, ,-0,-0,-0,0,0,0,
,0,1604079205,443256460, ,0.842686,-1.84321,-1.82478,0.374059,1.49379,-0.0110434, ,-0,-0,-0,0,0,0,
,0,1604079205,445260174, ,0.84271,-1.84325,-1.82478,0.374035,1.49377,-0.0110434, ,-0,-0,-0,0,0,0,
,0,1604079205,447274229, ,0.842686,-1.84325,-1.82478,0.374035,1.49377,-0.0110553, ,-0,-0,-0,0,0,0,
,0,1604079205,449253800, ,0.84271,-1.84323,-1.8248,0.374035,1.49377,-0.0110553, ,-0,-0,-0,0,0,0,
,0,1604079205,451254239, ,0.84271,-1.84325,-1.8248,0.374035,1.49378,-0.0110672, ,-0,-0,-0,0,0,0,
,0,1604079205,453251358, ,0.842698,-1.84323,-1.82478,0.374071,1.49379,-0.0110791, ,-0,-0,-0,0,0,0,
,0,1604079205,455248888, ,0.842734,-1.84319,-1.82477,0.374011,1.4938,-0.0110553, ,-0,-0,-0,0,0,0,
,0,1604079205,457254184, ,0.842674,-1.84323,-1.82479,0.374047,1.49376,-0.0110553, ,-0,-0,-0,0,0,0,
,0,1604079205,459248083, ,0.842686,-1.84325,-1.82482,0.374011,1.4938,-0.0110553, ,-0,-0,-0,0,0,0,
,0,1604079205,461261260, ,0.84271,-1.84326,-1.82482,0.374047,1.49377,-0.0110434, ,-0,-0,-0,0,0,0,
,0,1604079205,463254772, ,0.842686,-1.84326,-1.82478,0.374059,1.49378,-0.0110434, ,-0,-0,-0,0,0,0,
,0,1604079205,465260760, ,0.842698,-1.84323,-1.8248,0.374035,1.49376,-0.0110672, ,-0,-0,-0,0,0,0,
,0,1604079205,467257609, ,0.84271,-1.84325,-1.8248,0.374071,1.49381,-0.0111273, ,-0,-0,-0,0,0,0,
,0,1604079205,469253778, ,0.842734,-1.84328,-1.82482,0.374047,1.4938,-0.0110315, ,-0,-0,-0,0,0,0,
,0,1604079205,471253644, ,0.842686,-1.84321,-1.82478,0.374059,1.49379,-0.0110553, ,-0,-0,-0,0,0,0,
,0,1604079205,473260319, ,0.84271,-1.84322,-1.8248,0.374023,1.49378,-0.0110315, ,-0,-0,-0,0,0,0,
,0,1604079205,475256321, ,0.842686,-1.84321,-1.82478,0.374023,1.49377,-0.0110791, ,-0,-0,-0,0,0,0,
,0,1604079205,477255308, ,0.84271,-1.84325,-1.82478,0.374059,1.49377,-0.0110434, ,-0,-0,-0,0,0,0,
,0,1604079205,479254248, ,0.842722,-1.84323,-1.82479,0.374035,1.49376,-0.0110553, ,-0,-0,-0,0,0,0,
,0,1604079205,481252234, ,0.842674,-1.84325,-1.82478,0.374011,1.49377,-0.0110315, ,-0,-0,-0,0,0,0,
,0,1604079205,483255479, ,0.842698,-1.84323,-1.82477,0.374059,1.4938,-0.011103, ,-0,-0,-0,0,0,0,
,0,1604079205,485249810, ,0.842722,-1.84327,-1.82478,0.374011,1.49378,-0.0110434, ,-0,-0,-0,0,0,0,
,0,1604079205,487254922, ,0.842686,-1.84322,-1.82478,0.374023,1.49378,-0.0110791, ,-0,-0,-0,0,0,0,
,0,1604079205,489248226, ,0.842674,-1.84323,-1.8248,0.374035,1.49377,-0.0110915, ,-0,-0,-0,0,0,0,
,0,1604079205,491255747, ,0.84271,-1.84327,-1.82478,0.374047,1.49378,-0.0110434, ,-0,-0,-0,0,0,0,
,0,1604079205,493255376, ,0.84271,-1.84325,-1.82478,0.374047,1.49379,-0.0110791, ,-0,-0,-0,0,0,0,
,0,1604079205,495252659, ,0.84271,-1.84326,-1.82478,0.374059,1.49377,-0.0110553, ,-0,-0,-0,0,0,0,
,0,1604079205,497259459, ,0.842674,-1.84325,-1.82478,0.374035,1.49379,-0.0110915, ,-0,-0,-0,0,0,0,
,0,1604079205,499254181, ,0.84271,-1.84325,-1.82478,0.374023,1.49379,-0.0110315, ,-0,-0,-0,0,0,0,
,0,1604079205,501265364, ,0.842698,-1.84326,-1.82478,0.374035,1.49377,-0.0110672, ,-0,-0,-0,0,0,0,
,0,1604079205,503254258, ,0.842722,-1.84327,-1.82482,0.374059,1.49379,-0.0110553, ,-0,-0,-0,0,0,0,
,0,1604079205,505256550, ,0.84271,-1.84325,-1.8248,0.373987,1.49379,-0.0110553, ,-0,-0,-0,0,0,0,
,0,1604079205,507251015, ,0.842698,-1.84326,-1.82474,0.374083,1.49379,-0.0110672, ,-0,-0,-0,0,0,0,
,0,1604079205,509253356, ,0.842698,-1.8432,-1.82478,0.374059,1.49377,-0.0110791, ,-0,-0,-0,0,0,0,
,0,1604079205,511260752, ,0.84271,-1.84323,-1.82482,0.374035,1.49379,-0.0110315, ,-0,-0,-0,0,0,0,
,0,1604079205,513251031, ,0.842698,-1.84326,-1.82478,0.374059,1.49377,-0.0110553, ,-0,-0,-0,0,0,0,
,0,1604079205,515258404, ,0.842686,-1.84326,-1.82479,0.374023,1.49377,-0.0110553, ,-0,-0,-0,0,0,0,
,0,1604079205,517250260, ,0.842722,-1.84323,-1.82478,0.374047,1.4938,-0.0110553, ,-0,-0,-0,0,0,0,
,0,1604079205,519258927, ,0.842686,-1.84323,-1.8248,0.374047,1.49376,-0.0110553, ,-0,-0,-0,0,0,0,
,0,1604079205,521254595, ,0.842698,-1.84321,-1.8248,0.374047,1.49373,-0.0110915, ,-0,-0,-0,0,0,0,
,0,1604079205,523250075, ,0.842698,-1.84326,-1.8248,0.374059,1.49378,-0.0110791, ,-0,-0,-0,0,0,0,
,0,1604079205,525254764, ,0.842686,-1.84321,-1.82478,0.374059,1.4938,-0.0110434, ,-0,-0,-0,0,0,0,
,0,1604079205,527358623, ,0.842674,-1.84321,-1.82479,0.374071,1.49379,-0.0110434, ,-0,-0,-0,0,0,0,
,0,1604079205,529304807, ,0.842698,-1.84321,-1.8248,0.374023,1.4938,-0.0110553, ,-0,-0,-0,0,0,0,
,0,1604079205,531274894, ,0.84271,-1.8432,-1.82479,0.374023,1.49379,-0.0110791, ,-0,-0,-0,0,0,0,
,0,1604079205,533265908, ,0.842686,-1.84325,-1.8248,0.374083,1.49378,-0.0110315, ,-0,-0,-0,0,0,0,
,0,1604079205,535281769, ,0.842698,-1.84326,-1.8248,0.374035,1.49378,-0.0110791, ,-0,-0,-0,0,0,0,
,0,1604079205,537258280, ,0.842734,-1.84327,-1.82478,0.374035,1.4938,-0.0110553, ,-0,-0,-0,0,0,0,
,0,1604079205,539256652, ,0.842674,-1.84326,-1.82479,0.374059,1.49378,-0.0110553, ,-0,-0,-0,0,0,0,
,0,1604079205,541248223, ,0.84271,-1.84326,-1.82479,0.374059,1.4938,-0.0110553, ,-0,-0,-0,0,0,0,
,0,1604079205,543253352, ,0.842698,-1.84323,-1.82479,0.374035,1.49383,-0.0110672, ,-0,-0,-0,0,0,0,
,0,1604079205,545262071, ,0.842674,-1.84326,-1.82478,0.374035,1.49378,-0.0110672, ,-0,-0,-0,0,0,0,
,0,1604079205,547279888, ,0.842698,-1.84325,-1.82479,0.374047,1.49376,-0.0110915, ,-0,-0,-0,0,0,0,
,0,1604079205,549259033, ,0.842698,-1.84326,-1.82478,0.374035,1.49379,-0.0110672, ,-0,-0,-0,0,0,0,
,0,1604079205,551251505, ,0.842734,-1.84326,-1.82478,0.374071,1.4938,-0.0110315, ,-0,-0,-0,0,0,0,
,0,1604079205,553252500, ,0.84271,-1.84327,-1.82479,0.374047,1.49378,-0.0110791, ,-0,-0,-0,0,0,0,
,0,1604079205,555254122, ,0.842722,-1.8432,-1.82479,0.374035,1.49379,-0.0110434, ,-0,-0,-0,0,0,0,
,0,1604079205,557253071, ,0.842734,-1.84328,-1.82479,0.374023,1.4938,-0.0110791, ,-0,-0,-0,0,0,0,
,0,1604079205,559250559, ,0.842674,-1.84325,-1.82479,0.374047,1.49377,-0.0110791, ,-0,-0,-0,0,0,0,
,0,1604079205,561261799, ,0.842674,-1.84323,-1.82482,0.374059,1.49378,-0.0110315, ,-0,-0,-0,0,0,0,
,0,1604079205,563255729, ,0.842662,-1.84325,-1.82478,0.373975,1.49376,-0.0110553, ,-0,-0,-0,0,0,0,
,0,1604079205,565257211, ,0.842698,-1.84323,-1.82478,0.374059,1.49377,-0.0110434, ,-0,-0,-0,0,0,0,
,0,1604079205,567251854, ,0.84271,-1.84326,-1.82483,0.374023,1.49377,-0.0110672, ,-0,-0,-0,0,0,0,
,0,1604079205,569247239, ,0.842722,-1.84322,-1.8248,0.374059,1.49377,-0.0110553, ,-0,-0,-0,0,0,0,
,0,1604079205,571255836, ,0.842674,-1.84321,-1.82478,0.374047,1.49378,-0.0110553, ,-0,-0,-0,0,0,0,
,0,1604079205,573254028, ,0.842698,-1.84325,-1.82478,0.374035,1.49377,-0.0110791, ,-0,-0,-0,0,0,0,
,0,1604079205,575252408, ,0.84271,-1.84325,-1.8248,0.374047,1.49379,-0.0110315, ,-0,-0,-0,0,0,0,
,0,1604079205,577261520, ,0.842734,-1.84322,-1.82478,0.374071,1.49379,-0.0110672, ,-0,-0,-0,0,0,0,
,0,1604079205,579262708, ,0.842722,-1.84323,-1.82478,0.374035,1.49377,-0.0110553, ,-0,-0,-0,0,0,0,
,0,1604079205,581250342, ,0.842722,-1.84326,-1.82478,0.374035,1.49379,-0.0110915, ,-0,-0,-0,0,0,0,
,0,1604079205,583255294, ,0.842722,-1.84322,-1.8248,0.374023,1.49379,-0.0110191, ,-0,-0,-0,0,0,0,
,0,1604079205,585255506, ,0.842698,-1.84326,-1.82479,0.374059,1.49377,-0.0110315, ,-0,-0,-0,0,0,0,
,0,1604079205,587249382, ,0.84271,-1.84322,-1.82482,0.374083,1.49381,-0.0110672, ,-0,-0,-0,0,0,0,
,0,1604079205,589252857, ,0.842698,-1.84327,-1.82478,0.374035,1.49373,-0.0110315, ,-0,-0,-0,0,0,-7.15378e-07,
,0,1604079205,591252389, ,0.842686,-1.84322,-1.82479,0.374011,1.49376,-0.0110672, ,-0,-0,-0,0,0,-6.97966e-09,
,0,1604079205,593257979, ,0.842686,-1.84322,-1.82478,0.374059,1.49379,-0.0110791, ,-0,-0,-0,0,0,-6.80978e-11,
,0,1604079205,595251712, ,0.84271,-1.84323,-1.82478,0.374035,1.49376,-0.0110672, ,-0,-0,-0,0,0,-6.64404e-13,
,0,1604079205,597250711, ,0.842734,-1.84323,-1.82482,0.374023,1.49377,-0.0110915, ,-0,-0,-0,0,0,-6.48233e-15,
,0,1604079205,599260668, ,0.842674,-1.84327,-1.82478,0.374059,1.49377,-0.0110672, ,-0,-0,-0,0,0,-6.32455e-17,
,0,1604079205,601249751, ,0.84271,-1.84327,-1.82482,0.374071,1.49379,-0.0110553, ,-0,-0,-0,0,0,-6.17062e-19,
,0,1604079205,603255219, ,0.84271,-1.84326,-1.8248,0.374035,1.49377,-0.011103, ,-0,-0,-0,0,0,-6.02043e-21,
,0,1604079205,605253835, ,0.842674,-1.84326,-1.8248,0.374035,1.49377,-0.0110553, ,-0,-0,-0,0,0,-5.87389e-23,
,0,1604079205,607253264, ,0.842722,-1.84323,-1.82478,0.374047,1.49378,-0.0110915, ,-0,-0,-0,0,0,-5.73093e-25,
,0,1604079205,609258501, ,0.842674,-1.84323,-1.82482,0.374047,1.49377,-0.011103, ,-0,-0,-0,0,0,-5.59144e-27,
,0,1604079205,611257205, ,0.842698,-1.84323,-1.82479,0.374047,1.49378,-0.0110672, ,-0,-0,-0,0,0,-5.45535e-29,
,0,1604079205,613255654, ,0.842686,-1.84326,-1.82478,0.374047,1.49379,-0.0110553, ,-0,-0,-0,0,0,-5.32257e-31,
,0,1604079205,615251151, ,0.842698,-1.84322,-1.82478,0.374047,1.49381,-0.0110553, ,-0,-0,-0,0,0,-5.19302e-33,
,0,1604079205,617252409, ,0.842698,-1.84321,-1.8248,0.374035,1.49372,-0.0110791, ,-0,-0,-0,0,0,-5.06663e-35,
,0,1604079205,619331748, ,0.84271,-1.84327,-1.82478,0.374011,1.49378,-0.0110191, ,-0,-0,-0,0,0,-4.94331e-37,
,0,1604079205,621293827, ,0.842686,-1.84325,-1.82479,0.374035,1.4938,-0.0110672, ,-0,-0,-0,0,0,-4.82299e-39,
,0,1604079205,623274879, ,0.842686,-1.84325,-1.82477,0.374059,1.4938,-0.0110315, ,-0,-0,-0,0,0,-4.70556e-41,
,0,1604079205,625274207, ,0.84271,-1.84325,-1.82478,0.374035,1.49381,-0.0110791, ,-0,-0,-0,0,0,-4.59626e-43,
,0,1604079205,627335931, ,0.842674,-1.84326,-1.82479,0.374035,1.49379,-0.0110553, ,-0,-0,-0,0,0,-4.2039e-45,
,0,1604079205,629315263, ,0.84271,-1.8432,-1.82479,0.374011,1.49377,-0.0110791, ,-0,-0,-0,0,0,-0,
,0,1604079205,631316444, ,0.84271,-1.84322,-1.82478,0.374011,1.49377,-0.0111154, ,-0,-0,-0,0,0,0,
,0,1604079205,633289422, ,0.842698,-1.84325,-1.82478,0.374083,1.49377,-0.0110191, ,-0,-0,-0,0,0,0,
,0,1604079205,635281919, ,0.842734,-1.84319,-1.82479,0.374035,1.49379,-0.011103, ,-0,-0,-0,0,0,0,
,0,1604079205,637263163, ,0.842674,-1.8432,-1.82477,0.374059,1.49379,-0.0110553, ,-0,-0,-0,0,0,0,
,0,1604079205,639254959, ,0.842686,-1.84327,-1.82479,0.374035,1.49376,-0.0110672, ,-0,-0,-0,0,0,0,
,0,1604079205,641261515, ,0.842698,-1.84325,-1.8248,0.374011,1.49378,-0.0110434, ,-0,-0,-0,0,0,0,
,0,1604079205,643254181, ,0.842686,-1.84325,-1.82478,0.374011,1.49377,-0.0110672, ,-0,-0,-0,0,0,0,
,0,1604079205,645305646, ,0.842698,-1.84325,-1.82477,0.374047,1.49376,-0.0110915, ,-0,-0,-0,0,0,0,
,0,1604079205,647260348, ,0.842698,-1.84326,-1.82479,0.374059,1.49378,-0.0110915, ,-0,-0,-0,0,0,0,
,0,1604079205,649259889, ,0.842722,-1.84325,-1.82478,0.373999,1.49376,-0.0110672, ,-0,-0,-0,0,0,0,
,0,1604079205,651254131, ,0.842698,-1.84323,-1.82479,0.374047,1.49377,-0.0110791, ,-0,-0,-0,0,0,0,
,0,1604079205,653253383, ,0.842722,-1.84325,-1.8248,0.374047,1.4938,-0.0110434, ,-0,-0,-0,0,0,0,
,0,1604079205,655255652, ,0.84271,-1.84321,-1.8248,0.374047,1.49379,-0.0110434, ,-0,-0,-0,0,0,0,
,0,1604079205,657258124, ,0.842686,-1.84327,-1.82478,0.374059,1.49377,-0.011103, ,-0,-0,-0,0,0,0,
,0,1604079205,659252053, ,0.842686,-1.84328,-1.82482,0.374059,1.4938,-0.0110315, ,-0,-0,-0,0,0,0,
,0,1604079205,661260926, ,0.842698,-1.84327,-1.8248,0.374071,1.4938,-0.0110434, ,-0,-0,-0,0,0,0,
,0,1604079205,663265261, ,0.842698,-1.84323,-1.82478,0.374035,1.49378,-0.011103, ,-0,-0,-0,0,0,0,
,0,1604079205,665265931, ,0.84271,-1.84323,-1.82478,0.374047,1.49374,-0.0110791, ,-0,-0,-0,0,0,0,
,0,1604079205,667254633, ,0.842698,-1.84321,-1.82478,0.374059,1.4938,-0.0110434, ,-0,-0,-0,0,0,0,
,0,1604079205,669254953, ,0.842686,-1.84326,-1.82479,0.374059,1.49377,-0.0110553, ,-0,-0,-0,0,0,0,
,0,1604079205,671255699, ,0.842674,-1.84323,-1.82483,0.374047,1.49377,-0.0110915, ,-0,-0,-0,0,0,0,
,0,1604079205,673268498, ,0.842686,-1.84326,-1.82482,0.374011,1.4938,-0.0110434, ,-0,-0,-0,0,0,0,
,0,1604079205,675270471, ,0.84271,-1.84322,-1.82482,0.374083,1.49378,-0.0110672, ,-0,-0,-0,0,0,0,
,0,1604079205,677263917, ,0.842686,-1.84328,-1.82478,0.374035,1.4938,-0.0110915, ,-0,-0,-0,0,0,0,
,0,1604079205,679262943, ,0.842722,-1.84322,-1.82479,0.374035,1.49377,-0.0110553, ,-0,-0,-0,0,0,0,
,0,1604079205,681265477, ,0.842734,-1.84326,-1.82478,0.374035,1.49379,-0.0110672, ,-0,-0,-0,0,0,0,
,0,1604079205,683258395, ,0.842722,-1.84323,-1.8248,0.374047,1.49379,-0.0110791, ,-0,-0,-0,0,0,0,
,0,1604079205,685255599, ,0.842698,-1.8432,-1.82478,0.374083,1.49377,-0.0110434, ,-0,-0,-0,0,0,0,
,0,1604079205,687256271, ,0.842674,-1.84326,-1.82478,0.374047,1.49383,-0.0110791, ,-0,-0,-0,0,0,0,
,0,1604079205,689254715, ,0.84271,-1.84322,-1.8248,0.374071,1.49378,-0.0110915, ,-0,-0,-0,0,0,0,
,0,1604079205,691271346, ,0.842686,-1.84323,-1.82479,0.374095,1.49379,-0.0110553, ,-0,-0,-0,0,0,0,
,0,1604079205,693261523, ,0.842698,-1.84325,-1.82479,0.374035,1.49379,-0.0110672, ,-0,-0,-0,0,0,0,
,0,1604079205,695269697, ,0.842686,-1.84327,-1.82477,0.374059,1.49379,-0.0110672, ,-0,-0,-0,0,0,0,
,0,1604079205,697264096, ,0.842686,-1.84323,-1.82478,0.374035,1.49379,-0.0110434, ,-0,-0,-0,0,0,0,
,0,1604079205,699261658, ,0.84271,-1.84326,-1.8248,0.374047,1.49377,-0.0110191, ,-0,-0,-0,0,0,0,
,0,1604079205,701262070, ,0.842674,-1.8432,-1.82477,0.374035,1.49379,-0.0110434, ,-0,-0,-0,0,0,0,
,0,1604079205,703263946, ,0.842722,-1.84322,-1.82477,0.374059,1.49379,-0.0110553, ,-0,-0,-0,0,0,0,
,0,1604079205,705255955, ,0.84271,-1.84327,-1.82479,0.374035,1.4938,-0.0110791, ,-0,-0,-0,0,0,0,
,0,1604079205,707257340, ,0.84271,-1.84323,-1.82478,0.374035,1.49378,-0.0110791, ,-0,-0,-0,0,0,0,
,0,1604079205,709260538, ,0.84271,-1.84323,-1.82479,0.374047,1.49377,-0.0110315, ,-0,-0,-0,0,0,0,
,0,1604079205,711254563, ,0.842686,-1.84327,-1.8248,0.374035,1.49377,-0.0110553, ,-0,-0,-0,0,0,0,
,0,1604079205,713250579, ,0.84271,-1.84326,-1.82479,0.374059,1.49379,-0.0110672, ,-0,-0,-0,0,0,0,
,0,1604079205,715264555, ,0.842686,-1.84326,-1.82482,0.374011,1.49377,-0.0110434, ,-0,-0,-0,0,0,0,
,0,1604079205,717247600, ,0.842734,-1.84326,-1.82478,0.374047,1.49378,-0.0110553, ,-0,-0,-0,0,0,0,
,0,1604079205,719243232, ,0.842698,-1.84322,-1.82482,0.374083,1.49376,-0.0110434, ,-0,-0,-0,0,0,0,
,0,1604079205,721242736, ,0.84271,-1.84323,-1.82482,0.374059,1.49381,-0.0110791, ,-0,-0,-0,0,0,0,
,0,1604079205,723243868, ,0.84271,-1.84326,-1.82478,0.374059,1.49377,-0.0110315, ,-0,-0,-0,0,0,0,
,0,1604079205,725255875, ,0.84271,-1.84331,-1.82478,0.374035,1.4938,-0.0110315, ,-0,-0,-0,0,0,1.27063e-05,
,0,1604079205,727295118, ,0.842674,-1.84326,-1.82479,0.374059,1.49379,-0.0110553, ,-0,-0,-0,0,0,4.09419e-06,
,0,1604079205,729400972, ,0.84271,-1.8432,-1.82479,0.374011,1.49378,-0.0110553, ,-0,-0,-0,0,0,3.99454e-08,
,0,1604079205,731316945, ,0.84271,-1.84327,-1.82479,0.374011,1.4938,-0.0110076, ,-0,-0,-0,0,0,3.89732e-10,
,0,1604079205,733308814, ,0.842698,-1.84325,-1.82478,0.374047,1.49379,-0.0110915, ,-0,-0,-0,0,0,3.80246e-12,
,0,1604079205,735267060, ,0.842698,-1.84322,-1.8248,0.374095,1.49379,-0.011103, ,-0,-0,-0,0,0,3.70991e-14,
,0,1604079205,737255325, ,0.84271,-1.84325,-1.8248,0.374011,1.49376,-0.0110553, ,-0,-0,-0,0,0,3.61961e-16,
,0,1604079205,739244863, ,0.84271,-1.84323,-1.82478,0.374059,1.4938,-0.0110915, ,-0,-0,-0,0,0,3.53151e-18,
,0,1604079205,741244798, ,0.842674,-1.84323,-1.82478,0.374059,1.49374,-0.0110915, ,-0,-0,-0,0,0,3.44556e-20,
,0,1604079205,743257891, ,0.842698,-1.84327,-1.82478,0.374011,1.49376,-0.0110672, ,-0,-0,-0,0,0,3.3617e-22,
,0,1604079205,745297301, ,0.842698,-1.84326,-1.82478,0.374035,1.49379,-0.0110672, ,-0,-0,-0,0,0,3.27988e-24,
,0,1604079205,747255032, ,0.842662,-1.84326,-1.82478,0.374059,1.49377,-0.0110434, ,-0,-0,-0,0,0,3.20005e-26,
,0,1604079205,749247593, ,0.84271,-1.84328,-1.82477,0.374047,1.49379,-0.0110315, ,-0,-0,-0,0,0,3.12216e-28,
,0,1604079205,751240507, ,0.84271,-1.84325,-1.8248,0.374047,1.49378,-0.0110791, ,-0,-0,-0,0,0,3.04617e-30,
,0,1604079205,753238774, ,0.84271,-1.84327,-1.82482,0.374059,1.49377,-0.0110553, ,-0,-0,-0,0,0,2.97203e-32,
,0,1604079205,755246993, ,0.842698,-1.84327,-1.82482,0.374023,1.49377,-0.0110672, ,-0,-0,-0,0,0,2.89969e-34,
,0,1604079205,757245158, ,0.842674,-1.84325,-1.8248,0.374071,1.4938,-0.0110434, ,-0,-0,-0,0,0,2.82911e-36,
,0,1604079205,759246424, ,0.842686,-1.8432,-1.82478,0.374083,1.49377,-0.0110553, ,-0,-0,-0,0,0,2.76025e-38,
,0,1604079205,761245709, ,0.842722,-1.84325,-1.82478,0.374035,1.49374,-0.0110791, ,-0,-0,-0,0,0,2.69307e-40,
,0,1604079205,763243020, ,0.842686,-1.84326,-1.82479,0.374059,1.49378,-0.0110315, ,-0,-0,-0,0,0,2.62743e-42,
,0,1604079205,765246878, ,0.842662,-1.84325,-1.82478,0.374023,1.49379,-0.0110315, ,-0,-0,-0,0,0,2.52234e-44,
,0,1604079205,767247268, ,0.842698,-1.84325,-1.82478,0.374035,1.49377,-0.0110434, ,-0,-0,-0,0,0,0,
,0,1604079205,769243833, ,0.84271,-1.84322,-1.82478,0.374047,1.49378,-0.0110791, ,-0,-0,-0,0,0,0,
,0,1604079205,771253900, ,0.842674,-1.84325,-1.8248,0.374047,1.49379,-0.0110672, ,-0,-0,-0,0,0,0,
,0,1604079205,773258620, ,0.84271,-1.84326,-1.82478,0.374059,1.49378,-0.0110791, ,-0,-0,-0,0,0,0,
,0,1604079205,775245478, ,0.84271,-1.84325,-1.82482,0.374059,1.49377,-0.0110672, ,-0,-0,-0,0,0,0,
,0,1604079205,777249762, ,0.842686,-1.84326,-1.8248,0.374071,1.49377,-0.0110672, ,-0,-0,-0,0,0,0,
,0,1604079205,779257903, ,0.842686,-1.84323,-1.82477,0.374071,1.49379,-0.0110791, ,-0,-0,-0,0,0,0,
,0,1604079205,781245377, ,0.842686,-1.84323,-1.82478,0.374023,1.49372,-0.0110672, ,-0,-0,-0,0,0,0,
,0,1604079205,783247215, ,0.84271,-1.84323,-1.82482,0.374035,1.49379,-0.0110434, ,-0,-0,-0,0,0,0,
,0,1604079205,785246597, ,0.842698,-1.84326,-1.8248,0.374059,1.49377,-0.0110191, ,-0,-0,-0,0,0,0,
,0,1604079205,787242494, ,0.84271,-1.84323,-1.82478,0.374059,1.49379,-0.0110672, ,-0,-0,-0,0,0,0,
,0,1604079205,789256181, ,0.842698,-1.84325,-1.82478,0.374083,1.49376,-0.0110315, ,-0,-0,-0,0,0,0,
,0,1604079205,791245366, ,0.842722,-1.84326,-1.82477,0.374047,1.49376,-0.0110672, ,-0,-0,-0,0,0,0,
,0,1604079205,793254697, ,0.84271,-1.84325,-1.82479,0.374059,1.49374,-0.0110553, ,-0,-0,-0,0,0,0,
,0,1604079205,795253090, ,0.842698,-1.84323,-1.82479,0.374059,1.49378,-0.0110553, ,-0,-0,-0,0,0,0,
,0,1604079205,797247817, ,0.842674,-1.84325,-1.82477,0.374035,1.49379,-0.0110672, ,-0,-0,-0,0,0,0,
,0,1604079205,799246055, ,0.842686,-1.84323,-1.82478,0.374047,1.49377,-0.0110672, ,-0,-0,-0,0,0,0,
,0,1604079205,801249770, ,0.842698,-1.84323,-1.82479,0.374035,1.49374,-0.0110553, ,-0,-0,-0,0,0,0,
,0,1604079205,803248665, ,0.842686,-1.84325,-1.82479,0.374023,1.49378,-0.0110791, ,-0,-0,-0,0,0,0,
,0,1604079205,805249485, ,0.842686,-1.84325,-1.82477,0.374023,1.49379,-0.011103, ,-0,-0,-0,0,0,0,
,0,1604079205,807242818, ,0.842734,-1.84323,-1.82477,0.374047,1.49371,-0.0110553, ,-0,-0,-0,0,0,0,
,0,1604079205,809256464, ,0.842722,-1.84323,-1.82478,0.374035,1.49377,-0.0110672, ,-0,-0,-0,0,0,0,
,0,1604079205,811247868, ,0.84271,-1.84325,-1.8248,0.374035,1.49378,-0.0110791, ,-0,-0,-0,0,0,0,
,0,1604079205,813266854, ,0.842698,-1.84327,-1.82479,0.374023,1.49374,-0.011103, ,-0,-0,-0,0,0,0,
,0,1604079205,815246077, ,0.84271,-1.84326,-1.82478,0.374071,1.49376,-0.0110434, ,-0,-0,-0,0,0,0,
,0,1604079205,817246669, ,0.84271,-1.84327,-1.8248,0.374059,1.49377,-0.0110672, ,-0,-0,-0,0,0,0,
,0,1604079205,819246768, ,0.842686,-1.84327,-1.8248,0.374059,1.49383,-0.0110672, ,-0,-0,-0,0,0,0,
,0,1604079205,821244842, ,0.842674,-1.84322,-1.82482,0.374071,1.49376,-0.0110315, ,-0,-0,-0,0,0,0,
,0,1604079205,823241711, ,0.842722,-1.84325,-1.82479,0.374023,1.49377,-0.0110672, ,-0,-0,-0,0,0,0,
,0,1604079205,825255918, ,0.842698,-1.84325,-1.82478,0.374047,1.49376,-0.011103, ,-0,-0,-0,0,0,0,
,0,1604079205,827275054, ,0.842686,-1.84323,-1.82479,0.374035,1.49378,-0.0110672, ,-0,-0,-0,0,0,0,
,0,1604079205,829329379, ,0.842698,-1.84327,-1.82482,0.374047,1.49379,-0.0110553, ,-0,-0,-0,0,0,0,
,0,1604079205,831254167, ,0.842686,-1.84326,-1.82478,0.374035,1.49377,-0.0110672, ,-0,-0,-0,0,0,0,
,0,1604079205,833281302, ,0.842662,-1.84323,-1.82482,0.374071,1.49378,-0.0110915, ,-0,-0,-0,0,0,0,
,0,1604079205,835268851, ,0.842686,-1.84326,-1.8248,0.374035,1.49385,-0.0110672, ,-0,-0,-0,0,0,0,
,0,1604079205,837266347, ,0.842698,-1.84327,-1.8248,0.374023,1.49376,-0.0110672, ,-0,-0,-0,0,0,0,
,0,1604079205,839260324, ,0.842686,-1.84323,-1.8248,0.374047,1.49372,-0.0110672, ,-0,-0,-0,0,0,0,
,0,1604079205,841253270, ,0.842686,-1.84323,-1.82478,0.374095,1.49377,-0.0110791, ,-0,-0,-0,0,0,0,
,0,1604079205,843250715, ,0.84271,-1.84322,-1.8248,0.374083,1.49377,-0.0110791, ,-0,-0,-0,0,0,0,
,0,1604079205,845266027, ,0.842686,-1.84325,-1.82477,0.374071,1.49376,-0.0111154, ,-0,-0,-0,0,0,0,
,0,1604079205,847259901, ,0.842722,-1.84322,-1.8248,0.374095,1.49376,-0.0110672, ,-0,-0,-0,0,0,0,
,0,1604079205,849259095, ,0.842686,-1.84321,-1.82478,0.374023,1.49376,-0.0110672, ,-0,-0,-0,0,0,0,
,0,1604079205,851257497, ,0.842686,-1.84321,-1.82479,0.374083,1.49377,-0.0110553, ,-0,-0,-0,0,0,0,
,0,1604079205,853262394, ,0.84271,-1.84325,-1.8248,0.374059,1.4938,-0.0110672, ,-0,-0,-0,0,0,0,
,0,1604079205,855260658, ,0.842722,-1.84322,-1.82478,0.374023,1.49378,-0.0110553, ,-0,-0,-0,0,0,0,
,0,1604079205,857284101, ,0.842722,-1.84323,-1.8248,0.374011,1.49377,-0.0110553, ,-0,-0,-0,0,0,0,
,0,1604079205,859258411, ,0.842734,-1.84323,-1.82478,0.374011,1.49376,-0.0110434, ,-0,-0,-0,0,0,0,
,0,1604079205,861263861, ,0.842734,-1.84321,-1.82479,0.374035,1.49376,-0.0110434, ,-0,-0,-0,0,0,0,
,0,1604079205,863265121, ,0.842674,-1.84325,-1.8248,0.374035,1.49378,-0.0110791, ,-0,-0,-0,0,0,0,
,0,1604079205,865260315, ,0.842698,-1.84323,-1.82478,0.374035,1.49377,-0.0110553, ,-0,-0,-0,0,0,0,
,0,1604079205,867255492, ,0.842698,-1.84322,-1.82478,0.374047,1.49377,-0.0110791, ,-0,-0,-0,0,0,0,
,0,1604079205,869256474, ,0.84271,-1.8432,-1.82479,0.374059,1.49378,-0.0110791, ,-0,-0,-0,0,0,0,
,0,1604079205,871336722, ,0.842698,-1.84326,-1.82478,0.374035,1.49376,-0.0110553, ,-0,-0,-0,0,0,0,
,0,1604079205,873343895, ,0.842734,-1.8432,-1.82479,0.374047,1.49376,-0.0110672, ,-0,-0,-0,0,0,0,
,0,1604079205,875342716, ,0.842686,-1.84329,-1.82479,0.374035,1.49378,-0.0110553, ,-0,-0,-0,0,0,0,
,0,1604079205,877305152, ,0.842686,-1.84322,-1.82479,0.374059,1.49377,-0.0110191, ,-0,-0,-0,0,0,0,
,0,1604079205,879259954, ,0.84271,-1.84323,-1.82477,0.374035,1.49373,-0.0110791, ,-0,-0,-0,0,0,0,
,0,1604079205,881271032, ,0.842686,-1.84325,-1.82479,0.374083,1.49379,-0.0110915, ,-0,-0,-0,0,0,0,
,0,1604079205,883262155, ,0.84271,-1.84325,-1.8248,0.374023,1.49377,-0.0110434, ,-0,-0,-0,0,0,0,
,0,1604079205,885260328, ,0.842698,-1.84323,-1.8248,0.374035,1.49376,-0.0110672, ,-0,-0,-0,0,0,0,
,0,1604079205,887263052, ,0.842722,-1.84325,-1.8248,0.374071,1.49378,-0.0110915, ,-0,-0,-0,0,0,0,
,0,1604079205,889271308, ,0.842674,-1.84326,-1.82478,0.373999,1.49376,-0.0110315, ,-0,-0,-0,0,0,0,
,0,1604079205,891259867, ,0.84271,-1.84326,-1.82478,0.374035,1.49378,-0.0110315, ,-0,-0,-0,0,0,0,
,0,1604079205,893266619, ,0.842662,-1.84327,-1.82479,0.374059,1.49377,-0.0110553, ,-0,-0,-0,0,0,0,
,0,1604079205,895261128, ,0.842698,-1.84323,-1.8248,0.374011,1.49377,-0.0110791, ,-0,-0,-0,0,0,0,
,0,1604079205,897263759, ,0.842698,-1.84322,-1.82482,0.374071,1.49378,-0.0110434, ,-0,-0,-0,0,0,0,
,0,1604079205,899257114, ,0.842686,-1.84323,-1.8248,0.374071,1.49378,-0.0110672, ,-0,-0,-0,0,0,0,
,0,1604079205,901266930, ,0.842686,-1.84327,-1.82478,0.373999,1.49378,-0.0110434, ,-0,-0,-0,0,0,0,
