davideferrari95/admittance_controller/debug/input_trajectory_debug.csv
frame_id,seq,sec,nsec,     ,pos_joint1,pos_joint2,pos_joint2,pos_joint4,pos_joint5,pos_joint6,     ,vel_joint1,vel_joint2,vel_joint3,vel_joint4,vel_joint5,vel_joint6

,0,1606843041,635241006, ,0.747586,-1.88025,-1.66647,0.365268,1.74152,-0.592464, ,0,0,-0,0,0,0,
,0,1606843041,637228853, ,0.747599,-1.88024,-1.66653,0.365245,1.74152,-0.592548, ,0,0,-0,0,0,0,
,0,1606843041,639221171, ,0.747599,-1.88021,-1.66649,0.36522,1.74152,-0.592488, ,0,0,-0,0,0,0,
,0,1606843041,641224391, ,0.747586,-1.88021,-1.66648,0.365268,1.7415,-0.592535, ,0,0,-0,0,0,0,
,0,1606843041,643298074, ,0.747586,-1.88022,-1.66649,0.36528,1.74156,-0.5925, ,0,0,-0,0,0,0,
,0,1606843041,645262342, ,0.747562,-1.88024,-1.66647,0.365245,1.74153,-0.592464, ,0,0,-0,0,0,0,
,0,1606843041,647248565, ,0.747574,-1.8802,-1.66647,0.365268,1.74153,-0.592475, ,0,0,-0,0,0,0,
,0,1606843041,649233546, ,0.747599,-1.88024,-1.66652,0.365256,1.74151,-0.5925, ,0,0,-0,0,0,0,
,0,1606843041,651247934, ,0.747574,-1.88026,-1.66652,0.36528,1.74153,-0.592523, ,0,0,-0,0,0,0,
,0,1606843041,653270015, ,0.747586,-1.88022,-1.66648,0.365268,1.74153,-0.592488, ,0,0,-0,0,0,0,
,0,1606843041,655233791, ,0.747586,-1.88025,-1.66648,0.365256,1.74152,-0.592511, ,0,0,-0,0,0,0,
,0,1606843041,657210607, ,0.747586,-1.88024,-1.6665,0.365328,1.74153,-0.592488, ,0,0,-0,0,0,0,
,0,1606843041,659217341, ,0.747574,-1.88021,-1.66653,0.365304,1.74151,-0.592475, ,0,0,-0,0,0,0,
,0,1606843041,661216313, ,0.747599,-1.88024,-1.6665,0.365245,1.74154,-0.592475, ,0,0,-0,0,0,0,
,0,1606843041,663214148, ,0.747574,-1.8802,-1.66653,0.365304,1.74152,-0.592523, ,0,0,-0,0,0,0,
,0,1606843041,665215436, ,0.747611,-1.88024,-1.66649,0.365292,1.74151,-0.592451, ,0,0,-0,0,0,0,
,0,1606843041,667357895, ,0.747586,-1.88024,-1.6665,0.365245,1.74152,-0.592488, ,0,0,-0,0,0,0,
,0,1606843041,669281514, ,0.747611,-1.88026,-1.6665,0.36528,1.74154,-0.592511, ,0,0,-0,0,0,0,
,0,1606843041,671235356, ,0.747574,-1.88022,-1.66649,0.365292,1.74151,-0.592488, ,0,0,-0,0,0,0,
,0,1606843041,673213533, ,0.747574,-1.88024,-1.66649,0.365245,1.74152,-0.592475, ,0,0,-0,0,0,0,
,0,1606843041,675213069, ,0.747611,-1.88026,-1.6665,0.365292,1.74153,-0.592464, ,0,0,-0,0,0,0,
,0,1606843041,677200244, ,0.747611,-1.88025,-1.6665,0.36522,1.7415,-0.592464, ,0,0,-0,0,0,0,
,0,1606843041,679216367, ,0.747611,-1.88021,-1.66649,0.36522,1.74154,-0.5925, ,0,0,-0,0,0,0,
,0,1606843041,681223566, ,0.747622,-1.88024,-1.66649,0.365245,1.74153,-0.592511, ,0,0,-0,0,0,0,
,0,1606843041,683234184, ,0.747586,-1.8802,-1.6665,0.36528,1.74152,-0.5925, ,0,0,-0,0,0,0,
,0,1606843041,685220042, ,0.74755,-1.8802,-1.6665,0.365268,1.74154,-0.592523, ,0,0,-0,0,0,0,
,0,1606843041,687214750, ,0.747574,-1.88024,-1.66647,0.365233,1.74152,-0.592488, ,0,0,-0,0,0,0,
,0,1606843041,689219804, ,0.747586,-1.88025,-1.66648,0.365245,1.74152,-0.5925, ,0,0,-0,0,0,0,
,0,1606843041,691208726, ,0.747574,-1.88024,-1.66648,0.36528,1.74153,-0.592511, ,0,0,-0,0,0,0,
,0,1606843041,693202438, ,0.747586,-1.88021,-1.6665,0.365317,1.74154,-0.592511, ,0,0,-0,0,0,0,
,0,1606843041,695206618, ,0.747574,-1.88021,-1.66652,0.365233,1.74153,-0.592511, ,0,0,-0,0,0,0,
,0,1606843041,697207868, ,0.747611,-1.88018,-1.6665,0.365292,1.74154,-0.592511, ,0,0,-0,0,0,0,
,0,1606843041,699328292, ,0.747599,-1.8802,-1.66649,0.365268,1.74152,-0.592488, ,0,0,-0,0,0,0,
,0,1606843041,701232341, ,0.747599,-1.88019,-1.66648,0.365245,1.74153,-0.5925, ,0,0,-0,0,0,0,
,0,1606843041,703204848, ,0.747599,-1.88022,-1.66648,0.365245,1.74151,-0.5925, ,0,0,-0,0,0,0,
,0,1606843041,705199325, ,0.747599,-1.88021,-1.66649,0.365268,1.74152,-0.5925, ,0,0,-0,0,0,0,
,0,1606843041,707206674, ,0.747586,-1.88021,-1.66649,0.365292,1.74152,-0.592523, ,0,0,-0,0,0,0,
,0,1606843041,709202789, ,0.747586,-1.88026,-1.66648,0.365304,1.74151,-0.5925, ,0,0,-0,0,0,0,
,0,1606843041,711219166, ,0.747586,-1.88027,-1.66652,0.36528,1.74151,-0.592511, ,0,0,-0,0,0,0,
,0,1606843041,713255700, ,0.747586,-1.88027,-1.6665,0.36528,1.74151,-0.592511, ,0,0,-0,0,0,0,
,0,1606843041,715227499, ,0.747586,-1.88025,-1.66654,0.365268,1.74154,-0.592475, ,0,0,-0,0,0,0,
,0,1606843041,717230083, ,0.747586,-1.8802,-1.6665,0.365268,1.74151,-0.592511, ,0,0,-0,0,0,0,
,0,1606843041,719214559, ,0.747574,-1.88024,-1.66652,0.365268,1.74152,-0.5925, ,0,0,-0,0,0,0,
,0,1606843041,721204015, ,0.747599,-1.88021,-1.66652,0.36528,1.7415,-0.592511, ,0,0,-0,0,0,0,
,0,1606843041,723245563, ,0.747599,-1.88018,-1.66647,0.365268,1.74152,-0.592523, ,0,0,-0,0,0,0,
,0,1606843041,725205331, ,0.747562,-1.88025,-1.66647,0.365256,1.74152,-0.5925, ,0,0,-0,0,0,0,
,0,1606843041,727205029, ,0.747622,-1.88027,-1.66647,0.365292,1.74152,-0.592511, ,0,0,-0,0,0,0,
,0,1606843041,729203828, ,0.747586,-1.88019,-1.66652,0.36528,1.74153,-0.592511, ,0,0,-0,0,0,0,
,0,1606843041,731215281, ,0.747586,-1.88021,-1.66648,0.36528,1.7415,-0.592535, ,0,0,-0,0,0,0,
,0,1606843041,733206473, ,0.747599,-1.88025,-1.66653,0.365292,1.74153,-0.5925, ,0,0,-0,0,0,0,
,0,1606843041,735209824, ,0.747586,-1.88022,-1.66648,0.365268,1.74151,-0.5925, ,0,0,-0,0,0,0,
,0,1606843041,737197968, ,0.747599,-1.88025,-1.66649,0.36528,1.74148,-0.592511, ,0,0,-0,0,0,0,
,0,1606843041,739238959, ,0.747586,-1.88028,-1.66649,0.365292,1.74152,-0.592475, ,0,0,-0,0,0,0,
,0,1606843041,741247664, ,0.747562,-1.8802,-1.6665,0.365268,1.74157,-0.592488, ,0,0,-0,0,0,0,
,0,1606843041,743322255, ,0.747611,-1.88025,-1.66648,0.365292,1.74153,-0.5925, ,0,0,-0,0,0,0,
,0,1606843041,745241037, ,0.747611,-1.88028,-1.66652,0.365268,1.74156,-0.592511, ,0,0,-0,0,0,0,
,0,1606843041,747248515, ,0.747586,-1.88018,-1.66648,0.36528,1.74152,-0.592535, ,0,0,-0,0,0,0,
,0,1606843041,749245231, ,0.747622,-1.8802,-1.66649,0.36528,1.74152,-0.592511, ,0,0,-0,0,0,0,
,0,1606843041,751229398, ,0.747586,-1.88026,-1.66649,0.36528,1.74153,-0.592511, ,0,0,-0,0,0,0,
,0,1606843041,753211730, ,0.747599,-1.88025,-1.66652,0.36528,1.74153,-0.592523, ,0,0,-0,0,0,0,
,0,1606843041,755216944, ,0.74755,-1.88024,-1.66652,0.365292,1.74152,-0.5925, ,0,0,-0,0,0,0,
,0,1606843041,757209668, ,0.747562,-1.88021,-1.6665,0.365292,1.74153,-0.592464, ,0,0,-0,0,0,0,
,0,1606843041,759212369, ,0.747611,-1.88024,-1.66649,0.36528,1.74152,-0.592511, ,0,0,-0,0,0,0,
,0,1606843041,761209762, ,0.747574,-1.88024,-1.66648,0.365256,1.74152,-0.592535, ,0,0,-0,0,0,0,
,0,1606843041,763217784, ,0.747599,-1.88019,-1.66646,0.365245,1.74154,-0.592511, ,0,0,-0,0,0,0,
,0,1606843041,765205127, ,0.747586,-1.88026,-1.66648,0.365233,1.7415,-0.592488, ,0,0,-0,0,0,0,
,0,1606843041,767229295, ,0.747586,-1.88028,-1.66648,0.365245,1.74156,-0.5925, ,0,0,-0,0,0,0,
,0,1606843041,769237645, ,0.747586,-1.8802,-1.66648,0.365256,1.74151,-0.592488, ,0,0,-0,0,0,0,
,0,1606843041,771227203, ,0.747562,-1.88019,-1.6665,0.36528,1.74152,-0.5925, ,0,0,-0,0,0,0,
,0,1606843041,773217264, ,0.747599,-1.88022,-1.66652,0.36528,1.74151,-0.592475, ,0,0,-0,0,0,0,
,0,1606843041,775217013, ,0.747586,-1.88027,-1.6665,0.365268,1.74151,-0.592488, ,0,0,-0,0,0,0,
,0,1606843041,777209798, ,0.747562,-1.88021,-1.66648,0.365292,1.74153,-0.592475, ,0,0,-0,0,0,0,
,0,1606843041,779210714, ,0.747586,-1.88025,-1.66644,0.365268,1.74152,-0.592475, ,0,0,-0,0,0,0,
,0,1606843041,781227549, ,0.747611,-1.88025,-1.66648,0.365292,1.74148,-0.592464, ,0,0,-0,0,0,0,
,0,1606843041,783209030, ,0.747611,-1.88022,-1.66648,0.365256,1.74154,-0.5925, ,0,0,-0,0,0,0,
,0,1606843041,785206644, ,0.747611,-1.88019,-1.66648,0.365268,1.7415,-0.592511, ,0,0,-0,0,0,0,
,0,1606843041,787205475, ,0.747599,-1.88026,-1.66649,0.365268,1.74153,-0.592475, ,0,0,-0,0,0,0,
,0,1606843041,789207240, ,0.747622,-1.88018,-1.6665,0.365304,1.74152,-0.5925, ,0,0,-0,0,0,0,
,0,1606843041,791203581, ,0.747599,-1.88026,-1.6665,0.365233,1.74151,-0.592464, ,0,0,-0,0,0,0,
,0,1606843041,793201114, ,0.747586,-1.88025,-1.66653,0.36528,1.74152,-0.592535, ,0,0,-0,0,0,0,
,0,1606843041,795210746, ,0.747574,-1.88021,-1.66653,0.365292,1.74151,-0.592488, ,0,0,-0,0,0,0,
,0,1606843041,797203970, ,0.747562,-1.88021,-1.66653,0.36528,1.74151,-0.592511, ,0,0,-0,0,0,0,
,0,1606843041,799219716, ,0.747586,-1.88024,-1.66652,0.365256,1.7415,-0.592488, ,0,0,-0,0,0,0,
,0,1606843041,801212167, ,0.747622,-1.88025,-1.66649,0.365268,1.74154,-0.5925, ,0,0,-0,0,0,0,
,0,1606843041,803219291, ,0.747574,-1.88026,-1.66649,0.365233,1.74151,-0.592523, ,0,0,-0,0,0,0,
,0,1606843041,805210284, ,0.747586,-1.88024,-1.6665,0.365245,1.74147,-0.592475, ,0,0,-0,0,0,0,
,0,1606843041,807212306, ,0.747574,-1.88026,-1.66649,0.365268,1.74153,-0.592464, ,0,0,-0,0,0,0,
,0,1606843041,809210880, ,0.747574,-1.88021,-1.6665,0.365268,1.74153,-0.592535, ,0,0,-0,0,0,0,
,0,1606843041,811228314, ,0.747574,-1.88022,-1.66649,0.36528,1.7415,-0.592488, ,0,0,-0,0,0,0,
,0,1606843041,813254524, ,0.747599,-1.88022,-1.66647,0.365317,1.7415,-0.592464, ,0,0,-0,0,0,0,
,0,1606843041,815226124, ,0.74755,-1.88022,-1.66647,0.365268,1.74153,-0.592511, ,0,0,-0,0,0,0,
,0,1606843041,817227381, ,0.747574,-1.88024,-1.6665,0.365245,1.74153,-0.592451, ,0,0,-0,0,0,0,
,0,1606843041,819224158, ,0.747574,-1.88024,-1.66649,0.36528,1.74153,-0.592523, ,0,0,-0,0,0,0,
,0,1606843041,821209787, ,0.747586,-1.8802,-1.6665,0.36528,1.74152,-0.592488, ,0,0,-0,0,0,0,
,0,1606843041,823216111, ,0.747586,-1.88021,-1.66648,0.365256,1.74152,-0.592523, ,0,0,-0,0,0,0,
,0,1606843041,825218396, ,0.747599,-1.88026,-1.66649,0.365292,1.74151,-0.592535, ,0,0,-0,0,0,0,
,0,1606843041,827218332, ,0.747586,-1.88024,-1.66648,0.36528,1.74151,-0.592511, ,0,0,-0,0,0,0,
,0,1606843041,829215865, ,0.747599,-1.88019,-1.66648,0.365245,1.74152,-0.592488, ,0,0,-0,0,0,0,
,0,1606843041,831214766, ,0.747599,-1.8802,-1.6665,0.36528,1.74154,-0.592475, ,0,0,-0,0,0,0,
,0,1606843041,833211034, ,0.747574,-1.8802,-1.6665,0.365256,1.74152,-0.592511, ,0,0,-0,0,0,0,
,0,1606843041,835218555, ,0.747586,-1.88026,-1.6665,0.365233,1.7415,-0.5925, ,0,0,-0,0,0,0,
,0,1606843041,837221254, ,0.747586,-1.88021,-1.6665,0.365292,1.7415,-0.592511, ,0,0,-0,0,0,0,
,0,1606843041,839213910, ,0.747599,-1.88025,-1.66649,0.365245,1.74151,-0.592464, ,0,0,-0,0,0,0,
,0,1606843041,841211225, ,0.747562,-1.88025,-1.66653,0.365292,1.74156,-0.5925, ,0,0,-0,0,0,0,
,0,1606843041,843294015, ,0.747622,-1.88022,-1.66647,0.365208,1.74152,-0.592475, ,0,0,-0,0,0,0,
,0,1606843041,845269280, ,0.747599,-1.88026,-1.66648,0.365268,1.7415,-0.592475, ,0,0,-0,0,0,0,
,0,1606843041,847252861, ,0.747562,-1.88021,-1.66647,0.365268,1.74152,-0.592475, ,0,0,-0,0,0,0,
,0,1606843041,849217548, ,0.747562,-1.88021,-1.66648,0.365268,1.74151,-0.592511, ,0,0,-0,0,0,0,
,0,1606843041,851223430, ,0.747599,-1.88026,-1.6665,0.365256,1.74151,-0.592488, ,0,0,-0,0,0,0,
,0,1606843041,853217353, ,0.74755,-1.88022,-1.6665,0.365268,1.74148,-0.5925, ,0,0,-0,0,0,0,
,0,1606843041,855212844, ,0.747574,-1.88026,-1.66649,0.365268,1.74154,-0.592511, ,0,0,-0,0,0,0,
,0,1606843041,857216803, ,0.747586,-1.88024,-1.6665,0.365256,1.7415,-0.592511, ,0,0,-0,0,0,0,
,0,1606843041,859212150, ,0.74755,-1.88024,-1.66652,0.365268,1.74152,-0.592523, ,0,0,-0,0,0,0,
,0,1606843041,861208473, ,0.747586,-1.88021,-1.6665,0.365304,1.74152,-0.592511, ,0,0,-0,0,0,0,
,0,1606843041,863211318, ,0.747599,-1.8802,-1.6665,0.365256,1.74151,-0.592511, ,0,0,-0,0,0,0,
,0,1606843041,865209861, ,0.747622,-1.8802,-1.66648,0.36528,1.74154,-0.592451, ,0,0,-0,0,0,0,
,0,1606843041,867218324, ,0.747586,-1.88024,-1.66649,0.36522,1.74153,-0.592511, ,0,0,-0,0,0,0,
,0,1606843041,869211324, ,0.747611,-1.8802,-1.66648,0.365233,1.7415,-0.592511, ,0,0,-0,0,0,0,
,0,1606843041,871210318, ,0.747586,-1.88022,-1.66648,0.365245,1.74151,-0.5925, ,0,0,-0,0,0,0,
,0,1606843041,873211663, ,0.747586,-1.88021,-1.6665,0.365256,1.74148,-0.592523, ,0,0,-0,0,0,0,
,0,1606843041,875217289, ,0.747574,-1.8802,-1.66652,0.365245,1.74151,-0.592535, ,0,0,-0,0,0,0,
,0,1606843041,877214689, ,0.747599,-1.8802,-1.66647,0.365256,1.74152,-0.5925, ,0,0,-0,0,0,0,
,0,1606843041,879211358, ,0.747611,-1.88022,-1.6665,0.36528,1.7415,-0.5925, ,0,0,-0,0,0,0,
,0,1606843041,881216411, ,0.747586,-1.8802,-1.66648,0.36528,1.74153,-0.592511, ,0,0,-0,0,0,0,
,0,1606843041,883212051, ,0.747586,-1.88021,-1.66652,0.365256,1.74154,-0.5925, ,0,0,-0,0,0,0,
,0,1606843041,885222335, ,0.747586,-1.88024,-1.66648,0.365245,1.74148,-0.5925, ,0,0,-0,0,0,0,
,0,1606843041,887213269, ,0.747586,-1.88024,-1.66647,0.365292,1.74153,-0.592475, ,0,0,-0,0,0,0,
,0,1606843041,889215635, ,0.747574,-1.88024,-1.66652,0.365268,1.74146,-0.592535, ,0,0,-0,0,0,0,
,0,1606843041,891212268, ,0.747599,-1.88026,-1.66647,0.365245,1.7415,-0.592475, ,0,0,-0,0,0,0,
,0,1606843041,893209261, ,0.747634,-1.88025,-1.66649,0.365245,1.7415,-0.592475, ,0,0,-0,0,0,0,
,0,1606843041,895212328, ,0.747599,-1.88024,-1.66652,0.365256,1.74154,-0.5925, ,0,0,-0,0,0,0,
,0,1606843041,897210523, ,0.747622,-1.88025,-1.6665,0.365256,1.74156,-0.592511, ,0,0,-0,0,0,0,
,0,1606843041,899209918, ,0.747611,-1.88022,-1.6665,0.365256,1.74153,-0.5925, ,0,0,-0,0,0,0,
,0,1606843041,901206453, ,0.747586,-1.88022,-1.66648,0.365292,1.74154,-0.592464, ,0,0,-0,0,0,0,
,0,1606843041,903210433, ,0.747599,-1.88024,-1.66649,0.365245,1.7415,-0.5925, ,0,0,-0,0,0,0,
,0,1606843041,905212035, ,0.747599,-1.88021,-1.66652,0.36528,1.74157,-0.592511, ,0,0,-0,0,0,0,
,0,1606843041,907209263, ,0.747586,-1.88021,-1.6665,0.365328,1.74154,-0.592488, ,0,0,-0,0,0,0,
,0,1606843041,909206907, ,0.747574,-1.88024,-1.66649,0.36528,1.74153,-0.592475, ,0,0,-0,0,0,0,
,0,1606843041,911224962, ,0.747599,-1.8802,-1.6665,0.365268,1.74154,-0.592451, ,0,0,-0,0,0,0,
,0,1606843041,913238982, ,0.74755,-1.88024,-1.6665,0.365268,1.74154,-0.5925, ,0,0,-0,0,0,0,
,0,1606843041,915211648, ,0.747586,-1.88024,-1.66648,0.365245,1.74148,-0.592523, ,0,0,-0,0,0,0,
,0,1606843041,917208402, ,0.747586,-1.88024,-1.66649,0.365292,1.74158,-0.5925, ,0,0,-0,0,0,0,
,0,1606843041,919211808, ,0.747574,-1.88024,-1.66648,0.365256,1.7415,-0.592488, ,0,0,-0,0,0,0,
,0,1606843041,921207388, ,0.747574,-1.88025,-1.66648,0.365268,1.74152,-0.592511, ,0,0,-0,0,0,0,
,0,1606843041,923208553, ,0.747586,-1.88021,-1.6665,0.365245,1.74152,-0.592488, ,0,0,-0,0,0,0,
,0,1606843041,925213767, ,0.747586,-1.88021,-1.66649,0.365268,1.74152,-0.592523, ,0,0,-0,0,0,0,
,0,1606843041,927210380, ,0.747611,-1.88021,-1.66649,0.365233,1.74154,-0.5925, ,0,0,-0,0,0,0,
,0,1606843041,929212951, ,0.747599,-1.88026,-1.66648,0.36528,1.74152,-0.592523, ,0,0,-0,0,0,0,
,0,1606843041,931212679, ,0.747586,-1.88025,-1.66649,0.365304,1.74152,-0.5925, ,0,0,-0,0,0,0,
,0,1606843041,933205659, ,0.747586,-1.88022,-1.66652,0.36528,1.74151,-0.592511, ,0,0,-0,0,0,0,
,0,1606843041,935221715, ,0.747574,-1.88022,-1.6665,0.365268,1.74152,-0.5925, ,0,0,-0,0,0,0,
,0,1606843041,937213811, ,0.747562,-1.88024,-1.66649,0.365245,1.74154,-0.5925, ,0,0,-0,0,0,0,
,0,1606843041,939209423, ,0.74755,-1.8802,-1.6665,0.365268,1.74154,-0.592475, ,0,0,-0,0,0,0,
,0,1606843041,941211098, ,0.747574,-1.88024,-1.66649,0.365233,1.74151,-0.592475, ,0,0,-0,0,0,0,
,0,1606843041,943269207, ,0.747574,-1.88022,-1.66649,0.365268,1.74151,-0.592511, ,0,0,-0,0,0,0,
,0,1606843041,945275206, ,0.747574,-1.88025,-1.66648,0.36528,1.74153,-0.592488, ,0,0,-0,0,0,0,
,0,1606843041,947248457, ,0.747599,-1.88025,-1.66648,0.365268,1.74148,-0.592475, ,0,0,-0,0,0,0,
,0,1606843041,949221751, ,0.747586,-1.88022,-1.6665,0.365268,1.74152,-0.592488, ,0,0,-0,0,0,0,
,0,1606843041,951228640, ,0.747586,-1.88019,-1.6665,0.36528,1.74152,-0.592475, ,0,0,-0,0,0,0,
,0,1606843041,953215014, ,0.747574,-1.88026,-1.66646,0.365268,1.74153,-0.592475, ,0,0,-0,0,0,0,
,0,1606843041,955210257, ,0.74755,-1.88024,-1.66652,0.36528,1.7415,-0.592488, ,0,0,-0,0,0,0,
,0,1606843041,957206020, ,0.747574,-1.88022,-1.66649,0.365268,1.74152,-0.5925, ,0,0,-0,0,0,0,
,0,1606843041,959207787, ,0.747574,-1.88024,-1.66648,0.365304,1.74156,-0.592511, ,0,0,-0,0,0,0,
,0,1606843041,961205116, ,0.747574,-1.88018,-1.66648,0.36528,1.74156,-0.592488, ,0,0,-0,0,0,0,
,0,1606843041,963212725, ,0.747562,-1.88025,-1.6665,0.365292,1.74153,-0.592511, ,0,0,-0,0,0,0,
,0,1606843041,965215380, ,0.74755,-1.88021,-1.66649,0.365292,1.7415,-0.592511, ,0,0,-0,0,0,0,
,0,1606843041,967224490, ,0.747599,-1.88022,-1.66652,0.36528,1.74148,-0.592511, ,0,0,-0,0,0,0,
,0,1606843041,969211803, ,0.747611,-1.88024,-1.66652,0.365256,1.74151,-0.592488, ,0,0,-0,0,0,0,
,0,1606843041,971208679, ,0.747562,-1.88026,-1.66654,0.365292,1.74152,-0.5925, ,0,0,-0,0,0,0,
,0,1606843041,973249472, ,0.747622,-1.88025,-1.66652,0.365208,1.74151,-0.592548, ,0,0,-0,0,0,0,
,0,1606843041,975218120, ,0.747562,-1.88022,-1.66646,0.365292,1.74154,-0.592523, ,0,0,-0,0,0,0,
,0,1606843041,977209617, ,0.747574,-1.88024,-1.66647,0.365268,1.74151,-0.592535, ,0,0,-0,0,0,0,
,0,1606843041,979214712, ,0.747599,-1.88021,-1.66649,0.365268,1.74153,-0.592523, ,0,0,-0,0,0,0,
,0,1606843041,981219694, ,0.747586,-1.8802,-1.66649,0.365268,1.74152,-0.592511, ,0,0,-0,0,0,0,
,0,1606843041,983223117, ,0.747574,-1.88025,-1.66646,0.365256,1.74151,-0.592523, ,0,0,-0,0,0,0,
,0,1606843041,985212758, ,0.74755,-1.8802,-1.66652,0.365292,1.74154,-0.5925, ,0,0,-0,0,0,0,
,0,1606843041,987208196, ,0.747599,-1.8802,-1.6665,0.36528,1.74151,-0.5925, ,0,0,-0,0,0,0,
,0,1606843041,989210327, ,0.747599,-1.88024,-1.66647,0.365268,1.74154,-0.592548, ,0,0,-0,0,0,0,
,0,1606843041,991210990, ,0.747599,-1.88027,-1.66647,0.36528,1.74151,-0.592523, ,0,0,-0,0,0,0,
,0,1606843041,993210168, ,0.747586,-1.88024,-1.66649,0.365268,1.74152,-0.5925, ,0,0,-0,0,0,0,
,0,1606843041,995211749, ,0.747599,-1.88021,-1.66649,0.365233,1.7415,-0.592511, ,0,0,-0,0,0,0,
,0,1606843041,997212482, ,0.747574,-1.88024,-1.6665,0.365245,1.74151,-0.592523, ,0,0,-0,0,0,0,
,0,1606843041,999209663, ,0.747586,-1.88027,-1.6665,0.365304,1.74153,-0.592464, ,0,0,-0,0,0,0,
,0,1606843042,1210101, ,0.747611,-1.88024,-1.66649,0.365245,1.74151,-0.5925, ,0,0,-0,0,0,0,
,0,1606843042,3234427, ,0.747599,-1.88027,-1.66647,0.365268,1.7415,-0.592523, ,0,0,-0,0,0,0,
,0,1606843042,5211543, ,0.747599,-1.88026,-1.66648,0.365256,1.74156,-0.592511, ,0,0,-0,0,0,0,
,0,1606843042,7207683, ,0.747611,-1.88027,-1.66649,0.365268,1.74152,-0.5925, ,0,0,-0,0,0,0,
,0,1606843042,9208727, ,0.747586,-1.88025,-1.66647,0.365233,1.74153,-0.592511, ,0,0,-0,0,0,0,
,0,1606843042,11230718, ,0.747599,-1.88027,-1.66649,0.365304,1.74152,-0.592511, ,0,0,-0,0,0,0,
,0,1606843042,13228925, ,0.747586,-1.8802,-1.66648,0.365304,1.74154,-0.592523, ,0,0,-0,0,0,0,
,0,1606843042,15212315, ,0.747562,-1.88025,-1.66648,0.36528,1.74152,-0.592488, ,0,0,-0,0,0,0,
,0,1606843042,17208640, ,0.747574,-1.88022,-1.6665,0.365268,1.74152,-0.592535, ,0,0,-0,0,0,0,
,0,1606843042,19216991, ,0.747599,-1.88021,-1.6665,0.365256,1.74153,-0.5925, ,0,0,-0,0,0,0,
,0,1606843042,21219932, ,0.747574,-1.88025,-1.66649,0.365256,1.74153,-0.5925, ,0,0,-0,0,0,0,
,0,1606843042,23210802, ,0.747574,-1.88022,-1.6665,0.365268,1.74152,-0.592511, ,0,0,-0,0,0,0,
,0,1606843042,25207056, ,0.747611,-1.88024,-1.66648,0.365268,1.74152,-0.592475, ,0,0,-0,0,0,0,
,0,1606843042,27212652, ,0.747586,-1.88021,-1.66646,0.365268,1.74152,-0.592535, ,0,0,-0,0,0,0,
,0,1606843042,29210451, ,0.747574,-1.88024,-1.66647,0.365256,1.7415,-0.592548, ,0,0,-0,0,0,0,
,0,1606843042,31213256, ,0.747574,-1.8802,-1.6665,0.36528,1.74154,-0.592511, ,0,0,-0,0,0,0,
,0,1606843042,33210740, ,0.747599,-1.88024,-1.6665,0.36522,1.74153,-0.592523, ,0,0,-0,0,0,0,
,0,1606843042,35210264, ,0.747611,-1.88024,-1.66649,0.365208,1.74156,-0.5925, ,0,0,-0,0,0,0,
,0,1606843042,37208677, ,0.747574,-1.88025,-1.6665,0.365292,1.74153,-0.592511, ,0,0,-0,0,0,0,
,0,1606843042,39209958, ,0.747562,-1.88026,-1.6665,0.365256,1.74152,-0.592523, ,0,0,-0,0,0,0,
,0,1606843042,41211510, ,0.747574,-1.88026,-1.66648,0.365304,1.74154,-0.592511, ,0,0,-0,0,0,0,
,0,1606843042,43225060, ,0.747599,-1.88026,-1.66652,0.365245,1.74156,-0.592511, ,0,0,-0,0,0,0,
,0,1606843042,45272772, ,0.747574,-1.88027,-1.6665,0.365268,1.7415,-0.592511, ,0,0,-0,0,0,0,
,0,1606843042,47263332, ,0.747611,-1.88024,-1.66648,0.365256,1.74152,-0.5925, ,0,0,-0,0,0,0,
,0,1606843042,49236032, ,0.747599,-1.88024,-1.66647,0.365304,1.74148,-0.592475, ,0,0,-0,0,0,0,
,0,1606843042,51221134, ,0.747611,-1.88024,-1.66648,0.36528,1.74151,-0.592511, ,0,0,-0,0,0,0,
,0,1606843042,53209271, ,0.747611,-1.8802,-1.66648,0.36528,1.74154,-0.592475, ,0,0,-0,0,0,0,
,0,1606843042,55207098, ,0.747622,-1.8802,-1.66649,0.365256,1.74154,-0.592475, ,0,0,-0,0,0,0,
,0,1606843042,57209532, ,0.747611,-1.88022,-1.66649,0.36528,1.74153,-0.592464, ,0,0,-0,0,0,0,
,0,1606843042,59213039, ,0.747611,-1.88022,-1.66647,0.365292,1.74153,-0.5925, ,0,0,-0,0,0,0,
,0,1606843042,61207582, ,0.747611,-1.88021,-1.66649,0.365292,1.74152,-0.592523, ,0,0,-0,0,0,0,
,0,1606843042,63211210, ,0.747599,-1.88021,-1.66647,0.365256,1.7415,-0.592488, ,0,0,-0,0,0,0,
,0,1606843042,65207695, ,0.747611,-1.88021,-1.66653,0.365245,1.74153,-0.592548, ,0,0,-0,0,0,0,
,0,1606843042,67218877, ,0.747586,-1.88024,-1.66649,0.365245,1.74152,-0.592511, ,0,0,-0,0,0,0,
,0,1606843042,69212739, ,0.747538,-1.8802,-1.66647,0.36528,1.74153,-0.592511, ,0,0,-0,0,0,0,
,0,1606843042,71208586, ,0.747599,-1.88022,-1.66649,0.365268,1.74152,-0.592488, ,0,0,-0,0,0,0,
,0,1606843042,73214987, ,0.747622,-1.88022,-1.66648,0.365184,1.74151,-0.5925, ,0,0,-0,0,0,0,
,0,1606843042,75215626, ,0.747599,-1.8802,-1.66648,0.36528,1.74154,-0.592523, ,0,0,-0,0,0,0,
,0,1606843042,77210592, ,0.747599,-1.88022,-1.66648,0.36528,1.74152,-0.592488, ,0,0,-0,0,0,0,
,0,1606843042,79214838, ,0.747574,-1.88024,-1.66648,0.365268,1.7415,-0.592511, ,0,0,-0,0,0,0,
,0,1606843042,81220123, ,0.747586,-1.88021,-1.66649,0.36528,1.74153,-0.592475, ,0,0,-0,0,0,0,
,0,1606843042,83210162, ,0.747574,-1.88025,-1.66652,0.365256,1.74156,-0.592475, ,0,0,-0,0,0,0,
,0,1606843042,85208849, ,0.747599,-1.88021,-1.66648,0.365245,1.74153,-0.5925, ,0,0,-0,0,0,0,
,0,1606843042,87214880, ,0.747599,-1.8802,-1.66652,0.36528,1.7415,-0.5925, ,0,0,-0,0,0,0,
,0,1606843042,89227577, ,0.747586,-1.88024,-1.6665,0.365208,1.74154,-0.592511, ,0,0,-0,0,0,0,
,0,1606843042,91222447, ,0.747586,-1.88021,-1.66648,0.365256,1.74151,-0.59244, ,0,0,-0,0,0,0,
,0,1606843042,93207352, ,0.747622,-1.88021,-1.66649,0.36528,1.74151,-0.592464, ,0,0,-0,0,0,0,
,0,1606843042,95213094, ,0.747599,-1.88021,-1.6665,0.365268,1.7415,-0.592488, ,0,0,-0,0,0,0,
,0,1606843042,97214022, ,0.74755,-1.88021,-1.66648,0.365245,1.74151,-0.592511, ,0,0,-0,0,0,0,
,0,1606843042,99219965, ,0.747611,-1.88026,-1.6665,0.365304,1.74151,-0.592511, ,0,0,-0,0,0,0,
,0,1606843042,101210014, ,0.747574,-1.88021,-1.66649,0.365245,1.74153,-0.592475, ,0,0,-0,0,0,0,
,0,1606843042,103208739, ,0.747586,-1.88026,-1.66648,0.365233,1.74152,-0.592523, ,0,0,-0,0,0,0,
,0,1606843042,105210917, ,0.747586,-1.88028,-1.6665,0.365268,1.7415,-0.592488, ,0,0,-0,0,0,0,
,0,1606843042,107212916, ,0.747586,-1.88019,-1.6665,0.365268,1.74152,-0.592475, ,0,0,-0,0,0,0,
,0,1606843042,109207923, ,0.747611,-1.88022,-1.6665,0.365292,1.74151,-0.592464, ,0,0,-0,0,0,0,
,0,1606843042,111212951, ,0.747586,-1.8802,-1.66648,0.365245,1.74152,-0.592464, ,0,0,-0,0,0,0,
,0,1606843042,113237603, ,0.747611,-1.88022,-1.6665,0.365233,1.7415,-0.592572, ,0,0,-0,0,0,0,
,0,1606843042,115209171, ,0.747574,-1.88027,-1.66646,0.365292,1.74151,-0.592488, ,0,0,-0,0,0,0,
,0,1606843042,117209284, ,0.747586,-1.88022,-1.66649,0.365268,1.7415,-0.5925, ,0,0,-0,0,0,0,
,0,1606843042,119216614, ,0.747562,-1.88027,-1.66652,0.365256,1.74151,-0.592475, ,0,0,-0,0,0,0,
,0,1606843042,121209413, ,0.747574,-1.88022,-1.66647,0.365268,1.74151,-0.592475, ,0,0,-0,0,0,0,
,0,1606843042,123211124, ,0.747599,-1.88022,-1.66647,0.365292,1.74148,-0.5925, ,0,0,-0,0,0,0,
,0,1606843042,125209017, ,0.747574,-1.88024,-1.66649,0.365256,1.74153,-0.592464, ,0,0,-0,0,0,0,
,0,1606843042,127217521, ,0.747586,-1.88022,-1.66649,0.365292,1.74153,-0.592511, ,0,0,-0,0,0,0,
,0,1606843042,129211049, ,0.747611,-1.88022,-1.6665,0.365245,1.7415,-0.5925, ,0,0,-0,0,0,0,
,0,1606843042,131215079, ,0.747586,-1.88019,-1.66648,0.365304,1.74151,-0.592475, ,0,0,-0,0,0,0,
,0,1606843042,133206411, ,0.747599,-1.88022,-1.66648,0.365268,1.74153,-0.592475, ,0,0,-0,0,0,0,
,0,1606843042,135209919, ,0.747599,-1.88024,-1.66649,0.365292,1.74151,-0.592511, ,0,0,-0,0,0,0,
,0,1606843042,137207637, ,0.747574,-1.88025,-1.6665,0.365256,1.74153,-0.592511, ,0,0,-0,0,0,0,
,0,1606843042,139213790, ,0.747622,-1.88024,-1.66647,0.365292,1.74148,-0.592488, ,0,0,-0,0,0,0,
,0,1606843042,141209274, ,0.747599,-1.88022,-1.6665,0.365268,1.74152,-0.5925, ,0,0,-0,0,0,0,
,0,1606843042,143225733, ,0.747574,-1.88026,-1.6665,0.365292,1.74153,-0.592511, ,0,0,-0,0,0,0,
,0,1606843042,145265186, ,0.747562,-1.88022,-1.66648,0.365245,1.74154,-0.592475, ,0,0,-0,0,0,0,
,0,1606843042,147240924, ,0.747599,-1.88019,-1.66647,0.365256,1.74153,-0.5925, ,0,0,-0,0,0,0,
,0,1606843042,149209338, ,0.747586,-1.88024,-1.66648,0.36528,1.74148,-0.5925, ,0,0,-0,0,0,0,
,0,1606843042,151211120, ,0.747574,-1.88024,-1.66647,0.36528,1.74152,-0.592488, ,0,0,-0,0,0,0,
,0,1606843042,153196600, ,0.74755,-1.88027,-1.66649,0.365304,1.74152,-0.5925, ,0,0,-0,0,0,0,
,0,1606843042,155202711, ,0.747574,-1.88027,-1.66647,0.36528,1.74152,-0.592511, ,0,0,-0,0,0,0,
,0,1606843042,157200648, ,0.747586,-1.88022,-1.66647,0.365268,1.74153,-0.592488, ,0,0,-0,0,0,0,
,0,1606843042,159198225, ,0.747611,-1.8802,-1.66648,0.365304,1.74153,-0.592488, ,0,0,-0,0,0,0,
,0,1606843042,161195476, ,0.747599,-1.88021,-1.6665,0.365317,1.74152,-0.592523, ,0,0,-0,0,0,0,
,0,1606843042,163198006, ,0.747574,-1.88024,-1.66649,0.36528,1.74154,-0.592488, ,0,0,-0,0,0,0,
,0,1606843042,165197056, ,0.747611,-1.88027,-1.66647,0.36528,1.74151,-0.592511, ,0,0,-0,0,0,0,
,0,1606843042,167202259, ,0.74755,-1.88022,-1.66649,0.365268,1.7415,-0.592511, ,0,0,-0,0,0,0,
,0,1606843042,169291437, ,0.747586,-1.88027,-1.6665,0.36528,1.74156,-0.5925, ,0,0,-0,0,0,0,
,0,1606843042,171276917, ,0.747599,-1.88026,-1.6665,0.36528,1.74153,-0.5925, ,0,0,-0,0,0,0,
,0,1606843042,173219741, ,0.747574,-1.88025,-1.66648,0.365268,1.74151,-0.592535, ,0,0,-0,0,0,0,
,0,1606843042,175211962, ,0.747599,-1.8802,-1.66649,0.365292,1.74153,-0.592523, ,0,0,-0,0,0,0,
,0,1606843042,177204026, ,0.747586,-1.88021,-1.66652,0.365292,1.74152,-0.592488, ,0,0,-0,0,0,0,
,0,1606843042,179202964, ,0.747562,-1.88022,-1.66647,0.365256,1.7415,-0.592511, ,0,0,-0,0,0,0,
,0,1606843042,181206980, ,0.747586,-1.88024,-1.66649,0.365304,1.74154,-0.592475, ,0,0,-0,0,0,0,
,0,1606843042,183206984, ,0.747611,-1.88024,-1.66652,0.365245,1.74156,-0.5925, ,0,0,-0,0,0,0,
,0,1606843042,185205224, ,0.747622,-1.88024,-1.66648,0.365233,1.74151,-0.592488, ,0,0,-0,0,0,0,
,0,1606843042,187205354, ,0.747599,-1.88025,-1.66648,0.36528,1.7415,-0.592475, ,0,0,-0,0,0,0,
,0,1606843042,189200851, ,0.747586,-1.88025,-1.6665,0.365292,1.74152,-0.592583, ,0,0,-0,0,0,0,
,0,1606843042,191202309, ,0.747599,-1.88021,-1.66653,0.36528,1.74152,-0.5925, ,0,0,-0,0,0,0,
,0,1606843042,193198897, ,0.74755,-1.88021,-1.66649,0.365268,1.7415,-0.592523, ,0,0,-0,0,0,0,
,0,1606843042,195204071, ,0.747562,-1.88027,-1.66647,0.365268,1.74152,-0.592475, ,0,0,-0,0,0,0,
,0,1606843042,197202319, ,0.747599,-1.88025,-1.66648,0.365292,1.7415,-0.592488, ,0,0,-0,0,0,0,
,0,1606843042,199200462, ,0.747599,-1.88024,-1.66652,0.365292,1.74153,-0.592475, ,0,0,-0,0,0,0,
,0,1606843042,201200716, ,0.747611,-1.88021,-1.66649,0.365292,1.74154,-0.5925, ,0,0,-0,0,0,0,
,0,1606843042,203201884, ,0.747586,-1.88024,-1.66649,0.365304,1.74152,-0.592511, ,0,0,-0,0,0,0,
,0,1606843042,205198299, ,0.747562,-1.88025,-1.66648,0.365304,1.74156,-0.592464, ,0,0,-0,0,0,0,
,0,1606843042,207201753, ,0.747611,-1.88027,-1.6665,0.36528,1.74152,-0.592511, ,0,0,-0,0,0,0,
,0,1606843042,209196476, ,0.747574,-1.88026,-1.66652,0.36528,1.74148,-0.592488, ,0,0,-0,0,0,0,
,0,1606843042,211206392, ,0.747586,-1.88026,-1.66647,0.365256,1.74154,-0.592488, ,0,0,-0,0,0,0,
,0,1606843042,213206574, ,0.747622,-1.88019,-1.66652,0.365256,1.7415,-0.592451, ,0,0,-0,0,0,0,
,0,1606843042,215200666, ,0.747611,-1.88025,-1.66648,0.365304,1.74158,-0.592523, ,0,0,-0,0,0,0,
,0,1606843042,217198318, ,0.747611,-1.88022,-1.66648,0.36528,1.74151,-0.592464, ,0,0,-0,0,0,0,
,0,1606843042,219205536, ,0.747586,-1.88025,-1.66652,0.36522,1.74152,-0.592464, ,0,0,-0,0,0,0,
,0,1606843042,221199578, ,0.747574,-1.88024,-1.66652,0.365256,1.74151,-0.5925, ,0,0,-0,0,0,0,
,0,1606843042,223263040, ,0.747599,-1.88025,-1.66653,0.36528,1.74152,-0.592475, ,0,0,-0,0,0,0,
,0,1606843042,225213167, ,0.747562,-1.88022,-1.66649,0.365292,1.74151,-0.592511, ,0,0,-0,0,0,0,
,0,1606843042,227210700, ,0.747574,-1.88022,-1.66652,0.36528,1.74151,-0.592464, ,0,0,-0,0,0,0,
,0,1606843042,229206625, ,0.747574,-1.88026,-1.6665,0.36528,1.74156,-0.592464, ,0,0,-0,0,0,0,
,0,1606843042,231212564, ,0.747599,-1.88024,-1.66649,0.365245,1.74151,-0.5925, ,0,0,-0,0,0,0,
,0,1606843042,233211042, ,0.747574,-1.88021,-1.66648,0.36528,1.74153,-0.592535, ,0,0,-0,0,0,0,
,0,1606843042,235216829, ,0.747599,-1.88024,-1.66649,0.36528,1.74152,-0.5925, ,0,0,-0,0,0,0,
,0,1606843042,237204820, ,0.747622,-1.88025,-1.66648,0.365256,1.7415,-0.592488, ,0,0,-0,0,0,0,
,0,1606843042,239206317, ,0.747622,-1.88021,-1.66649,0.36528,1.74152,-0.592451, ,0,0,-0,0,0,0,
,0,1606843042,241204391, ,0.747562,-1.88022,-1.66649,0.365268,1.74152,-0.592464, ,0,0,-0,0,0,0,
,0,1606843042,243218723, ,0.747611,-1.88019,-1.6665,0.365245,1.74148,-0.592451, ,0,0,-0,0,0,0,
,0,1606843042,245291428, ,0.747574,-1.88026,-1.66648,0.365304,1.74153,-0.5925, ,0,0,-0,0,0,0,
,0,1606843042,247225789, ,0.747586,-1.88026,-1.66647,0.365245,1.74154,-0.592488, ,0,0,-0,0,0,0,
,0,1606843042,249209963, ,0.747599,-1.88021,-1.66649,0.365245,1.74156,-0.592464, ,0,0,-0,0,0,0,
,0,1606843042,251218921, ,0.747586,-1.88022,-1.66648,0.36528,1.74152,-0.592488, ,0,0,-0,0,0,0,
,0,1606843042,253213044, ,0.747622,-1.88022,-1.66648,0.365233,1.74151,-0.5925, ,0,0,-0,0,0,0,
,0,1606843042,255212679, ,0.747586,-1.88018,-1.66647,0.365233,1.74153,-0.592511, ,0,0,-0,0,0,0,
,0,1606843042,257207492, ,0.747574,-1.88024,-1.66653,0.365304,1.74157,-0.592488, ,0,0,-0,0,0,0,
,0,1606843042,259210606, ,0.747586,-1.88021,-1.66649,0.365304,1.74153,-0.592535, ,0,0,-0,0,0,0,
,0,1606843042,261206442, ,0.747586,-1.88022,-1.6665,0.365245,1.74156,-0.5925, ,0,0,-0,0,0,0,
,0,1606843042,263213001, ,0.747586,-1.88027,-1.6665,0.365268,1.74153,-0.5925, ,0,0,-0,0,0,0,
,0,1606843042,265209502, ,0.747599,-1.88022,-1.6665,0.365256,1.74148,-0.592475, ,0,0,-0,0,0,0,
,0,1606843042,267216773, ,0.747574,-1.88022,-1.6665,0.365245,1.74154,-0.592488, ,0,0,-0,0,0,0,
,0,1606843042,269213794, ,0.747599,-1.88024,-1.66648,0.365245,1.74153,-0.592511, ,0,0,-0,0,0,0,
,0,1606843042,271212007, ,0.747574,-1.88021,-1.66648,0.365268,1.74153,-0.592559, ,0,0,-0,0,0,0,
,0,1606843042,273209541, ,0.747599,-1.8802,-1.6665,0.365245,1.74152,-0.592488, ,0,0,-0,0,0,0,
,0,1606843042,275212080, ,0.747599,-1.88021,-1.66648,0.365256,1.74151,-0.592488, ,0,0,-0,0,0,0,
,0,1606843042,277209180, ,0.747622,-1.88019,-1.66649,0.365256,1.7415,-0.592475, ,0,0,-0,0,0,0,
,0,1606843042,279206039, ,0.747562,-1.88027,-1.6665,0.365245,1.74153,-0.592535, ,0,0,-0,0,0,0,
,0,1606843042,281212306, ,0.747599,-1.88025,-1.6665,0.36528,1.74151,-0.592464, ,0,0,-0,0,0,0,
,0,1606843042,283210762, ,0.747599,-1.88025,-1.66646,0.365292,1.74151,-0.592488, ,0,0,-0,0,0,0,
,0,1606843042,285207775, ,0.747574,-1.88024,-1.6665,0.36528,1.74152,-0.592511, ,0,0,-0,0,0,0,
,0,1606843042,287216484, ,0.747538,-1.88025,-1.6665,0.365268,1.74152,-0.592488, ,0,0,-0,0,0,0,
,0,1606843042,289213549, ,0.747611,-1.88025,-1.66649,0.365245,1.74156,-0.592475, ,0,0,-0,0,0,0,
,0,1606843042,291218863, ,0.747574,-1.88019,-1.6665,0.365268,1.74153,-0.592511, ,0,0,-0,0,0,0,
,0,1606843042,293210467, ,0.747599,-1.88024,-1.66649,0.365256,1.74153,-0.592511, ,0,0,-0,0,0,0,
,0,1606843042,295209625, ,0.747599,-1.88026,-1.6665,0.365292,1.74151,-0.592511, ,0,0,-0,0,0,0,
,0,1606843042,297209376, ,0.747622,-1.8802,-1.66649,0.365317,1.7415,-0.5925, ,0,0,-0,0,0,0,
,0,1606843042,299211823, ,0.747586,-1.88024,-1.6665,0.365245,1.74154,-0.592451, ,0,0,-0,0,0,0,
,0,1606843042,301210730, ,0.747586,-1.88024,-1.6665,0.365292,1.74151,-0.592511, ,0,0,-0,0,0,0,
,0,1606843042,303209881, ,0.747574,-1.88022,-1.6665,0.365304,1.7415,-0.5925, ,0,0,-0,0,0,0,
,0,1606843042,305209528, ,0.747599,-1.88026,-1.66648,0.365304,1.7415,-0.592464, ,0,0,-0,0,0,0,
,0,1606843042,307208656, ,0.747538,-1.88022,-1.66648,0.365292,1.74152,-0.592464, ,0,0,-0,0,0,0,
,0,1606843042,309207684, ,0.747599,-1.88022,-1.66653,0.365292,1.74152,-0.592475, ,0,0,-0,0,0,0,
,0,1606843042,311228459, ,0.747586,-1.8802,-1.6665,0.36528,1.74151,-0.592511, ,0,0,-0,0,0,0,
,0,1606843042,313238648, ,0.747586,-1.88025,-1.6665,0.365304,1.74151,-0.59244, ,0,0,-0,0,0,0,
,0,1606843042,315212252, ,0.747562,-1.88026,-1.6665,0.365256,1.74151,-0.592475, ,0,0,-0,0,0,0,
,0,1606843042,317206823, ,0.747599,-1.88022,-1.66653,0.365245,1.74153,-0.592511, ,0,0,-0,0,0,0,
,0,1606843042,319207572, ,0.747574,-1.88021,-1.6665,0.365268,1.74148,-0.592488, ,0,0,-0,0,0,0,
,0,1606843042,321212368, ,0.747599,-1.8802,-1.66652,0.365256,1.74151,-0.592488, ,0,0,-0,0,0,0,
,0,1606843042,323212391, ,0.747586,-1.88024,-1.66652,0.365268,1.74148,-0.5925, ,0,0,-0,0,0,0,
,0,1606843042,325206879, ,0.747611,-1.88022,-1.66652,0.365304,1.7415,-0.592523, ,0,0,-0,0,0,0,
,0,1606843042,327209961, ,0.747599,-1.88021,-1.66649,0.365268,1.7415,-0.592535, ,0,0,-0,0,0,0,
,0,1606843042,329214172, ,0.747574,-1.88025,-1.6665,0.365304,1.74153,-0.5925, ,0,0,-0,0,0,0,
,0,1606843042,331215349, ,0.747599,-1.88026,-1.6665,0.36528,1.74152,-0.592488, ,0,0,-0,0,0,0,
,0,1606843042,333210102, ,0.747611,-1.88022,-1.6665,0.36528,1.74153,-0.592548, ,0,0,-0,0,0,0,
,0,1606843042,335213242, ,0.747586,-1.88025,-1.66648,0.365328,1.74153,-0.5925, ,0,0,-0,0,0,0,
,0,1606843042,337214398, ,0.747574,-1.88022,-1.66649,0.365256,1.74148,-0.592488, ,0,0,-0,0,0,0,
,0,1606843042,339315923, ,0.747622,-1.88021,-1.66647,0.36528,1.74152,-0.592511, ,0,0,-0,0,0,0,
,0,1606843042,341318517, ,0.747586,-1.88024,-1.66647,0.36528,1.74151,-0.5925, ,0,0,-0,0,0,0,
,0,1606843042,343239045, ,0.747574,-1.88019,-1.66649,0.365268,1.7415,-0.5925, ,0,0,-0,0,0,0,
,0,1606843042,345275430, ,0.747599,-1.88022,-1.66648,0.365256,1.7415,-0.592535, ,0,0,-0,0,0,0,
,0,1606843042,347276906, ,0.747611,-1.88022,-1.6665,0.365292,1.74156,-0.592488, ,0,0,-0,0,0,0,
,0,1606843042,349250309, ,0.747611,-1.88025,-1.66652,0.365245,1.74152,-0.592523, ,0,0,-0,0,0,0,
,0,1606843042,351229783, ,0.747574,-1.88024,-1.66649,0.365292,1.74146,-0.592535, ,0,0,-0,0,0,0,
,0,1606843042,353211952, ,0.747574,-1.88022,-1.66648,0.365317,1.7415,-0.592488, ,0,0,-0,0,0,0,
,0,1606843042,355208969, ,0.747611,-1.88024,-1.66649,0.365292,1.74153,-0.592488, ,0,0,-0,0,0,0,
,0,1606843042,357210548, ,0.747586,-1.88025,-1.66648,0.365304,1.74151,-0.592488, ,0,0,-0,0,0,0,
,0,1606843042,359213378, ,0.747586,-1.88025,-1.66649,0.36528,1.74152,-0.592511, ,0,0,-0,0,0,0,
,0,1606843042,361211470, ,0.747611,-1.8802,-1.66648,0.365304,1.74152,-0.592475, ,0,0,-0,0,0,0,
,0,1606843042,363207039, ,0.747611,-1.88026,-1.66648,0.365292,1.7415,-0.592548, ,0,0,-0,0,0,0,
,0,1606843042,365206129, ,0.747599,-1.8802,-1.66652,0.365292,1.7415,-0.5925, ,0,0,-0,0,0,0,
,0,1606843042,367212236, ,0.747574,-1.88026,-1.66652,0.365268,1.74153,-0.592511, ,0,0,-0,0,0,0,
,0,1606843042,369219528, ,0.747599,-1.88022,-1.6665,0.365268,1.74154,-0.592511, ,0,0,-0,0,0,0,
,0,1606843042,371211611, ,0.747611,-1.8802,-1.66648,0.365292,1.74151,-0.592511, ,0,0,-0,0,0,0,
,0,1606843042,373209241, ,0.747611,-1.88019,-1.66649,0.36528,1.7415,-0.592488, ,0,0,-0,0,0,0,
,0,1606843042,375210244, ,0.747574,-1.88026,-1.66648,0.365304,1.74151,-0.592511, ,0,0,-0,0,0,0,
,0,1606843042,377208225, ,0.747611,-1.88024,-1.66652,0.365304,1.7415,-0.592523, ,0,0,-0,0,0,0,
,0,1606843042,379222256, ,0.747599,-1.88024,-1.66649,0.36528,1.74153,-0.592475, ,0,0,-0,0,0,0,
,0,1606843042,381215628, ,0.747574,-1.88021,-1.66652,0.365317,1.74156,-0.592511, ,0,0,-0,0,0,0,
,0,1606843042,383216019, ,0.747599,-1.88025,-1.66648,0.36528,1.74152,-0.592488, ,0,0,-0,0,0,0,
,0,1606843042,385211359, ,0.747599,-1.88024,-1.66648,0.365256,1.74154,-0.5925, ,0,0,-0,0,0,0,
,0,1606843042,387212886, ,0.747586,-1.88025,-1.66649,0.36522,1.74152,-0.592511, ,0,0,-0,0,0,0,
,0,1606843042,389210332, ,0.747599,-1.88022,-1.66649,0.365304,1.74152,-0.592488, ,0,0,-0,0,0,0,
,0,1606843042,391210518, ,0.747574,-1.88021,-1.66648,0.365268,1.74157,-0.592511, ,0,0,-0,0,0,0,
,0,1606843042,393207618, ,0.747574,-1.88022,-1.66649,0.365268,1.74153,-0.5925, ,0,0,-0,0,0,0,
,0,1606843042,395209972, ,0.747562,-1.88024,-1.66649,0.365245,1.74154,-0.592511, ,0,0,-0,0,0,0,
,0,1606843042,397211484, ,0.747586,-1.88024,-1.66652,0.365245,1.74152,-0.592511, ,0,0,-0,0,0,0,
,0,1606843042,399215470, ,0.747599,-1.8802,-1.6665,0.365245,1.74156,-0.592523, ,0,0,-0,0,0,0,
,0,1606843042,401215413, ,0.747611,-1.88022,-1.66649,0.365268,1.74154,-0.592488, ,0,0,-0,0,0,0,
,0,1606843042,403215649, ,0.747599,-1.88021,-1.6665,0.365292,1.74151,-0.592488, ,0,0,-0,0,0,0,
,0,1606843042,405209411, ,0.747574,-1.88022,-1.66647,0.365292,1.74152,-0.5925, ,0,0,-0,0,0,0,
,0,1606843042,407209632, ,0.747586,-1.88024,-1.66649,0.365256,1.74148,-0.592511, ,0,0,-0,0,0,0,
,0,1606843042,409212898, ,0.747599,-1.88024,-1.66652,0.365304,1.7415,-0.592488, ,0,0,-0,0,0,0,
,0,1606843042,411221745, ,0.747611,-1.88026,-1.66648,0.365245,1.74153,-0.5925, ,0,0,-0,0,0,0,
,0,1606843042,413249619, ,0.747574,-1.88025,-1.66649,0.365317,1.74152,-0.5925, ,0,0,-0,0,0,0,
,0,1606843042,415208392, ,0.747599,-1.88021,-1.6665,0.365304,1.74153,-0.592488, ,0,0,-0,0,0,0,
,0,1606843042,417207496, ,0.747574,-1.8802,-1.66644,0.365268,1.74151,-0.592535, ,0,0,-0,0,0,0,
,0,1606843042,419215799, ,0.747599,-1.88024,-1.66647,0.365268,1.74152,-0.592511, ,0,0,-0,0,0,0,
,0,1606843042,421207645, ,0.74755,-1.8802,-1.66649,0.365292,1.74153,-0.5925, ,0,0,-0,0,0,0,
,0,1606843042,423209358, ,0.747562,-1.8802,-1.6665,0.365233,1.74151,-0.592464, ,0,0,-0,0,0,0,
,0,1606843042,425208759, ,0.747562,-1.88024,-1.66649,0.36528,1.74152,-0.592475, ,0,0,-0,0,0,0,
,0,1606843042,427217278, ,0.747611,-1.88026,-1.6665,0.365256,1.74151,-0.5925, ,0,0,-0,0,0,0,
,0,1606843042,429210250, ,0.747586,-1.88019,-1.66647,0.36528,1.74148,-0.592475, ,0,0,-0,0,0,0,
,0,1606843042,431211125, ,0.747599,-1.88024,-1.66647,0.365268,1.74152,-0.592523, ,0,0,-0,0,0,0,
,0,1606843042,433212099, ,0.747574,-1.8802,-1.6665,0.36528,1.74152,-0.592523, ,0,0,-0,0,0,0,
,0,1606843042,435207343, ,0.747574,-1.88022,-1.6665,0.365317,1.74157,-0.592464, ,0,0,-0,0,0,0,
,0,1606843042,437207539, ,0.747574,-1.8802,-1.66652,0.365304,1.74153,-0.592535, ,0,0,-0,0,0,0,
,0,1606843042,439207134, ,0.747586,-1.88022,-1.6665,0.365328,1.74152,-0.592511, ,0,0,-0,0,0,0,
,0,1606843042,441203903, ,0.747574,-1.8802,-1.66652,0.365292,1.74156,-0.592511, ,0,0,-0,0,0,0,
,0,1606843042,443207223, ,0.747574,-1.88025,-1.66648,0.365304,1.74148,-0.592488, ,0,0,-0,0,0,0,
,0,1606843042,445247411, ,0.747599,-1.88025,-1.6665,0.365268,1.7415,-0.592464, ,0,0,-0,0,0,0,
,0,1606843042,447254872, ,0.747586,-1.88021,-1.66648,0.365304,1.7415,-0.5925, ,0,0,-0,0,0,0,
,0,1606843042,449217216, ,0.747599,-1.88026,-1.66648,0.365292,1.74154,-0.592548, ,0,0,-0,0,0,0,
,0,1606843042,451218592, ,0.747562,-1.88022,-1.66648,0.36528,1.74154,-0.592475, ,0,0,-0,0,0,0,
,0,1606843042,453210291, ,0.747611,-1.88026,-1.66649,0.365256,1.74154,-0.592488, ,0,0,-0,0,0,0,
,0,1606843042,455211226, ,0.747586,-1.88021,-1.66649,0.365292,1.74152,-0.592475, ,0,0,-0,0,0,0,
,0,1606843042,457214314, ,0.747586,-1.88021,-1.66647,0.365245,1.74154,-0.592475, ,0,0,-0,0,0,0,
,0,1606843042,459212122, ,0.747611,-1.8802,-1.66649,0.365245,1.7415,-0.592511, ,0,0,-0,0,0,0,
,0,1606843042,461204531, ,0.747574,-1.88019,-1.66652,0.365256,1.74152,-0.592451, ,0,0,-0,0,0,0,
,0,1606843042,463212270, ,0.747586,-1.88026,-1.6665,0.365268,1.74151,-0.592511, ,0,0,-0,0,0,0,
,0,1606843042,465208285, ,0.747586,-1.88022,-1.6665,0.365245,1.74148,-0.592475, ,0,0,-0,0,0,0,
,0,1606843042,467213498, ,0.747599,-1.88019,-1.66652,0.365256,1.74147,-0.592488, ,0,0,-0,0,0,0,
,0,1606843042,469206088, ,0.747574,-1.88022,-1.6665,0.365256,1.74151,-0.5925, ,0,0,-0,0,0,0,
,0,1606843042,471205799, ,0.747586,-1.88019,-1.66653,0.36528,1.74153,-0.592548, ,0,0,-0,0,0,0,
,0,1606843042,473254301, ,0.747586,-1.88025,-1.6665,0.365292,1.74152,-0.592488, ,0,0,-0,0,0,0,
,0,1606843042,475210377, ,0.747586,-1.8802,-1.66648,0.365245,1.74151,-0.592475, ,0,0,-0,0,0,0,
,0,1606843042,477209772, ,0.747586,-1.88022,-1.66648,0.36528,1.74153,-0.592523, ,0,0,-0,0,0,0,
,0,1606843042,479211150, ,0.747574,-1.88022,-1.66653,0.365245,1.7415,-0.592523, ,0,0,-0,0,0,0,
,0,1606843042,481207964, ,0.747611,-1.88024,-1.66652,0.365245,1.74152,-0.592464, ,0,0,-0,0,0,0,
,0,1606843042,483216032, ,0.747599,-1.88022,-1.6665,0.365268,1.74152,-0.592451, ,0,0,-0,0,0,0,
,0,1606843042,485206163, ,0.747586,-1.88027,-1.66648,0.365292,1.74153,-0.5925, ,0,0,-0,0,0,0,
,0,1606843042,487212316, ,0.747586,-1.8802,-1.6665,0.365256,1.74157,-0.592488, ,0,0,-0,0,0,0,
,0,1606843042,489214797, ,0.747574,-1.88022,-1.6665,0.365233,1.74152,-0.592451, ,0,0,-0,0,0,0,
,0,1606843042,491221126, ,0.747586,-1.88024,-1.66649,0.365268,1.74153,-0.592511, ,0,0,-0,0,0,0,
,0,1606843042,493211118, ,0.747562,-1.88018,-1.66647,0.36528,1.74154,-0.592488, ,0,0,-0,0,0,0,
,0,1606843042,495215666, ,0.747574,-1.88021,-1.6665,0.365292,1.74153,-0.592488, ,0,0,-0,0,0,0,
,0,1606843042,497213064, ,0.747611,-1.88022,-1.6665,0.365304,1.74152,-0.592475, ,0,0,-0,0,0,0,
,0,1606843042,499210582, ,0.747599,-1.88021,-1.6665,0.36528,1.74154,-0.592535, ,0,0,-0,0,0,0,
,0,1606843042,501209282, ,0.747599,-1.88022,-1.66648,0.365292,1.74151,-0.5925, ,0,0,-0,0,0,0,
,0,1606843042,503206643, ,0.747562,-1.88027,-1.6665,0.365317,1.74151,-0.592488, ,0,0,-0,0,0,0,
,0,1606843042,505206082, ,0.747586,-1.88021,-1.6665,0.36528,1.74153,-0.592511, ,0,0,-0,0,0,0,
,0,1606843042,507215229, ,0.747586,-1.8802,-1.66648,0.36528,1.74153,-0.592488, ,0,0,-0,0,0,0,
,0,1606843042,509206488, ,0.747599,-1.88024,-1.6665,0.365292,1.74152,-0.592464, ,0,0,-0,0,0,0,
,0,1606843042,511222588, ,0.747586,-1.88024,-1.6665,0.365268,1.74152,-0.592488, ,0,0,-0,0,0,0,
,0,1606843042,513234592, ,0.747599,-1.88025,-1.6665,0.365256,1.74151,-0.592475, ,0,0,-0,0,0,0,
,0,1606843042,515212193, ,0.747574,-1.88022,-1.66652,0.365292,1.74152,-0.592464, ,0,0,-0,0,0,0,
,0,1606843042,517206166, ,0.747574,-1.88027,-1.6665,0.365256,1.7415,-0.592475, ,0,0,-0,0,0,0,
,0,1606843042,519210433, ,0.747611,-1.88021,-1.6665,0.365292,1.74148,-0.592511, ,0,0,-0,0,0,0,
,0,1606843042,521207807, ,0.747599,-1.8802,-1.66647,0.365304,1.7415,-0.592464, ,0,0,-0,0,0,0,
,0,1606843042,523208537, ,0.747599,-1.88022,-1.6665,0.365268,1.74151,-0.592488, ,0,0,-0,0,0,0,
,0,1606843042,525214512, ,0.747611,-1.88021,-1.66649,0.365256,1.7415,-0.592535, ,0,0,-0,0,0,0,
,0,1606843042,527208513, ,0.747599,-1.88022,-1.66648,0.365292,1.74153,-0.592464, ,0,0,-0,0,0,0,
,0,1606843042,529207014, ,0.747562,-1.8802,-1.6665,0.365245,1.74151,-0.592548, ,0,0,-0,0,0,0,
,0,1606843042,531204898, ,0.747586,-1.88025,-1.66649,0.365268,1.74151,-0.592511, ,0,0,-0,0,0,0,
,0,1606843042,533208490, ,0.747599,-1.88021,-1.66649,0.36528,1.74152,-0.592464, ,0,0,-0,0,0,0,
,0,1606843042,535212986, ,0.747586,-1.88022,-1.66649,0.36528,1.74152,-0.592475, ,0,0,-0,0,0,0,
,0,1606843042,537204936, ,0.747611,-1.8802,-1.66649,0.36528,1.74151,-0.592475, ,0,0,-0,0,0,0,
,0,1606843042,539210260, ,0.747622,-1.88021,-1.66648,0.365256,1.74152,-0.592523, ,0,0,-0,0,0,0,
,0,1606843042,541209357, ,0.747599,-1.88025,-1.66649,0.36528,1.74152,-0.5925, ,0,0,-0,0,0,0,
,0,1606843042,543205932, ,0.747611,-1.8802,-1.6665,0.36528,1.74153,-0.5925, ,0,0,-0,0,0,0,
,0,1606843042,545220483, ,0.747562,-1.88026,-1.66652,0.365256,1.74151,-0.592464, ,0,0,-0,0,0,0,
,0,1606843042,547280611, ,0.747586,-1.88021,-1.66654,0.36528,1.74152,-0.592475, ,0,0,-0,0,0,0,
,0,1606843042,549257834, ,0.747599,-1.88021,-1.66648,0.36528,1.7415,-0.592488, ,0,0,-0,0,0,0,
,0,1606843042,551231710, ,0.747586,-1.88027,-1.66649,0.365256,1.7415,-0.592488, ,0,0,-0,0,0,0,
,0,1606843042,553210715, ,0.747562,-1.88026,-1.6665,0.365268,1.74156,-0.5925, ,0,0,-0,0,0,0,
,0,1606843042,555217035, ,0.747599,-1.88024,-1.6665,0.365245,1.7415,-0.592475, ,0,0,-0,0,0,0,
,0,1606843042,557212114, ,0.747574,-1.88025,-1.66648,0.365292,1.74152,-0.592488, ,0,0,-0,0,0,0,
,0,1606843042,559214178, ,0.747611,-1.88021,-1.66652,0.365268,1.74152,-0.5925, ,0,0,-0,0,0,0,
,0,1606843042,561207367, ,0.747599,-1.88022,-1.6665,0.36528,1.7415,-0.592488, ,0,0,-0,0,0,0,
,0,1606843042,563207560, ,0.747611,-1.88022,-1.6665,0.36528,1.74153,-0.592475, ,0,0,-0,0,0,0,
,0,1606843042,565212663, ,0.747586,-1.8802,-1.66648,0.365304,1.74151,-0.592464, ,0,0,-0,0,0,0,
,0,1606843042,567214386, ,0.747611,-1.88025,-1.66648,0.365268,1.74152,-0.592488, ,0,0,-0,0,0,0,
,0,1606843042,569215001, ,0.747599,-1.88024,-1.6665,0.365245,1.74151,-0.5925, ,0,0,-0,0,0,0,
,0,1606843042,571215592, ,0.747538,-1.88025,-1.66649,0.36528,1.74153,-0.592488, ,0,0,-0,0,0,0,
,0,1606843042,573208393, ,0.747562,-1.88021,-1.66648,0.365256,1.74152,-0.592535, ,0,0,-0,0,0,0,
,0,1606843042,575210796, ,0.747611,-1.88027,-1.6665,0.365256,1.74154,-0.592475, ,0,0,-0,0,0,0,
,0,1606843042,577210138, ,0.747586,-1.88022,-1.66653,0.365304,1.74152,-0.5925, ,0,0,-0,0,0,0,
,0,1606843042,579216345, ,0.747586,-1.88021,-1.66647,0.365256,1.74151,-0.592488, ,0,0,-0,0,0,0,
,0,1606843042,581220974, ,0.747562,-1.88021,-1.66648,0.365233,1.74152,-0.592511, ,0,0,-0,0,0,0,
,0,1606843042,583219828, ,0.747586,-1.88024,-1.66652,0.365317,1.74151,-0.592548, ,0,0,-0,0,0,0,
,0,1606843042,585211518, ,0.747574,-1.88018,-1.6665,0.365304,1.74152,-0.592523, ,0,0,-0,0,0,0,
,0,1606843042,587245987, ,0.747599,-1.88026,-1.66648,0.365245,1.74151,-0.592475, ,0,0,-0,0,0,0,
,0,1606843042,589213132, ,0.747599,-1.88022,-1.66648,0.365292,1.74151,-0.592488, ,0,0,-0,0,0,0,
,0,1606843042,591209438, ,0.747586,-1.88025,-1.66648,0.365256,1.74153,-0.592464, ,0,0,-0,0,0,0,
,0,1606843042,593211360, ,0.747599,-1.88026,-1.6665,0.36528,1.7415,-0.592511, ,0,0,-0,0,0,0,
,0,1606843042,595210904, ,0.747562,-1.88026,-1.66648,0.365268,1.74148,-0.592488, ,0,0,-0,0,0,0,
,0,1606843042,597213611, ,0.74755,-1.88021,-1.6665,0.365245,1.7415,-0.592535, ,0,0,-0,0,0,0,
,0,1606843042,599219091, ,0.747586,-1.88022,-1.66649,0.365292,1.74154,-0.592511, ,0,0,-0,0,0,0,
,0,1606843042,601213279, ,0.747574,-1.88022,-1.66647,0.365245,1.74154,-0.592475, ,0,0,-0,0,0,0,
,0,1606843042,603215016, ,0.747586,-1.88021,-1.66648,0.365256,1.74152,-0.592475, ,0,0,-0,0,0,0,
,0,1606843042,605213265, ,0.747574,-1.88024,-1.66649,0.365233,1.74154,-0.5925, ,0,0,-0,0,0,0,
,0,1606843042,607213560, ,0.747586,-1.88026,-1.6665,0.365256,1.74153,-0.592464, ,0,0,-0,0,0,0,
,0,1606843042,609210028, ,0.747586,-1.88025,-1.66649,0.365304,1.74151,-0.5925, ,0,0,-0,0,0,0,
,0,1606843042,611210307, ,0.747599,-1.88021,-1.6665,0.365268,1.74152,-0.592488, ,0,0,-0,0,0,0,
,0,1606843042,613247916, ,0.747574,-1.88024,-1.66647,0.365268,1.74152,-0.592475, ,0,0,-0,0,0,0,
,0,1606843042,615223432, ,0.747611,-1.88026,-1.66647,0.36522,1.74152,-0.592511, ,0,0,-0,0,0,0,
,0,1606843042,617210061, ,0.747599,-1.88019,-1.6665,0.365245,1.7415,-0.592475, ,0,0,-0,0,0,0,
,0,1606843042,619215923, ,0.747611,-1.88025,-1.66653,0.365304,1.74152,-0.5925, ,0,0,-0,0,0,0,
,0,1606843042,621347691, ,0.747586,-1.88024,-1.66647,0.36528,1.74151,-0.5925, ,0,0,-0,0,0,0,
,0,1606843042,623260979, ,0.747562,-1.88025,-1.66646,0.365256,1.74148,-0.592511, ,0,0,-0,0,0,0,
,0,1606843042,625229688, ,0.747586,-1.8802,-1.66649,0.365304,1.74148,-0.592464, ,0,0,-0,0,0,0,
,0,1606843042,627212766, ,0.747586,-1.88022,-1.6665,0.365245,1.74153,-0.592475, ,0,0,-0,0,0,0,
,0,1606843042,629208625, ,0.747611,-1.88021,-1.66648,0.365256,1.74154,-0.592464, ,0,0,-0,0,0,0,
,0,1606843042,631211857, ,0.747599,-1.88022,-1.66649,0.365268,1.7415,-0.592511, ,0,0,-0,0,0,0,
,0,1606843042,633215898, ,0.747599,-1.88021,-1.66647,0.365304,1.74156,-0.592488, ,0,0,-0,0,0,0,
,0,1606843042,635218236, ,0.747586,-1.8802,-1.66652,0.365304,1.74151,-0.592511, ,0,0,-0,0,0,0,
,0,1606843042,637213112, ,0.747562,-1.88021,-1.66649,0.365317,1.74153,-0.592523, ,0,0,-0,0,0,0,
,0,1606843042,639218744, ,0.747599,-1.88021,-1.66652,0.36528,1.74154,-0.592488, ,0,0,-0,0,0,0,
,0,1606843042,641212894, ,0.747574,-1.88027,-1.66652,0.36528,1.7415,-0.592511, ,0,0,-0,0,0,0,
,0,1606843042,643217683, ,0.747586,-1.88022,-1.66652,0.365233,1.74151,-0.592511, ,0,0,-0,0,0,0,
,0,1606843042,645218553, ,0.747622,-1.8802,-1.6665,0.365256,1.74151,-0.592488, ,0,0,-0,0,0,0,
,0,1606843042,647308598, ,0.747611,-1.88027,-1.6665,0.365256,1.74151,-0.5925, ,0,0,-0,0,0,0,
,0,1606843042,649236664, ,0.747574,-1.88022,-1.66648,0.365317,1.74152,-0.5925, ,0,0,-0,0,0,0,
,0,1606843042,651229055, ,0.747586,-1.8802,-1.6665,0.36528,1.74152,-0.592511, ,0,0,-0,0,0,0,
,0,1606843042,653210158, ,0.747574,-1.88022,-1.6665,0.36528,1.74152,-0.592511, ,0,0,-0,0,0,0,
,0,1606843042,655217272, ,0.74755,-1.88024,-1.66652,0.365292,1.74153,-0.592464, ,0,0,-0,0,0,0,
,0,1606843042,657215370, ,0.747599,-1.88022,-1.6665,0.365304,1.74151,-0.5925, ,0,0,-0,0,0,0,
,0,1606843042,659212727, ,0.747599,-1.88025,-1.6665,0.365268,1.7415,-0.592488, ,0,0,-0,0,0,0,
,0,1606843042,661213562, ,0.747586,-1.88027,-1.6665,0.36522,1.74152,-0.592488, ,0,0,-0,0,0,0,
,0,1606843042,663214842, ,0.747586,-1.88024,-1.66646,0.36528,1.74153,-0.592488, ,0,0,-0,0,0,0,
,0,1606843042,665207965, ,0.747574,-1.88025,-1.6665,0.365233,1.74151,-0.592511, ,0,0,-0,0,0,0,
,0,1606843042,667212053, ,0.747586,-1.88022,-1.66649,0.365256,1.7415,-0.592511, ,0,0,-0,0,0,0,
,0,1606843042,669216679, ,0.747611,-1.8802,-1.66648,0.36522,1.74151,-0.592475, ,0,0,-0,0,0,0,
,0,1606843042,671225350, ,0.747574,-1.8802,-1.6665,0.365256,1.74148,-0.592488, ,0,0,-0,0,0,0,
,0,1606843042,673217360, ,0.747562,-1.88021,-1.66649,0.365317,1.74152,-0.592511, ,0,0,-0,0,0,0,
,0,1606843042,675211984, ,0.747574,-1.88025,-1.66649,0.36528,1.74148,-0.592464, ,0,0,-0,0,0,0,
,0,1606843042,677210680, ,0.747586,-1.88025,-1.6665,0.36528,1.74153,-0.592475, ,0,0,-0,0,0,0,
,0,1606843042,679219828, ,0.747611,-1.88027,-1.66652,0.365233,1.7415,-0.5925, ,0,0,-0,0,0,0,
,0,1606843042,681211371, ,0.747586,-1.88019,-1.6665,0.365268,1.74152,-0.592475, ,0,0,-0,0,0,0,
,0,1606843042,683213657, ,0.747562,-1.88018,-1.66649,0.365256,1.74151,-0.592523, ,0,0,-0,0,0,0,
,0,1606843042,685217719, ,0.747586,-1.88022,-1.66648,0.365268,1.74151,-0.592548, ,0,0,-0,0,0,0,
,0,1606843042,687218284, ,0.747599,-1.88021,-1.66647,0.365292,1.74154,-0.592511, ,0,0,-0,0,0,0,
,0,1606843042,689211656, ,0.747574,-1.88022,-1.66649,0.365245,1.74151,-0.592511, ,0,0,-0,0,0,0,
,0,1606843042,691224244, ,0.747586,-1.88025,-1.66649,0.365245,1.74154,-0.5925, ,0,0,-0,0,0,0,
,0,1606843042,693216034, ,0.747599,-1.88022,-1.6665,0.365317,1.74152,-0.592523, ,0,0,-0,0,0,0,
,0,1606843042,695214024, ,0.747586,-1.88022,-1.66649,0.36528,1.74154,-0.592464, ,0,0,-0,0,0,0,
,0,1606843042,697211746, ,0.747574,-1.88026,-1.66652,0.36522,1.74152,-0.5925, ,0,0,-0,0,0,0,
,0,1606843042,699217750, ,0.747574,-1.88021,-1.6665,0.36522,1.74153,-0.592488, ,0,0,-0,0,0,0,
,0,1606843042,701219207, ,0.747586,-1.88026,-1.66648,0.36528,1.74153,-0.5925, ,0,0,-0,0,0,0,
,0,1606843042,703222655, ,0.747574,-1.88024,-1.6665,0.365292,1.7415,-0.592488, ,0,0,-0,0,0,0,
,0,1606843042,705209262, ,0.747599,-1.88022,-1.6665,0.365245,1.7415,-0.592523, ,0,0,-0,0,0,0,
,0,1606843042,707211426, ,0.747562,-1.8802,-1.6665,0.36528,1.74151,-0.592523, ,0,0,-0,0,0,0,
,0,1606843042,709211375, ,0.747574,-1.8802,-1.66652,0.365268,1.74153,-0.592511, ,0,0,-0,0,0,0,
,0,1606843042,711219902, ,0.747599,-1.88022,-1.66648,0.36528,1.74151,-0.592511, ,0,0,-0,0,0,0,
,0,1606843042,713224683, ,0.747599,-1.88025,-1.6665,0.365268,1.74152,-0.592535, ,0,0,-0,0,0,0,
,0,1606843042,715206570, ,0.747586,-1.88021,-1.66652,0.36528,1.7415,-0.592464, ,0,0,-0,0,0,0,
,0,1606843042,717205889, ,0.747562,-1.88024,-1.66647,0.365256,1.7415,-0.592488, ,0,0,-0,0,0,0,
,0,1606843042,719218420, ,0.747574,-1.88024,-1.66649,0.36528,1.7415,-0.592511, ,0,0,-0,0,0,0,
,0,1606843042,721204423, ,0.747586,-1.88021,-1.66648,0.365245,1.74151,-0.592488, ,0,0,-0,0,0,0,
,0,1606843042,723246176, ,0.747611,-1.88021,-1.6665,0.365256,1.74152,-0.5925, ,0,0,-0,0,0,0,
,0,1606843042,725208832, ,0.747586,-1.88025,-1.66648,0.36522,1.74152,-0.5925, ,0,0,-0,0,0,0,
,0,1606843042,727221204, ,0.747574,-1.88024,-1.66649,0.36528,1.74153,-0.5925, ,0,0,-0,0,0,0,
,0,1606843042,729212624, ,0.747599,-1.88019,-1.66652,0.365233,1.74151,-0.592535, ,0,0,-0,0,0,0,
,0,1606843042,731305876, ,0.74755,-1.88022,-1.66649,0.365317,1.74152,-0.592488, ,0,0,-0,0,0,0,
,0,1606843042,733253251, ,0.747611,-1.8802,-1.6665,0.365292,1.74152,-0.59244, ,0,0,-0,0,0,0,
,0,1606843042,735235433, ,0.747599,-1.88021,-1.66649,0.365256,1.74153,-0.592535, ,0,0,-0,0,0,0,
,0,1606843042,737207265, ,0.747586,-1.88024,-1.66648,0.365268,1.74154,-0.592523, ,0,0,-0,0,0,0,
,0,1606843042,739218504, ,0.747574,-1.88024,-1.66649,0.365268,1.74152,-0.592488, ,0,0,-0,0,0,0,
,0,1606843042,741211629, ,0.747599,-1.88024,-1.6665,0.365256,1.7415,-0.592475, ,0,0,-0,0,0,0,
,0,1606843042,743210671, ,0.747574,-1.88026,-1.6665,0.365245,1.74151,-0.592511, ,0,0,-0,0,0,0,
,0,1606843042,745206229, ,0.74755,-1.88022,-1.66648,0.365233,1.74153,-0.592535, ,0,0,-0,0,0,0,
,0,1606843042,747368581, ,0.747586,-1.88026,-1.66653,0.365256,1.74152,-0.592523, ,0,0,-0,0,0,0,
,0,1606843042,749404688, ,0.747562,-1.88019,-1.66649,0.36528,1.7415,-0.5925, ,0,0,-0,0,0,0,
,0,1606843042,751304259, ,0.747574,-1.88025,-1.66648,0.365233,1.74151,-0.592475, ,0,0,-0,0,0,0,
,0,1606843042,753218506, ,0.747574,-1.88021,-1.66647,0.365268,1.74153,-0.592488, ,0,0,-0,0,0,0,
,0,1606843042,755212079, ,0.747586,-1.88026,-1.66652,0.365256,1.74152,-0.592511, ,0,0,-0,0,0,0,
,0,1606843042,757208308, ,0.747599,-1.88024,-1.66647,0.365268,1.74151,-0.592511, ,0,0,-0,0,0,0,
,0,1606843042,759218321, ,0.747586,-1.8802,-1.66648,0.365245,1.74152,-0.5925, ,0,0,-0,0,0,0,
,0,1606843042,761209914, ,0.747599,-1.88024,-1.6665,0.365256,1.74151,-0.59244, ,0,0,-0,0,0,0,
,0,1606843042,763256910, ,0.747562,-1.8802,-1.6665,0.365245,1.74153,-0.592511, ,0,0,-0,0,0,0,
,0,1606843042,765217099, ,0.747611,-1.88021,-1.66648,0.365304,1.74151,-0.592511, ,0,0,-0,0,0,0,
,0,1606843042,767227019, ,0.747611,-1.88022,-1.66647,0.365245,1.74151,-0.592511, ,0,0,-0,0,0,0,
,0,1606843042,769211904, ,0.747599,-1.88016,-1.66647,0.365304,1.74152,-0.592548, ,0,0,-0,0,0,0,
,0,1606843042,771210409, ,0.747599,-1.88024,-1.66648,0.36528,1.74151,-0.592535, ,0,0,-0,0,0,0,
,0,1606843042,773207706, ,0.747622,-1.8802,-1.6665,0.365292,1.74154,-0.592511, ,0,0,-0,0,0,0,
,0,1606843042,775207803, ,0.747574,-1.88021,-1.66648,0.36528,1.74151,-0.592511, ,0,0,-0,0,0,0,
,0,1606843042,777210040, ,0.747574,-1.88026,-1.6665,0.36528,1.74147,-0.5925, ,0,0,-0,0,0,0,
,0,1606843042,779215795, ,0.747611,-1.8802,-1.66646,0.365292,1.74153,-0.592475, ,0,0,-0,0,0,0,
,0,1606843042,781222398, ,0.747586,-1.88027,-1.6665,0.365292,1.74156,-0.592511, ,0,0,-0,0,0,0,
,0,1606843042,783205033, ,0.747586,-1.88025,-1.66648,0.36528,1.74153,-0.592488, ,0,0,-0,0,0,0,
,0,1606843042,785200235, ,0.747599,-1.88021,-1.66649,0.365292,1.74151,-0.592488, ,0,0,-0,0,0,0,
,0,1606843042,787196418, ,0.747586,-1.88024,-1.66649,0.36528,1.74153,-0.592511, ,0,0,-0,0,0,0,
,0,1606843042,789193861, ,0.747574,-1.88027,-1.66647,0.36528,1.74153,-0.592488, ,0,0,-0,0,0,0,
,0,1606843042,791210650, ,0.747562,-1.88024,-1.66649,0.36522,1.74151,-0.592475, ,0,0,-0,0,0,0,
,0,1606843042,793197229, ,0.747611,-1.88024,-1.66647,0.365292,1.74151,-0.592488, ,0,0,-0,0,0,0,
,0,1606843042,795202222, ,0.747562,-1.88026,-1.66649,0.365268,1.74152,-0.592511, ,0,0,-0,0,0,0,
,0,1606843042,797211374, ,0.747574,-1.88019,-1.66649,0.36522,1.74152,-0.592464, ,0,0,-0,0,0,0,
,0,1606843042,799212086, ,0.747599,-1.88026,-1.6665,0.365268,1.74152,-0.592488, ,0,0,-0,0,0,0,
,0,1606843042,801202477, ,0.747562,-1.88025,-1.66648,0.365304,1.74151,-0.592511, ,0,0,-0,0,0,0,
,0,1606843042,803208353, ,0.747599,-1.88022,-1.66647,0.365245,1.74157,-0.592523, ,0,0,-0,0,0,0,
,0,1606843042,805210689, ,0.747599,-1.88024,-1.66648,0.365256,1.74153,-0.592464, ,0,0,-0,0,0,0,
,0,1606843042,807207531, ,0.747622,-1.88021,-1.6665,0.365245,1.74153,-0.592475, ,0,0,-0,0,0,0,
,0,1606843042,809200638, ,0.747599,-1.8802,-1.6665,0.365292,1.74154,-0.592523, ,0,0,-0,0,0,0,
,0,1606843042,811227329, ,0.747574,-1.8802,-1.6665,0.36522,1.74151,-0.592523, ,0,0,-0,0,0,0,
,0,1606843042,813227208, ,0.747599,-1.88021,-1.66647,0.365256,1.74151,-0.5925, ,0,0,-0,0,0,0,
,0,1606843042,815215650, ,0.747574,-1.88024,-1.66648,0.36528,1.74152,-0.5925, ,0,0,-0,0,0,0,
,0,1606843042,817203190, ,0.747586,-1.88024,-1.66647,0.365256,1.74152,-0.592464, ,0,0,-0,0,0,0,
,0,1606843042,819221150, ,0.747586,-1.88025,-1.66648,0.365292,1.74154,-0.592511, ,0,0,-0,0,0,0,
,0,1606843042,821209073, ,0.747611,-1.8802,-1.66649,0.365268,1.74151,-0.592511, ,0,0,-0,0,0,0,
,0,1606843042,823210057, ,0.747562,-1.88022,-1.66647,0.365256,1.74152,-0.592535, ,0,0,-0,0,0,0,
,0,1606843042,825216499, ,0.747586,-1.88021,-1.66649,0.365268,1.74151,-0.592535, ,0,0,-0,0,0,0,
,0,1606843042,827221396, ,0.747586,-1.88026,-1.66649,0.365328,1.74152,-0.5925, ,0,0,-0,0,0,0,
,0,1606843042,829216921, ,0.747562,-1.88025,-1.6665,0.365292,1.74154,-0.592511, ,0,0,-0,0,0,0,
,0,1606843042,831215143, ,0.747622,-1.88024,-1.66652,0.365268,1.74151,-0.592488, ,0,0,-0,0,0,0,
,0,1606843042,833212825, ,0.747586,-1.88021,-1.6665,0.365256,1.74151,-0.5925, ,0,0,-0,0,0,0,
,0,1606843042,835225738, ,0.747574,-1.88021,-1.6665,0.365256,1.74152,-0.592535, ,0,0,-0,0,0,0,
,0,1606843042,837203684, ,0.747611,-1.88022,-1.66647,0.365256,1.74152,-0.592464, ,0,0,-0,0,0,0,
,0,1606843042,839214525, ,0.747599,-1.88021,-1.6665,0.36528,1.74154,-0.592511, ,0,0,-0,0,0,0,
,0,1606843042,841207537, ,0.747586,-1.88024,-1.66652,0.365233,1.74148,-0.592488, ,0,0,-0,0,0,0,
,0,1606843042,843214203, ,0.747562,-1.88021,-1.66648,0.365245,1.74153,-0.592511, ,0,0,-0,0,0,0,
,0,1606843042,845206137, ,0.747562,-1.88026,-1.66648,0.365256,1.7415,-0.592535, ,0,0,-0,0,0,0,
,0,1606843042,847285931, ,0.747599,-1.88024,-1.66649,0.365256,1.74152,-0.592464, ,0,0,-0,0,0,0,
,0,1606843042,849239344, ,0.747574,-1.88024,-1.66647,0.365268,1.74152,-0.592511, ,0,0,-0,0,0,0,
,0,1606843042,851219166, ,0.747599,-1.88026,-1.66652,0.36528,1.74153,-0.592511, ,0,0,-0,0,0,0,
,0,1606843042,853208254, ,0.747586,-1.88024,-1.66648,0.365268,1.74153,-0.592535, ,0,0,-0,0,0,0,
,0,1606843042,855222121, ,0.747611,-1.88021,-1.66652,0.365292,1.74154,-0.592511, ,0,0,-0,0,0,0,
,0,1606843042,857214927, ,0.747586,-1.88025,-1.66652,0.365245,1.7415,-0.592488, ,0,0,-0,0,0,0,
,0,1606843042,859212286, ,0.747574,-1.88024,-1.6665,0.36528,1.7415,-0.592488, ,0,0,-0,0,0,0,
,0,1606843042,861207507, ,0.747586,-1.88025,-1.6665,0.365256,1.74152,-0.592451, ,0,0,-0,0,0,0,
,0,1606843042,863212226, ,0.747574,-1.88025,-1.66655,0.365304,1.7415,-0.592488, ,0,0,-0,0,0,0,
,0,1606843042,865207347, ,0.747586,-1.88019,-1.6665,0.365304,1.7415,-0.592475, ,0,0,-0,0,0,0,
,0,1606843042,867208638, ,0.747586,-1.88018,-1.66649,0.36522,1.7415,-0.592475, ,0,0,-0,0,0,0,
,0,1606843042,869212926, ,0.747622,-1.88022,-1.66647,0.365268,1.74151,-0.592511, ,0,0,-0,0,0,0,
,0,1606843042,871219848, ,0.747562,-1.88022,-1.66652,0.365245,1.7415,-0.592535, ,0,0,-0,0,0,0,
,0,1606843042,873215785, ,0.747586,-1.88027,-1.6665,0.365292,1.74153,-0.5925, ,0,0,-0,0,0,0,
,0,1606843042,875216643, ,0.747586,-1.88022,-1.66649,0.365245,1.74151,-0.592523, ,0,0,-0,0,0,0,
,0,1606843042,877205516, ,0.747586,-1.8802,-1.66648,0.365268,1.74153,-0.592535, ,0,0,-0,0,0,0,
,0,1606843042,879211471, ,0.747611,-1.88022,-1.66649,0.365245,1.74153,-0.592548, ,0,0,-0,0,0,0,
,0,1606843042,881208130, ,0.747599,-1.88026,-1.66649,0.365292,1.74153,-0.592511, ,0,0,-0,0,0,0,
,0,1606843042,883206223, ,0.74755,-1.88024,-1.6665,0.365256,1.74154,-0.592464, ,0,0,-0,0,0,0,
,0,1606843042,885209403, ,0.747574,-1.88024,-1.66648,0.36528,1.74152,-0.592464, ,0,0,-0,0,0,0,
,0,1606843042,887214898, ,0.747599,-1.88024,-1.6665,0.365233,1.74152,-0.5925, ,0,0,-0,0,0,0,
,0,1606843042,889201976, ,0.747574,-1.88021,-1.66652,0.365292,1.74151,-0.5925, ,0,0,-0,0,0,0,
,0,1606843042,891229563, ,0.747562,-1.88022,-1.66652,0.365245,1.7415,-0.592511, ,0,0,-0,0,0,0,
,0,1606843042,893209182, ,0.747574,-1.88025,-1.6665,0.365292,1.74152,-0.592511, ,0,0,-0,0,0,0,
,0,1606843042,895220598, ,0.747586,-1.8802,-1.66649,0.365328,1.74148,-0.592464, ,0,0,-0,0,0,0,
,0,1606843042,897207156, ,0.747574,-1.88026,-1.66649,0.365268,1.7415,-0.592451, ,0,0,-0,0,0,0,
,0,1606843042,899211918, ,0.747562,-1.88024,-1.66649,0.365268,1.74152,-0.592475, ,0,0,-0,0,0,0,
,0,1606843042,901212976, ,0.747586,-1.88024,-1.66649,0.365304,1.7415,-0.592511, ,0,0,-0,0,0,0,
,0,1606843042,903204175, ,0.747574,-1.88024,-1.66649,0.36528,1.74152,-0.5925, ,0,0,-0,0,0,0,
,0,1606843042,905211800, ,0.747599,-1.88025,-1.66647,0.365245,1.74151,-0.592511, ,0,0,-0,0,0,0,
,0,1606843042,907211905, ,0.747574,-1.8802,-1.6665,0.365245,1.74152,-0.592488, ,0,0,-0,0,0,0,
,0,1606843042,909209515, ,0.747599,-1.88022,-1.66649,0.365292,1.74151,-0.592511, ,0,0,-0,0,0,0,
,0,1606843042,911225527, ,0.747562,-1.88024,-1.66652,0.365245,1.74152,-0.5925, ,0,0,-0,0,0,0,
,0,1606843042,913236795, ,0.747574,-1.88024,-1.66648,0.365245,1.74152,-0.592475, ,0,0,-0,0,0,0,
,0,1606843042,915201016, ,0.747611,-1.88024,-1.66649,0.365268,1.74151,-0.5925, ,0,0,-0,0,0,0,
,0,1606843042,917204323, ,0.747574,-1.88022,-1.66647,0.365268,1.74151,-0.592523, ,0,0,-0,0,0,0,
,0,1606843042,919200835, ,0.747538,-1.88026,-1.6665,0.365268,1.74151,-0.592464, ,0,0,-0,0,0,0,
,0,1606843042,921197088, ,0.747574,-1.88022,-1.66648,0.36528,1.74151,-0.592488, ,0,0,-0,0,0,0,
,0,1606843042,923205489, ,0.747586,-1.8802,-1.66649,0.365256,1.74152,-0.592511, ,0,0,-0,0,0,0,
,0,1606843042,925212932, ,0.747586,-1.88022,-1.66653,0.365256,1.7415,-0.5925, ,0,0,-0,0,0,0,
,0,1606843042,927198684, ,0.747586,-1.88024,-1.66648,0.36528,1.74152,-0.592451, ,0,0,-0,0,0,0,
,0,1606843042,929194449, ,0.747599,-1.88025,-1.66648,0.365292,1.74152,-0.592488, ,0,0,-0,0,0,0,
,0,1606843042,931188302, ,0.747599,-1.88024,-1.66648,0.365268,1.74157,-0.592475, ,0,0,-0,0,0,0,
,0,1606843042,933207687, ,0.747599,-1.88018,-1.66648,0.365245,1.74152,-0.5925, ,0,0,-0,0,0,0,
,0,1606843042,935210898, ,0.747574,-1.88021,-1.66648,0.365317,1.74154,-0.592488, ,0,0,-0,0,0,0,
,0,1606843042,937210030, ,0.747586,-1.88021,-1.66648,0.365292,1.7415,-0.592475, ,0,0,-0,0,0,0,
,0,1606843042,939217463, ,0.747599,-1.88027,-1.6665,0.365256,1.74151,-0.592511, ,0,0,-0,0,0,0,
,0,1606843042,941207462, ,0.747599,-1.8802,-1.66652,0.365233,1.74153,-0.592511, ,0,0,-0,0,0,0,
,0,1606843042,943214058, ,0.747574,-1.88021,-1.6665,0.365304,1.74154,-0.5925, ,0,0,-0,0,0,0,
,0,1606843042,945222337, ,0.747599,-1.88021,-1.66648,0.36528,1.74151,-0.592511, ,0,0,-0,0,0,0,
,0,1606843042,947250065, ,0.747611,-1.88024,-1.66648,0.365233,1.7415,-0.5925, ,0,0,-0,0,0,0,
,0,1606843042,949281653, ,0.747562,-1.88018,-1.66648,0.36528,1.74153,-0.592488, ,0,0,-0,0,0,0,
,0,1606843042,951263665, ,0.747611,-1.88019,-1.66648,0.36528,1.7415,-0.592488, ,0,0,-0,0,0,0,
,0,1606843042,953215927, ,0.747611,-1.88024,-1.66648,0.365256,1.74154,-0.592488, ,0,0,-0,0,0,0,
,0,1606843042,955208365, ,0.747611,-1.88024,-1.66649,0.365233,1.7415,-0.592488, ,0,0,-0,0,0,0,
,0,1606843042,957219547, ,0.747586,-1.88022,-1.66649,0.365292,1.74154,-0.592488, ,0,0,-0,0,0,0,
,0,1606843042,959203165, ,0.747611,-1.88021,-1.6665,0.365292,1.74154,-0.592523, ,0,0,-0,0,0,0,
,0,1606843042,961230883, ,0.747586,-1.88022,-1.66652,0.36528,1.74153,-0.592475, ,0,0,-0,0,0,0,
,0,1606843042,963210747, ,0.747574,-1.88021,-1.6665,0.365292,1.74152,-0.592464, ,0,0,-0,0,0,0,
,0,1606843042,965197572, ,0.747586,-1.8802,-1.6665,0.36528,1.74152,-0.592511, ,0,0,-0,0,0,0,
,0,1606843042,967203702, ,0.747586,-1.88021,-1.6665,0.365268,1.74156,-0.592475, ,0,0,-0,0,0,0,
,0,1606843042,969217998, ,0.747574,-1.88025,-1.66649,0.365256,1.74152,-0.5925, ,0,0,-0,0,0,0,
,0,1606843042,971205478, ,0.747586,-1.88022,-1.66652,0.365292,1.74152,-0.5925, ,0,0,-0,0,0,0,
,0,1606843042,973259667, ,0.747574,-1.8802,-1.66648,0.365208,1.74154,-0.592511, ,0,0,-0,0,0,0,
,0,1606843042,975211582, ,0.747586,-1.88026,-1.6665,0.365256,1.74153,-0.592488, ,0,0,-0,0,0,0,
,0,1606843042,977216065, ,0.747586,-1.8802,-1.66647,0.365256,1.74153,-0.592523, ,0,0,-0,0,0,0,
,0,1606843042,979217573, ,0.747599,-1.88021,-1.66647,0.36528,1.74151,-0.592535, ,0,0,-0,0,0,0,
,0,1606843042,981217826, ,0.747574,-1.8802,-1.66652,0.36528,1.74153,-0.592511, ,0,0,-0,0,0,0,
,0,1606843042,983213739, ,0.747562,-1.88019,-1.6665,0.365292,1.74151,-0.592559, ,0,0,-0,0,0,0,
,0,1606843042,985212366, ,0.747574,-1.88021,-1.66649,0.365268,1.74151,-0.592523, ,0,0,-0,0,0,0,
,0,1606843042,987200852, ,0.747562,-1.88024,-1.6665,0.365292,1.74154,-0.592523, ,0,0,-0,0,0,0,
,0,1606843042,989207981, ,0.747611,-1.88025,-1.6665,0.365245,1.74153,-0.592488, ,0,0,-0,0,0,0,
,0,1606843042,991202171, ,0.747574,-1.88024,-1.6665,0.365256,1.74153,-0.592475, ,0,0,-0,0,0,0,
,0,1606843042,993199298, ,0.747586,-1.88026,-1.6665,0.365245,1.7415,-0.592523, ,0,0,-0,0,0,0,
,0,1606843042,995203611, ,0.747562,-1.88022,-1.66649,0.365256,1.74151,-0.5925, ,0,0,-0,0,0,0,
,0,1606843042,997204103, ,0.747574,-1.88022,-1.66649,0.365256,1.74154,-0.592511, ,0,0,-0,0,0,0,
,0,1606843042,999198883, ,0.747611,-1.88021,-1.6665,0.36528,1.74152,-0.592511, ,0,0,-0,0,0,0,
,0,1606843043,1205211, ,0.747599,-1.88021,-1.66648,0.365268,1.74154,-0.592523, ,0,0,-0,0,0,0,
,0,1606843043,3217015, ,0.747574,-1.88025,-1.66652,0.365245,1.74151,-0.592511, ,0,0,-0,0,0,0,
,0,1606843043,5196353, ,0.747611,-1.8803,-1.66652,0.36528,1.7415,-0.592523, ,0,0,-0,0,0,0,
,0,1606843043,7201129, ,0.747574,-1.88025,-1.66646,0.365256,1.74152,-0.592511, ,0,0,-0,0,0,0,
,0,1606843043,9201266, ,0.747586,-1.88024,-1.6665,0.36528,1.74152,-0.592464, ,0,0,-0,0,0,0,
,0,1606843043,11199998, ,0.747574,-1.88021,-1.6665,0.365292,1.74153,-0.592535, ,0,0,-0,0,0,0,
,0,1606843043,13243723, ,0.747574,-1.88027,-1.6665,0.365233,1.74151,-0.592523, ,0,0,-0,0,0,0,
,0,1606843043,15213369, ,0.747586,-1.8802,-1.66652,0.365245,1.74153,-0.592488, ,0,0,-0,0,0,0,
,0,1606843043,17213937, ,0.747611,-1.88024,-1.6665,0.365292,1.74151,-0.5925, ,0,0,-0,0,0,0,
,0,1606843043,19212878, ,0.747586,-1.88027,-1.66649,0.365245,1.74152,-0.592511, ,0,0,-0,0,0,0,
,0,1606843043,21204495, ,0.747586,-1.88024,-1.6665,0.365245,1.74148,-0.5925, ,0,0,-0,0,0,0,
,0,1606843043,23203026, ,0.747586,-1.88022,-1.66648,0.365233,1.74151,-0.5925, ,0,0,-0,0,0,0,
,0,1606843043,25191377, ,0.747562,-1.88024,-1.66647,0.365268,1.74148,-0.592511, ,0,0,-0,0,0,0,
,0,1606843043,27196427, ,0.747586,-1.88021,-1.66647,0.365292,1.74151,-0.592475, ,0,0,-0,0,0,0,
,0,1606843043,29190149, ,0.74755,-1.8802,-1.66647,0.365328,1.74152,-0.592535, ,0,0,-0,0,0,0,
,0,1606843043,31209137, ,0.747599,-1.88021,-1.6665,0.365245,1.74153,-0.592488, ,0,0,-0,0,0,0,
,0,1606843043,33207260, ,0.747574,-1.88021,-1.66652,0.36522,1.74156,-0.592511, ,0,0,-0,0,0,0,
,0,1606843043,35211443, ,0.747622,-1.88025,-1.66648,0.365292,1.74152,-0.592548, ,0,0,-0,0,0,0,
,0,1606843043,37208966, ,0.747574,-1.88022,-1.6665,0.365245,1.74152,-0.592535, ,0,0,-0,0,0,0,
,0,1606843043,39205686, ,0.747586,-1.88022,-1.66648,0.365256,1.74156,-0.592523, ,0,0,-0,0,0,0,
,0,1606843043,41189692, ,0.747562,-1.88022,-1.66652,0.365292,1.74151,-0.5925, ,0,0,-0,0,0,0,
,0,1606843043,43192698, ,0.747622,-1.88025,-1.66648,0.365256,1.7415,-0.5925, ,0,0,-0,0,0,0,
,0,1606843043,45201963, ,0.747586,-1.8802,-1.6665,0.36528,1.74152,-0.592559, ,0,0,-0,0,0,0,
,0,1606843043,47213596, ,0.747562,-1.88021,-1.66649,0.365256,1.74151,-0.592475, ,0,0,-0,0,0,0,
,0,1606843043,49288489, ,0.747574,-1.88021,-1.66649,0.365304,1.74156,-0.592523, ,0,0,-0,0,0,0,
,0,1606843043,51275670, ,0.747611,-1.88025,-1.6665,0.365268,1.74151,-0.592488, ,0,0,-0,0,0,0,
,0,1606843043,53207707, ,0.747622,-1.8802,-1.66649,0.365233,1.74152,-0.592511, ,0,0,-0,0,0,0,
,0,1606843043,55206477, ,0.747574,-1.88022,-1.66649,0.365256,1.74152,-0.592548, ,0,0,-0,0,0,0,
,0,1606843043,57210503, ,0.747599,-1.88021,-1.66649,0.365268,1.74156,-0.592464, ,0,0,-0,0,0,0,
,0,1606843043,59207367, ,0.747574,-1.88022,-1.66653,0.365256,1.74154,-0.592523, ,0,0,-0,0,0,0,
,0,1606843043,61215189, ,0.747599,-1.88019,-1.66649,0.36528,1.74151,-0.592488, ,0,0,-0,0,0,0,
,0,1606843043,63210984, ,0.747599,-1.88022,-1.6665,0.365245,1.74152,-0.592451, ,0,0,-0,0,0,0,
,0,1606843043,65212899, ,0.747586,-1.88022,-1.66652,0.36528,1.74148,-0.592488, ,0,0,-0,0,0,0,
,0,1606843043,67215378, ,0.747586,-1.88022,-1.66647,0.365268,1.7415,-0.592548, ,0,0,-0,0,0,0,
,0,1606843043,69213907, ,0.747599,-1.88021,-1.6665,0.365292,1.74151,-0.592488, ,0,0,-0,0,0,0,
,0,1606843043,71209387, ,0.747611,-1.8802,-1.66649,0.365233,1.74152,-0.592523, ,0,0,-0,0,0,0,
,0,1606843043,73215345, ,0.747599,-1.88025,-1.66647,0.365268,1.74151,-0.592523, ,0,0,-0,0,0,0,
,0,1606843043,75204924, ,0.747574,-1.88025,-1.66648,0.365268,1.74152,-0.592488, ,0,0,-0,0,0,0,
,0,1606843043,77213548, ,0.747586,-1.88024,-1.66649,0.365245,1.74157,-0.5925, ,0,0,-0,0,0,0,
,0,1606843043,79214562, ,0.747562,-1.88021,-1.6665,0.36528,1.74152,-0.592464, ,0,0,-0,0,0,0,
,0,1606843043,81206052, ,0.747574,-1.88022,-1.66649,0.365268,1.7415,-0.5925, ,0,0,-0,0,0,0,
,0,1606843043,83213267, ,0.747562,-1.88025,-1.66648,0.365233,1.74151,-0.592475, ,0,0,-0,0,0,0,
,0,1606843043,85210720, ,0.747574,-1.8802,-1.66649,0.36528,1.74148,-0.592475, ,0,0,-0,0,0,0,
,0,1606843043,87213389, ,0.747611,-1.88024,-1.6665,0.365245,1.74153,-0.592488, ,0,0,-0,0,0,0,
,0,1606843043,89206757, ,0.747586,-1.88024,-1.66649,0.36528,1.7415,-0.592488, ,0,0,-0,0,0,0,
,0,1606843043,91228784, ,0.747611,-1.88024,-1.66649,0.365292,1.74152,-0.592548, ,0,0,-0,0,0,0,
,0,1606843043,93204430, ,0.747599,-1.88022,-1.66652,0.365245,1.74152,-0.5925, ,0,0,-0,0,0,0,
,0,1606843043,95215315, ,0.747574,-1.88021,-1.6665,0.365268,1.74151,-0.592511, ,0,0,-0,0,0,0,
,0,1606843043,97221221, ,0.747586,-1.88024,-1.6665,0.365268,1.74152,-0.592535, ,0,0,-0,0,0,0,
,0,1606843043,99210608, ,0.747586,-1.88024,-1.66647,0.365233,1.74151,-0.592488, ,0,0,-0,0,0,0,
,0,1606843043,101214810, ,0.747562,-1.88024,-1.66652,0.365256,1.7415,-0.592464, ,0,0,-0,0,0,0,
,0,1606843043,103209628, ,0.747599,-1.88021,-1.66647,0.365268,1.74151,-0.592511, ,0,0,-0,0,0,0,
,0,1606843043,105204272, ,0.747586,-1.88024,-1.66652,0.365256,1.74152,-0.592488, ,0,0,-0,0,0,0,
,0,1606843043,107206430, ,0.747586,-1.88019,-1.66649,0.36528,1.74154,-0.592511, ,0,0,-0,0,0,0,
,0,1606843043,109211490, ,0.747574,-1.88022,-1.66647,0.365256,1.74152,-0.592511, ,0,0,-0,0,0,0,
,0,1606843043,111224858, ,0.747611,-1.8802,-1.6665,0.365256,1.74151,-0.592475, ,0,0,-0,0,0,0,
,0,1606843043,113254544, ,0.747562,-1.88025,-1.6665,0.365268,1.74151,-0.5925, ,0,0,-0,0,0,0,
,0,1606843043,115209730, ,0.747586,-1.88025,-1.66652,0.365268,1.74153,-0.592464, ,0,0,-0,0,0,0,
,0,1606843043,117214640, ,0.747586,-1.88019,-1.66648,0.365245,1.74156,-0.592475, ,0,0,-0,0,0,0,
,0,1606843043,119219874, ,0.747599,-1.88022,-1.66647,0.36528,1.74148,-0.592511, ,0,0,-0,0,0,0,
,0,1606843043,121206915, ,0.747599,-1.88021,-1.66649,0.365245,1.74152,-0.592511, ,0,0,-0,0,0,0,
,0,1606843043,123207074, ,0.747574,-1.88021,-1.66647,0.365292,1.74153,-0.592535, ,0,0,-0,0,0,0,
,0,1606843043,125211204, ,0.747586,-1.88026,-1.66648,0.365304,1.74152,-0.592488, ,0,0,-0,0,0,0,
,0,1606843043,127213998, ,0.747562,-1.88021,-1.66648,0.365304,1.74154,-0.592475, ,0,0,-0,0,0,0,
,0,1606843043,129201193, ,0.747574,-1.88021,-1.6665,0.365268,1.74153,-0.592451, ,0,0,-0,0,0,0,
,0,1606843043,131209899, ,0.747599,-1.88021,-1.6665,0.365304,1.74156,-0.592475, ,0,0,-0,0,0,0,
,0,1606843043,133205233, ,0.747599,-1.88027,-1.66646,0.365245,1.74151,-0.592548, ,0,0,-0,0,0,0,
,0,1606843043,135222807, ,0.747586,-1.88024,-1.66648,0.365256,1.74148,-0.592511, ,0,0,-0,0,0,0,
,0,1606843043,137209428, ,0.747586,-1.88022,-1.66648,0.365304,1.74154,-0.592511, ,0,0,-0,0,0,0,
,0,1606843043,139213537, ,0.747562,-1.88022,-1.66647,0.365304,1.7415,-0.592464, ,0,0,-0,0,0,0,
,0,1606843043,141205315, ,0.747599,-1.88024,-1.66648,0.365245,1.7415,-0.592523, ,0,0,-0,0,0,0,
,0,1606843043,143202497, ,0.747562,-1.88021,-1.66652,0.365292,1.74152,-0.592464, ,0,0,-0,0,0,0,
,0,1606843043,145213264, ,0.747599,-1.88022,-1.66649,0.365245,1.7415,-0.5925, ,0,0,-0,0,0,0,
,0,1606843043,147214637, ,0.747599,-1.88021,-1.66647,0.365268,1.74154,-0.592488, ,0,0,-0,0,0,0,
,0,1606843043,149292841, ,0.747611,-1.88024,-1.6665,0.36528,1.74151,-0.592511, ,0,0,-0,0,0,0,
,0,1606843043,151216916, ,0.747611,-1.88026,-1.66649,0.365292,1.74151,-0.592535, ,0,0,-0,0,0,0,
,0,1606843043,153223455, ,0.747574,-1.88024,-1.6665,0.365268,1.7415,-0.592475, ,0,0,-0,0,0,0,
,0,1606843043,155214613, ,0.747611,-1.88024,-1.66652,0.36528,1.7415,-0.592511, ,0,0,-0,0,0,0,
,0,1606843043,157209782, ,0.747586,-1.88021,-1.66649,0.36528,1.74151,-0.5925, ,0,0,-0,0,0,0,
,0,1606843043,159202434, ,0.747599,-1.88019,-1.6665,0.365245,1.74151,-0.592523, ,0,0,-0,0,0,0,
,0,1606843043,161198111, ,0.747611,-1.88022,-1.6665,0.36528,1.74151,-0.592523, ,0,0,-0,0,0,0,
,0,1606843043,163205878, ,0.747562,-1.88021,-1.66649,0.365256,1.74151,-0.592475, ,0,0,-0,0,0,0,
,0,1606843043,165206211, ,0.747599,-1.88025,-1.6665,0.36528,1.74153,-0.5925, ,0,0,-0,0,0,0,
,0,1606843043,167199899, ,0.747574,-1.88025,-1.66649,0.365245,1.74148,-0.592511, ,0,0,-0,0,0,0,
,0,1606843043,169208737, ,0.747574,-1.88022,-1.66648,0.365268,1.74152,-0.592511, ,0,0,-0,0,0,0,
,0,1606843043,171207981, ,0.747599,-1.88022,-1.6665,0.365245,1.74153,-0.592511, ,0,0,-0,0,0,0,
,0,1606843043,173207837, ,0.747562,-1.88025,-1.66649,0.365317,1.74152,-0.5925, ,0,0,-0,0,0,0,
,0,1606843043,175211161, ,0.747599,-1.88021,-1.66649,0.365304,1.74154,-0.592535, ,0,0,-0,0,0,0,
,0,1606843043,177216617, ,0.747599,-1.88025,-1.66653,0.365268,1.74152,-0.592511, ,0,0,-0,0,0,0,
,0,1606843043,179214240, ,0.747622,-1.88022,-1.66649,0.365292,1.74151,-0.592511, ,0,0,-0,0,0,0,
,0,1606843043,181223234, ,0.747611,-1.8802,-1.6665,0.36528,1.74153,-0.5925, ,0,0,-0,0,0,0,
,0,1606843043,183219374, ,0.747586,-1.88021,-1.6665,0.365268,1.7415,-0.592475, ,0,0,-0,0,0,0,
,0,1606843043,185209208, ,0.747622,-1.88021,-1.66652,0.365256,1.74151,-0.592475, ,0,0,-0,0,0,0,
,0,1606843043,187208247, ,0.747574,-1.88021,-1.66648,0.365268,1.74152,-0.592548, ,0,0,-0,0,0,0,
,0,1606843043,189201789, ,0.747599,-1.88019,-1.66649,0.365256,1.74152,-0.592523, ,0,0,-0,0,0,0,
,0,1606843043,191213887, ,0.747611,-1.88021,-1.66649,0.365268,1.74152,-0.592475, ,0,0,-0,0,0,0,
,0,1606843043,193204738, ,0.747586,-1.88024,-1.66653,0.365304,1.74152,-0.592523, ,0,0,-0,0,0,0,
,0,1606843043,195204492, ,0.747574,-1.8802,-1.66649,0.365245,1.74154,-0.592475, ,0,0,-0,0,0,0,
,0,1606843043,197203423, ,0.747574,-1.88025,-1.6665,0.36528,1.74148,-0.5925, ,0,0,-0,0,0,0,
,0,1606843043,199208461, ,0.747574,-1.8802,-1.66647,0.36528,1.74154,-0.592488, ,0,0,-0,0,0,0,
,0,1606843043,201216181, ,0.747574,-1.88022,-1.66647,0.365304,1.74152,-0.592488, ,0,0,-0,0,0,0,
,0,1606843043,203209301, ,0.747586,-1.88021,-1.66652,0.365268,1.74152,-0.5925, ,0,0,-0,0,0,0,
,0,1606843043,205198414, ,0.747599,-1.88022,-1.66652,0.365256,1.7415,-0.592475, ,0,0,-0,0,0,0,
,0,1606843043,207205334, ,0.747599,-1.88021,-1.66649,0.365304,1.74152,-0.592511, ,0,0,-0,0,0,0,
,0,1606843043,209197380, ,0.747574,-1.88021,-1.6665,0.365233,1.74153,-0.592535, ,0,0,-0,0,0,0,
,0,1606843043,211218035, ,0.747599,-1.88021,-1.66646,0.365233,1.74153,-0.5925, ,0,0,-0,0,0,0,
,0,1606843043,213234302, ,0.747599,-1.88022,-1.66649,0.365256,1.7415,-0.592488, ,0,0,-0,0,0,0,
,0,1606843043,215212287, ,0.747562,-1.88022,-1.66647,0.36528,1.7415,-0.592523, ,0,0,-0,0,0,0,
,0,1606843043,217198208, ,0.747562,-1.88019,-1.66649,0.365256,1.74152,-0.592511, ,0,0,-0,0,0,0,
,0,1606843043,219201171, ,0.74755,-1.88021,-1.6665,0.365268,1.74152,-0.592511, ,0,0,-0,0,0,0,
,0,1606843043,221198959, ,0.747574,-1.8803,-1.66652,0.365245,1.74153,-0.592548, ,0,0,-0,0,0,0,
,0,1606843043,223239217, ,0.747586,-1.8802,-1.66649,0.36528,1.74151,-0.592464, ,0,0,-0,0,0,0,
,0,1606843043,225201773, ,0.747599,-1.88021,-1.6665,0.365317,1.74153,-0.592488, ,0,0,-0,0,0,0,
,0,1606843043,227200811, ,0.74755,-1.8802,-1.66648,0.365256,1.74152,-0.592511, ,0,0,-0,0,0,0,
,0,1606843043,229199468, ,0.747562,-1.88021,-1.66648,0.365256,1.74153,-0.592511, ,0,0,-0,0,0,0,
,0,1606843043,231204678, ,0.747586,-1.88026,-1.66649,0.365245,1.74151,-0.592523, ,0,0,-0,0,0,0,
,0,1606843043,233204371, ,0.747574,-1.88022,-1.66646,0.365268,1.7415,-0.592464, ,0,0,-0,0,0,0,
,0,1606843043,235198971, ,0.747599,-1.88022,-1.66648,0.365268,1.74151,-0.5925, ,0,0,-0,0,0,0,
,0,1606843043,237192229, ,0.747586,-1.88022,-1.66648,0.365245,1.74151,-0.592464, ,0,0,-0,0,0,0,
,0,1606843043,239205033, ,0.747611,-1.88025,-1.66649,0.365292,1.74152,-0.592511, ,0,0,-0,0,0,0,
,0,1606843043,241193074, ,0.747586,-1.88021,-1.66649,0.36528,1.74156,-0.592535, ,0,0,-0,0,0,0,
,0,1606843043,243205436, ,0.747562,-1.88021,-1.66648,0.365292,1.74151,-0.592464, ,0,0,-0,0,0,0,
,0,1606843043,245201586, ,0.747574,-1.88021,-1.66647,0.36528,1.7415,-0.592464, ,0,0,-0,0,0,0,
,0,1606843043,247207921, ,0.747599,-1.88025,-1.6665,0.365268,1.74152,-0.592464, ,0,0,-0,0,0,0,
,0,1606843043,249278023, ,0.747599,-1.88027,-1.66649,0.365304,1.74148,-0.5925, ,0,0,-0,0,0,0,
,0,1606843043,251217902, ,0.74755,-1.88022,-1.66647,0.365268,1.74153,-0.5925, ,0,0,-0,0,0,0,
,0,1606843043,253211092, ,0.747574,-1.88021,-1.66649,0.365245,1.74148,-0.592511, ,0,0,-0,0,0,0,
,0,1606843043,255198695, ,0.747599,-1.88019,-1.66648,0.365317,1.74153,-0.592535, ,0,0,-0,0,0,0,
,0,1606843043,257211782, ,0.747574,-1.88024,-1.66649,0.365256,1.74154,-0.5925, ,0,0,-0,0,0,0,
,0,1606843043,259198645, ,0.747562,-1.88024,-1.66649,0.365245,1.74154,-0.5925, ,0,0,-0,0,0,0,
,0,1606843043,261199965, ,0.747586,-1.88021,-1.66649,0.36528,1.74154,-0.592523, ,0,0,-0,0,0,0,
,0,1606843043,263195523, ,0.747574,-1.8802,-1.6665,0.365304,1.7415,-0.592475, ,0,0,-0,0,0,0,
,0,1606843043,265196831, ,0.747562,-1.88021,-1.66649,0.36528,1.74153,-0.592511, ,0,0,-0,0,0,0,
,0,1606843043,267203559, ,0.747599,-1.88022,-1.66648,0.36528,1.74157,-0.592464, ,0,0,-0,0,0,0,
,0,1606843043,269199632, ,0.747562,-1.88022,-1.66647,0.365256,1.74152,-0.592475, ,0,0,-0,0,0,0,
,0,1606843043,271206240, ,0.747574,-1.88021,-1.66652,0.36528,1.74151,-0.592511, ,0,0,-0,0,0,0,
,0,1606843043,273197688, ,0.747599,-1.8802,-1.66649,0.365256,1.74148,-0.592523, ,0,0,-0,0,0,0,
,0,1606843043,275201208, ,0.747586,-1.88022,-1.66652,0.365328,1.74152,-0.592488, ,0,0,-0,0,0,0,
,0,1606843043,277195870, ,0.747586,-1.88019,-1.66652,0.36528,1.74152,-0.592488, ,0,0,-0,0,0,0,
,0,1606843043,279199432, ,0.747611,-1.88022,-1.6665,0.365256,1.74152,-0.5925, ,0,0,-0,0,0,0,
,0,1606843043,281211554, ,0.747574,-1.88021,-1.66649,0.365304,1.74151,-0.592511, ,0,0,-0,0,0,0,
,0,1606843043,283229138, ,0.747586,-1.88024,-1.6665,0.365268,1.74152,-0.592511, ,0,0,-0,0,0,0,
,0,1606843043,285214989, ,0.747562,-1.88021,-1.66647,0.365317,1.74153,-0.592523, ,0,0,-0,0,0,0,
,0,1606843043,287202968, ,0.747599,-1.8802,-1.66652,0.365233,1.74151,-0.592488, ,0,0,-0,0,0,0,
,0,1606843043,289208661, ,0.747574,-1.88024,-1.66646,0.365268,1.74151,-0.592523, ,0,0,-0,0,0,0,
,0,1606843043,291199660, ,0.747599,-1.88025,-1.66647,0.365304,1.74152,-0.5925, ,0,0,-0,0,0,0,
,0,1606843043,293198680, ,0.747574,-1.88021,-1.66647,0.365304,1.74152,-0.592511, ,0,0,-0,0,0,0,
,0,1606843043,295197961, ,0.747622,-1.8802,-1.66647,0.36528,1.74152,-0.592488, ,0,0,-0,0,0,0,
,0,1606843043,297193057, ,0.747599,-1.88025,-1.66647,0.365292,1.74153,-0.592535, ,0,0,-0,0,0,0,
,0,1606843043,299193761, ,0.747574,-1.8802,-1.66647,0.365245,1.74153,-0.592548, ,0,0,-0,0,0,0,
,0,1606843043,301213058, ,0.747562,-1.88021,-1.66648,0.365268,1.74151,-0.5925, ,0,0,-0,0,0,0,
,0,1606843043,303190898, ,0.747586,-1.88022,-1.66648,0.365317,1.74151,-0.592464, ,0,0,-0,0,0,0,
,0,1606843043,305191706, ,0.747599,-1.88021,-1.66646,0.36528,1.7415,-0.592523, ,0,0,-0,0,0,0,
,0,1606843043,307205137, ,0.747599,-1.88019,-1.66647,0.365328,1.74153,-0.5925, ,0,0,-0,0,0,0,
,0,1606843043,309207958, ,0.747611,-1.88019,-1.66646,0.365328,1.74153,-0.592475, ,0,0,-0,0,0,0,
,0,1606843043,311229443, ,0.747611,-1.8802,-1.66648,0.365268,1.74151,-0.592488, ,0,0,-0,0,0,0,
,0,1606843043,313239503, ,0.747586,-1.88019,-1.66647,0.365256,1.74154,-0.592475, ,0,0,-0,0,0,0,
,0,1606843043,315201963, ,0.747586,-1.88019,-1.66648,0.36528,1.74152,-0.592511, ,0,0,-0,0,0,0,
,0,1606843043,317212126, ,0.747586,-1.8802,-1.66649,0.36528,1.74151,-0.592548, ,0,0,-0,0,0,0,
,0,1606843043,319213721, ,0.747574,-1.8802,-1.66647,0.36528,1.74156,-0.5925, ,0,0,-0,0,0,0,
,0,1606843043,321210388, ,0.747586,-1.88022,-1.66648,0.365304,1.7415,-0.592535, ,0,0,-0,0,0,0,
,0,1606843043,323204808, ,0.747574,-1.88022,-1.66649,0.365317,1.74153,-0.592511, ,0,0,-0,0,0,0,
,0,1606843043,325210721, ,0.747562,-1.88022,-1.66646,0.365304,1.74152,-0.592511, ,0,0,-0,0,0,0,
,0,1606843043,327209584, ,0.747599,-1.8802,-1.66644,0.365304,1.74152,-0.5925, ,0,0,-0,0,0,0,
,0,1606843043,329206804, ,0.747586,-1.8802,-1.66644,0.365317,1.74154,-0.592488, ,0,0,-0,0,0,0,
,0,1606843043,331199292, ,0.747599,-1.88022,-1.66648,0.365292,1.74152,-0.592511, ,0,0,-0,0,0,0,
,0,1606843043,333212188, ,0.747574,-1.88019,-1.66643,0.36528,1.74154,-0.592488, ,0,0,-0,0,0,0,
,0,1606843043,335210340, ,0.747586,-1.88021,-1.66644,0.365304,1.74153,-0.592559, ,0,0,-0,0,0,0,
,0,1606843043,337208198, ,0.747599,-1.88014,-1.66646,0.365268,1.74156,-0.592511, ,0,0,-0,0,0,0,
,0,1606843043,339207461, ,0.747574,-1.8802,-1.66644,0.365304,1.74151,-0.592523, ,0,0,0.000210181,0,0,0,
,0,1606843043,341212817, ,0.747586,-1.8802,-1.66646,0.365304,1.74151,-0.592523, ,0,0,0.000394015,0,0,0,
,0,1606843043,343211569, ,0.747622,-1.8802,-1.66643,0.365304,1.74153,-0.592451, ,0,0,0.000446016,0,0,0,
,0,1606843043,345205691, ,0.747562,-1.88016,-1.66641,0.365304,1.74152,-0.592488, ,0,0.000139415,0.00152109,0,0,0,
,0,1606843043,347203972, ,0.747622,-1.88018,-1.66643,0.365292,1.74151,-0.592475, ,0,0.000262915,0.00127708,0,0,0,
,0,1606843043,349276162, ,0.747611,-1.88016,-1.66641,0.36534,1.74151,-0.592535, ,0,0.000336243,0.00114431,0,0,0,
,0,1606843043,351232518, ,0.747586,-1.88016,-1.66644,0.365268,1.7415,-0.592511, ,0,0.000360938,0.00101106,0,0,0,
,0,1606843043,353212884, ,0.747562,-1.88014,-1.66642,0.365304,1.74151,-0.592535, ,0,0.000993366,0.000990734,0,0,0,
,0,1606843043,355208819, ,0.747599,-1.8802,-1.66642,0.365328,1.74152,-0.592523, ,0,0.0011262,0.000783189,0,0,0,
,0,1606843043,357209286, ,0.747562,-1.88019,-1.66641,0.365268,1.74153,-0.592535, ,0,0.00126195,0.000999223,0,0,0,
,0,1606843043,359206200, ,0.747562,-1.88018,-1.66643,0.365317,1.74151,-0.592488, ,0,0.00144094,0.00202553,0,0,0,
,0,1606843043,361203742, ,0.747599,-1.88012,-1.66642,0.365304,1.74151,-0.592511, ,0,0.00147795,0.00152638,0,0,0,
,0,1606843043,363201029, ,0.747562,-1.88015,-1.66641,0.365328,1.74148,-0.5925, ,0,0.00160021,0.0011898,0,0,0,
,0,1606843043,365199973, ,0.747586,-1.88018,-1.66644,0.365328,1.74154,-0.592511, ,0,0.00205455,0.0011163,0,0,0,
,0,1606843043,367191897, ,0.747574,-1.88018,-1.66641,0.365317,1.74153,-0.592464, ,0,0.00294743,0.00105151,0,0,0,
,0,1606843043,369208667, ,0.747586,-1.88013,-1.6664,0.365304,1.74154,-0.5925, ,0,0.00394849,0.00105184,0,0,0,
,0,1606843043,371197122, ,0.747611,-1.88015,-1.66638,0.365328,1.74147,-0.592511, ,0,0.00404963,0.00215923,0,0,0,
,0,1606843043,373200887, ,0.747599,-1.88011,-1.66642,0.36528,1.74153,-0.592488, ,0,0.00365336,0.00208633,0,0,0,
,0,1606843043,375203472, ,0.747586,-1.88009,-1.6664,0.365328,1.74148,-0.592464, ,0,0.00328385,0.0013118,0,0,0,
,0,1606843043,377214000, ,0.747599,-1.88008,-1.66641,0.365328,1.74152,-0.592451, ,0,0.00391569,0.00118442,0,0,0,
,0,1606843043,379213778, ,0.747586,-1.88009,-1.6664,0.365304,1.7415,-0.592559, ,0,0.00476998,0.00108158,0,0,0,
,0,1606843043,381212270, ,0.747611,-1.88002,-1.66642,0.36534,1.74154,-0.592475, ,0,0.00665166,0.00116224,0,0,0,
,0,1606843043,383211283, ,0.747562,-1.88003,-1.66641,0.36528,1.74153,-0.592511, ,0,0.00710782,0.00439674,0,0,0,
,0,1606843043,385213530, ,0.747586,-1.88007,-1.66641,0.365292,1.74151,-0.592511, ,0,0.00698394,0.00326525,-6.43634e-05,0,0,
,0,1606843043,387202789, ,0.747611,-1.88004,-1.66638,0.365328,1.74154,-0.592511, ,0,0.0063909,0.00236704,-0.00126001,0,0,
,0,1606843043,389208169, ,0.747599,-1.88003,-1.66638,0.365304,1.74151,-0.592535, ,0,0.00720744,0.00203759,-0.00116199,0,0,
,0,1606843043,391199883, ,0.747562,-1.88002,-1.66638,0.365292,1.74153,-0.592475, ,0,0.00754066,0.0018399,-0.00102124,0,0,
,0,1606843043,393206666, ,0.747562,-1.87996,-1.66633,0.36528,1.74152,-0.592488, ,0,0.00946503,0.00658571,-0.000879064,0,0,
,0,1606843043,395208388, ,0.747599,-1.87999,-1.66635,0.365316,1.74153,-0.592488, ,0,0.00944946,0.00816967,-0.000877772,0,0,
,0,1606843043,397214066, ,0.747599,-1.87997,-1.66635,0.36534,1.74153,-0.592572, ,0,0.0105022,0.00808405,-0.000897867,0,0,
,0,1606843043,399205850, ,0.747586,-1.87993,-1.66633,0.365328,1.74152,-0.592511, ,0,0.0105951,0.00538067,-0.0021026,0,0,
,0,1606843043,401221881, ,0.747599,-1.87987,-1.66632,0.365351,1.74151,-0.592488, ,0,0.0109114,0.00393714,-0.00280349,0,0,
,0,1606843043,403204896, ,0.747586,-1.87987,-1.6663,0.365291,1.74157,-0.592559, ,0,0.0101314,0.00326183,-0.00335182,0,0,
,0,1606843043,405215801, ,0.747599,-1.87985,-1.66626,0.365303,1.7415,-0.5925, ,0,0.0113297,0.007068,-0.00332497,0,0,
,0,1606843043,407207330, ,0.747562,-1.87985,-1.66628,0.365351,1.7415,-0.592488, ,0,0.011333,0.00792564,-0.00270098,0,0,
,0,1606843043,409210878, ,0.747586,-1.87985,-1.66626,0.365303,1.74154,-0.592475, ,0,0.0126446,0.00854295,-0.00305188,0,0,
,0,1606843043,411224826, ,0.747599,-1.87981,-1.66624,0.365327,1.7415,-0.592511, ,0,0.0128098,0.00632204,-0.00375589,0,0,
,0,1606843043,413241118, ,0.747599,-1.87975,-1.66624,0.365327,1.74151,-0.592488, ,0,0.0130881,0.00499769,-0.00462765,0,0,
,0,1606843043,415210837, ,0.747586,-1.87969,-1.66621,0.365338,1.74148,-0.592488, ,0,0.0136178,0.0056744,-0.00563545,0,0,
,0,1606843043,417223513, ,0.747586,-1.8797,-1.66621,0.365278,1.74153,-0.5925, ,0,0.0152091,0.0103519,-0.00697966,0,0,
,0,1606843043,419207059, ,0.747599,-1.87969,-1.6662,0.365266,1.74147,-0.592523, ,0,0.0149712,0.00841734,-0.00722047,0,0,
,0,1606843043,421212723, ,0.747574,-1.87962,-1.66618,0.365265,1.74153,-0.592523, ,0,0.0153819,0.00838425,-0.00892662,0,0,
,0,1606843043,423230271, ,0.747599,-1.87962,-1.66615,0.365266,1.7415,-0.5925, ,0,0.0145021,0.00780528,-0.0079332,0,0,
,0,1606843043,425200577, ,0.747599,-1.87956,-1.66613,0.365229,1.74148,-0.5925, ,0,0.0146635,0.0096825,-0.00895146,0,0,
,0,1606843043,427199065, ,0.747599,-1.87954,-1.66612,0.365229,1.74154,-0.5925, ,0,0.014186,0.00898993,-0.00990785,0,0,
,0,1606843043,429191019, ,0.747611,-1.87951,-1.66609,0.365192,1.74153,-0.592523, ,0,0.0141835,0.0106144,-0.0109902,0,0,
,0,1606843043,431193248, ,0.747599,-1.87944,-1.66606,0.365169,1.74152,-0.592511, ,0,0.0145922,0.0116083,-0.0104077,0,0,
,0,1606843043,433195625, ,0.747586,-1.87949,-1.66607,0.365168,1.74152,-0.592464, ,0,0.0150287,0.011865,-0.0120373,0,0,
,0,1606843043,435210794, ,0.747586,-1.8794,-1.666,0.365144,1.7415,-0.592488, ,3.70273e-07,0.0162006,0.0135636,-0.0117816,0,0,
,0,1606843043,437197488, ,0.747574,-1.87939,-1.666,0.36512,1.74151,-0.592523, ,0.0001525,0.0148907,0.0110075,-0.011444,0,0,
,0,1606843043,439206753, ,0.747599,-1.87939,-1.66596,0.365132,1.74151,-0.5925, ,0.000181664,0.0159118,0.0135639,-0.0134509,0,0,
,0,1606843043,441196920, ,0.747562,-1.87934,-1.66594,0.365084,1.74152,-0.592488, ,0.000182562,0.0156572,0.0128083,-0.0126536,0,0,
,0,1606843043,443195402, ,0.747599,-1.87926,-1.66592,0.365095,1.74153,-0.592535, ,0.000187889,0.0161821,0.0150973,-0.0148257,-0.000582899,0,
,0,1606843043,445206565, ,0.747574,-1.87926,-1.66588,0.365083,1.74151,-0.592475, ,0.000199395,0.0156814,0.0125664,-0.0140419,-0.000758546,0,
,0,1606843043,447208433, ,0.747586,-1.87921,-1.66586,0.365059,1.74151,-0.592451, ,0.000213182,0.0154244,0.0138855,-0.014887,-0.000797985,0,
,0,1606843043,449252958, ,0.747574,-1.8792,-1.66583,0.365023,1.74152,-0.5925, ,0.000228009,0.0168652,0.0169432,-0.0153474,-0.000727101,0,
,0,1606843043,451257369, ,0.747599,-1.87915,-1.6658,0.365023,1.74152,-0.5925, ,0.000239596,0.016704,0.0151027,-0.0148527,-0.000660473,0,
,0,1606843043,453227567, ,0.747611,-1.87914,-1.66575,0.364987,1.74151,-0.592523, ,0.000416864,0.0174375,0.016482,-0.014585,-0.000966195,0,
,0,1606843043,455201623, ,0.747611,-1.8791,-1.66572,0.364868,1.74151,-0.592511, ,0.000449208,0.0171444,0.0138883,-0.0142542,-0.000973868,0,
,0,1606843043,457198805, ,0.747574,-1.87907,-1.66568,0.364928,1.7415,-0.592548, ,0.00042421,0.0167743,0.0135233,-0.0138282,-0.000988486,0,
,0,1606843043,459201224, ,0.747599,-1.87897,-1.66566,0.364879,1.74151,-0.592511, ,0.000391314,0.0180366,0.017779,-0.015156,-0.00140279,0,
,0,1606843043,461194293, ,0.747611,-1.87898,-1.66566,0.364844,1.74148,-0.592464, ,0.000414628,0.0179206,0.0154771,-0.0138848,-0.00125977,0,
,0,1606843043,463198121, ,0.747623,-1.87894,-1.66559,0.364808,1.7415,-0.5925, ,0.000429925,0.0188451,0.0181236,-0.0150841,-0.00123156,0,
,0,1606843043,465194392, ,0.747611,-1.87892,-1.66555,0.364785,1.7415,-0.592511, ,0.00046666,0.0188686,0.0160722,-0.0140927,-0.00128351,0,
,0,1606843043,467198964, ,0.747623,-1.87886,-1.66554,0.364759,1.7415,-0.592548, ,0.000498071,0.0192813,0.0145546,-0.0157159,-0.00138522,0,
,0,1606843043,469208016, ,0.747658,-1.8788,-1.66548,0.364712,1.74151,-0.592488, ,0.000519907,0.0189343,0.0147077,-0.0154984,-0.00183328,0,
,0,1606843043,471197112, ,0.747611,-1.87876,-1.66547,0.364736,1.74148,-0.592464, ,0.00048274,0.0207106,0.0185017,-0.0163507,-0.00167454,0,
,0,1606843043,473244049, ,0.747611,-1.87873,-1.66541,0.364664,1.74151,-0.592475, ,0.000504973,0.0209866,0.0165986,-0.016501,-0.00151613,0,
,0,1606843043,475210967, ,0.747623,-1.87864,-1.66539,0.364664,1.74152,-0.592535, ,0.000476277,0.0215166,0.016864,-0.0163207,-0.00127824,0,
,0,1606843043,477238428, ,0.747623,-1.87862,-1.66537,0.364639,1.74151,-0.592488, ,0.000495887,0.0229239,0.015977,-0.0181602,-0.0012701,0,
,0,1606843043,479232452, ,0.747611,-1.87859,-1.66531,0.364604,1.74147,-0.5925, ,0.000515911,0.022679,0.015594,-0.0170796,-0.002122,0,
,0,1606843043,481210200, ,0.747599,-1.87856,-1.66526,0.364592,1.74152,-0.5925, ,0.000565188,0.0226945,0.0163641,-0.0176085,-0.00244005,0,
,0,1606843043,483221127, ,0.747647,-1.8785,-1.66524,0.364567,1.74146,-0.5925, ,0.000627932,0.0230542,0.0175958,-0.0182387,-0.00308935,0,
,0,1606843043,485213222, ,0.747586,-1.87843,-1.66523,0.364519,1.74146,-0.592511, ,0.000663815,0.0231595,0.0165088,-0.0181704,-0.0021539,0,
,0,1606843043,487224051, ,0.747647,-1.87837,-1.66519,0.364482,1.7415,-0.5925, ,0.000698758,0.0241052,0.0172459,-0.0201314,-0.00174047,0,
,0,1606843043,489203960, ,0.747635,-1.87838,-1.66514,0.364434,1.74147,-0.5925, ,0.000972293,0.0243474,0.0152093,-0.0209607,-0.0016742,0,
,0,1606843043,491214372, ,0.747623,-1.87832,-1.66509,0.364411,1.74146,-0.592511, ,0.00108965,0.024787,0.0155789,-0.0206927,-0.00188075,0,
,0,1606843043,493212501, ,0.747623,-1.87826,-1.6651,0.364374,1.74145,-0.5925, ,0.00113544,0.0255975,0.0188495,-0.0216606,-0.00642146,0,
,0,1606843043,495209945, ,0.747623,-1.8782,-1.66503,0.36435,1.74145,-0.592548, ,0.00143171,0.0252206,0.0165735,-0.0224947,-0.00603575,0,
,0,1606843043,497213384, ,0.747599,-1.87815,-1.66501,0.364301,1.74141,-0.5925, ,0.00151241,0.0264299,0.0166713,-0.0244485,-0.00359283,3.06931e-07,
,0,1606843043,499224706, ,0.747647,-1.87807,-1.66496,0.364218,1.74146,-0.5925, ,0.00203706,0.0262027,0.0152703,-0.0232742,-0.00232751,2.9946e-09,
,0,1606843043,501216745, ,0.747659,-1.87803,-1.66494,0.364206,1.74144,-0.592488, ,0.0024483,0.0263561,0.0143342,-0.0230237,-0.00233863,2.92171e-11,
,0,1606843043,503209463, ,0.747612,-1.87796,-1.66491,0.364158,1.7414,-0.592511, ,0.00314317,0.0250836,0.0145931,-0.0225924,-0.0045083,2.8506e-13,
,0,1606843043,505203545, ,0.747636,-1.87789,-1.6649,0.364098,1.7414,-0.592488, ,0.00363643,0.0251915,0.0172282,-0.0237739,-0.00660518,2.78122e-15,
,0,1606843043,507203079, ,0.74766,-1.87785,-1.66487,0.364073,1.74139,-0.592464, ,0.00392564,0.0262741,0.0163542,-0.025617,-0.00896125,2.71353e-17,
,0,1606843043,509201968, ,0.747673,-1.87782,-1.66481,0.364013,1.74137,-0.592523, ,0.00470966,0.0272667,0.0138017,-0.026352,-0.00604775,2.64748e-19,
,0,1606843043,511208050, ,0.747673,-1.87775,-1.66481,0.363966,1.74136,-0.592548, ,0.00535011,0.0273133,0.0139594,-0.0255239,-0.00526421,2.58304e-21,
,0,1606843043,513256279, ,0.747697,-1.87769,-1.66477,0.363918,1.7414,-0.592535, ,0.00646609,0.0285941,0.0140059,-0.0263581,-0.00685666,2.52017e-23,
,0,1606843043,515209043, ,0.747697,-1.87765,-1.66472,0.36387,1.74135,-0.5925, ,0.00751846,0.0283782,0.0137176,-0.0260606,-0.00698133,2.45883e-25,
,0,1606843043,517201840, ,0.74771,-1.87755,-1.66467,0.363833,1.74133,-0.592475, ,0.00862854,0.0290216,0.0161259,-0.0269776,-0.0101952,2.39899e-27,
,0,1606843043,519210070, ,0.747698,-1.87752,-1.66467,0.363798,1.74134,-0.592488, ,0.00858681,0.028324,0.0138154,-0.0263453,-0.01014,2.3406e-29,
,0,1606843043,521209662, ,0.747698,-1.87746,-1.66464,0.363737,1.7413,-0.592475, ,0.00945754,0.0274259,0.0114126,-0.0276446,-0.011975,2.28363e-31,
,0,1606843043,523202778, ,0.747758,-1.87737,-1.6646,0.36369,1.74128,-0.592488, ,0.00975255,0.0284678,0.0111845,-0.0268898,-0.0114384,2.22805e-33,
,0,1606843043,525208725, ,0.747783,-1.87735,-1.66462,0.363593,1.74129,-0.592511, ,0.0106744,0.0298678,0.0121624,-0.0286061,-0.0132426,2.17382e-35,
,0,1606843043,527201575, ,0.747807,-1.87729,-1.66458,0.363521,1.74123,-0.592511, ,0.0112583,0.0298884,0.0117447,-0.0283138,-0.0128452,2.12091e-37,
,0,1606843043,529200965, ,0.747795,-1.87723,-1.66457,0.363533,1.74122,-0.592523, ,0.012368,0.0308521,0.0114761,-0.0291804,-0.0141648,2.06929e-39,
,0,1606843043,531208227, ,0.747807,-1.87719,-1.66454,0.363449,1.74122,-0.592535, ,0.0121617,0.0304625,0.0111421,-0.0289572,-0.0129433,2.01899e-41,
,0,1606843043,533210038, ,0.747879,-1.87711,-1.6645,0.363425,1.74118,-0.592488, ,0.0133049,0.0310556,0.00926049,-0.0303891,-0.0145108,1.97583e-43,
,0,1606843043,535207692, ,0.747915,-1.87705,-1.66448,0.363353,1.74114,-0.5925, ,0.0130369,0.0309161,0.00933706,-0.0297647,-0.0137924,1.4013e-45,
,0,1606843043,537201071, ,0.747904,-1.87698,-1.6645,0.363281,1.74111,-0.592475, ,0.0141882,0.0318274,0.0088057,-0.0309693,-0.0158461,0,
,0,1606843043,539207334, ,0.747927,-1.87689,-1.66446,0.363221,1.7411,-0.5925, ,0.0139753,0.0317163,0.00852164,-0.0303005,-0.0144701,0,
,0,1606843043,541205371, ,0.747976,-1.87686,-1.66444,0.363185,1.74105,-0.5925, ,0.0152934,0.0330593,0.00770353,-0.0319164,-0.0164712,0,
,0,1606843043,543221104, ,0.747988,-1.87678,-1.66444,0.363113,1.74101,-0.592511, ,0.0153616,0.0329822,0.00759743,-0.0326209,-0.0145058,0,
,0,1606843043,545281559, ,0.747988,-1.8767,-1.66439,0.362992,1.74101,-0.592511, ,0.0165248,0.033787,0.00727734,-0.0339243,-0.0156859,0,
,0,1606843043,547300374, ,0.748084,-1.87668,-1.66441,0.362969,1.74101,-0.592488, ,0.0161525,0.0338746,0.00655031,-0.0314873,-0.0141665,0,
,0,1606843043,549229193, ,0.748132,-1.87657,-1.66437,0.362874,1.74093,-0.5925, ,0.0156118,0.0342623,0.0060128,-0.0314776,-0.0147682,0,
,0,1606843043,551320238, ,0.748108,-1.87651,-1.66438,0.362861,1.74093,-0.592475, ,0.0156478,0.0346953,0.00547203,-0.0321506,-0.0148217,0,
,0,1606843043,553243905, ,0.748132,-1.87643,-1.66434,0.362778,1.74086,-0.592475, ,0.015622,0.0351796,0.00430632,-0.0317327,-0.0147547,0,
,0,1606843043,555203394, ,0.748192,-1.87638,-1.66435,0.362717,1.74085,-0.5925, ,0.0162305,0.0352107,0.00377529,-0.032796,-0.0145467,0,
,0,1606843043,557208792, ,0.74824,-1.8763,-1.66432,0.362633,1.74083,-0.592511, ,0.0163204,0.0362441,0.00295163,-0.0346303,-0.0148901,0,
,0,1606843043,559222736, ,0.748252,-1.8762,-1.66433,0.362573,1.7408,-0.5925, ,0.0165114,0.038076,0.00211236,-0.0339159,-0.0144845,0,
,0,1606843043,561217595, ,0.7483,-1.87612,-1.66432,0.362454,1.74079,-0.592451, ,0.0166111,0.0371473,0.00177418,-0.0323586,-0.014877,0,
,0,1606843043,563255303, ,0.748312,-1.87601,-1.66433,0.362454,1.74074,-0.5925, ,0.0163626,0.0364371,0.00138604,-0.0333706,-0.0147613,0,
,0,1606843043,565234611, ,0.74836,-1.87593,-1.66434,0.362346,1.74075,-0.5925, ,0.0160111,0.0372082,0.00113563,-0.0345178,-0.0152254,0,
,0,1606843043,567215608, ,0.748372,-1.87589,-1.66434,0.36231,1.74068,-0.592464, ,0.0159633,0.0373933,0.000970955,-0.0343907,-0.0153926,0,
,0,1606843043,569217734, ,0.748421,-1.87576,-1.66436,0.362213,1.74066,-0.5925, ,0.0173111,0.0396785,0.00017575,-0.0357804,-0.0168767,0,
,0,1606843043,571218374, ,0.748468,-1.87574,-1.66434,0.362165,1.74064,-0.592511, ,0.0170005,0.0399463,0.000210565,-0.0356652,-0.0159592,0,
,0,1606843043,573221626, ,0.74848,-1.87566,-1.66431,0.362033,1.74062,-0.592488, ,0.0178964,0.0392854,0.000112864,-0.036652,-0.0165318,0,
,0,1606843043,575229238, ,0.748529,-1.87559,-1.66439,0.362009,1.74056,-0.592475, ,0.0174822,0.0385029,1.22016e-05,-0.0360702,-0.015889,0,
,0,1606843043,577219987, ,0.748552,-1.87548,-1.66434,0.361889,1.74057,-0.592488, ,0.0171405,0.0388124,1.637e-07,-0.0371726,-0.0165444,0,
,0,1606843043,579220592, ,0.748625,-1.87547,-1.66438,0.361829,1.7405,-0.592511, ,0.0175591,0.0396128,2.19624e-09,-0.0373955,-0.0169561,0,
,0,1606843043,581218110, ,0.748625,-1.87532,-1.66434,0.361782,1.74047,-0.592511, ,0.0176326,0.0404467,2.94654e-11,-0.0377179,-0.0172206,0,
,0,1606843043,583216420, ,0.748649,-1.87526,-1.66437,0.361673,1.74041,-0.592488, ,0.0179267,0.0406763,-0.00226985,-0.0387356,-0.0173769,0,
,0,1606843043,585233823, ,0.748733,-1.8752,-1.66437,0.361601,1.74041,-0.592511, ,0.0183752,0.0408578,-0.00255141,-0.0395993,-0.0172528,0,
,0,1606843043,587223049, ,0.748732,-1.87511,-1.66438,0.361529,1.74039,-0.5925, ,0.0177424,0.0411524,-0.00240774,-0.0397052,-0.0167774,0,
,0,1606843043,589222142, ,0.748756,-1.87502,-1.66438,0.361469,1.74034,-0.592511, ,0.0178003,0.0413187,-0.00198898,-0.0407781,-0.0191751,0,
,0,1606843043,591224764, ,0.748817,-1.87495,-1.66439,0.361397,1.74037,-0.592464, ,0.0178923,0.0418172,-0.00154932,-0.041605,-0.0189997,0,
,0,1606843043,593219773, ,0.748853,-1.87479,-1.66437,0.361289,1.74027,-0.5925, ,0.0182398,0.0422301,-0.00171694,-0.041998,-0.0191132,0,
,0,1606843043,595230793, ,0.748901,-1.87478,-1.66441,0.361265,1.74022,-0.592523, ,0.0189402,0.0427404,-0.00282633,-0.0419824,-0.0183425,0,
,0,1606843043,597218893, ,0.748936,-1.87465,-1.66442,0.361121,1.74019,-0.592511, ,0.018642,0.043311,-0.00426868,-0.0417445,-0.01752,0,
,0,1606843043,599229741, ,0.748973,-1.87458,-1.66438,0.361038,1.74017,-0.592488, ,0.0179629,0.0437991,-0.0044885,-0.0410758,-0.0185632,0,
,0,1606843043,601229179, ,0.748997,-1.8745,-1.66441,0.36093,1.74013,-0.592464, ,0.0180566,0.0442408,-0.00693056,-0.0413642,-0.0194636,0,
,0,1606843043,603221350, ,0.749033,-1.87441,-1.66442,0.360834,1.74005,-0.5925, ,0.0182523,0.0447765,-0.00787576,-0.042646,-0.0203347,0,
,0,1606843043,605214575, ,0.749081,-1.87434,-1.66443,0.360822,1.74001,-0.592475, ,0.0192534,0.0450636,-0.00748052,-0.0420934,-0.020444,0,
,0,1606843043,607226532, ,0.74913,-1.87418,-1.66444,0.360689,1.74001,-0.592535, ,0.0204214,0.045698,-0.00804473,-0.0449249,-0.0185323,0,
,0,1606843043,609207830, ,0.749153,-1.87413,-1.66444,0.360653,1.73997,-0.592511, ,0.0193913,0.0459608,-0.00784976,-0.0444282,-0.0183377,0,
,0,1606843043,611244068, ,0.749213,-1.87407,-1.66449,0.360546,1.73992,-0.592464, ,0.0181626,0.0469039,-0.00855412,-0.0424681,-0.0194865,0,
,0,1606843043,613239427, ,0.749249,-1.87393,-1.66448,0.360474,1.73989,-0.592488, ,0.0180004,0.0471845,-0.00969551,-0.0435822,-0.0202753,5.89034e-05,
,0,1606843043,615224888, ,0.749297,-1.87384,-1.66453,0.360354,1.73987,-0.5925, ,0.0185787,0.0492545,-0.00983561,-0.044107,-0.0205889,7.57393e-05,
,0,1606843043,617225342, ,0.749297,-1.87375,-1.66455,0.36027,1.73981,-0.592511, ,0.0200457,0.0489171,-0.00999269,-0.0464301,-0.0204564,7.46569e-05,
,0,1606843043,619234760, ,0.749322,-1.87364,-1.66458,0.360222,1.73974,-0.5925, ,0.0210665,0.0489118,-0.0112306,-0.0453231,-0.0192821,7.34423e-05,
,0,1606843043,621245996, ,0.749393,-1.87352,-1.66459,0.360127,1.73977,-0.5925, ,0.0205562,0.0480629,-0.00758397,-0.0435299,-0.0197349,7.2263e-05,
,0,1606843043,623232285, ,0.749453,-1.87345,-1.6646,0.360018,1.73967,-0.592511, ,0.0191851,0.0491617,-0.00565828,-0.0452653,-0.0210444,7.1119e-05,
,0,1606843043,625206411, ,0.749477,-1.87336,-1.66459,0.359934,1.73968,-0.592535, ,0.0184669,0.050714,-0.00649858,-0.0453309,-0.0224351,7.00144e-05,
