davideferrari95/admittance_controller/debug/scaled_trajectory_debug.csv
frame_id,seq,sec,nsec,     ,pos_joint1,pos_joint2,pos_joint2,pos_joint4,pos_joint5,pos_joint6,     ,vel_joint1,vel_joint2,vel_joint3,vel_joint4,vel_joint5,vel_joint6

,0,1608638303,652574721, ,0.938844,-1.47948,-1.79716,-1.48149,1.45871,1.25951, ,-0.00141248,0.00305134,-0.000746839,3.40422e-05,0.00133754,0.00240766,
,1,1608638303,668467593, ,0.938822,-1.47943,-1.79717,-1.48149,1.45873,1.25955, ,0.00207382,-0.000275861,0.000100078,-0.00134269,0.000170436,0.00029995,
,2,1608638303,684360465, ,0.938855,-1.47944,-1.79717,-1.48151,1.45873,1.25955, ,0.000461048,-0.0022479,-0.00149008,0.000710829,0.00156971,-0.000956012,
,3,1608638303,700253337, ,0.938862,-1.47947,-1.79719,-1.4815,1.45876,1.25954, ,-0.00235582,0.00324228,0.000380862,0.000474162,-0.00104702,-0.000629648,
,4,1608638303,716146209, ,0.938824,-1.47942,-1.79719,-1.48149,1.45874,1.25953, ,0.000747873,-0.00189921,0.0006858,-0.00306434,-0.000525986,0.00352995,
,5,1608638303,732039081, ,0.938836,-1.47945,-1.79718,-1.48154,1.45873,1.25958, ,-0.000644795,-0.00191782,0.000892713,0.00282675,-0.00141364,-0.00298111,
,6,1608638303,747931953, ,0.938826,-1.47948,-1.79716,-1.4815,1.45871,1.25954, ,-0.000718898,0.00186478,-0.0012001,-0.000527616,0.00194605,0.000334729,
,7,1608638303,763824825, ,0.938815,-1.47945,-1.79718,-1.4815,1.45874,1.25954, ,0.0026707,0.00207836,0.000185089,-0.000765982,0.00043357,3.70738e-05,
,8,1608638303,779717697, ,0.938857,-1.47942,-1.79718,-1.48152,1.45875,1.25954, ,-0.00159311,-0.0019482,-0.00116366,0.000193361,-0.000235176,0.000980845,
,9,1608638303,795610569, ,0.938832,-1.47945,-1.7972,-1.48151,1.45875,1.25956, ,0.000522398,-8.93168e-06,-8.6432e-05,-0.000251294,-0.0010932,-0.000168338,
,10,1608638303,811503441, ,0.93884,-1.47945,-1.7972,-1.48152,1.45873,1.25956, ,0.00103541,-0.000683005,0.000359001,0.000774764,-0.00169091,0.000125188,
,11,1608638303,827396313, ,0.938856,-1.47946,-1.79719,-1.4815,1.4587,1.25956, ,-0.00213103,-0.000949991,-1.80062e-05,0.000222585,0.00259517,5.46201e-05,
,12,1608638303,843289185, ,0.938823,-1.47948,-1.79719,-1.4815,1.45874,1.25956, ,-0.000164146,0.000217573,-0.000648785,-0.00128457,0.000610794,-0.00131429,
,13,1608638303,859182057, ,0.93882,-1.47947,-1.7972,-1.48152,1.45875,1.25954, ,0.000810265,-0.000493705,0.00280805,0.000702767,-0.00264617,0.000783596,
,14,1608638303,875074929, ,0.938833,-1.47948,-1.79716,-1.48151,1.45871,1.25955, ,-5.41678e-05,-0.000701821,-0.00260478,-0.00121481,0.00134874,-0.00248071,
,15,1608638303,890967801, ,0.938832,-1.47949,-1.7972,-1.48153,1.45873,1.25951, ,-0.000134492,0.00329927,0.000771568,-0.00129065,0.00166245,0.00259734,
,16,1608638303,906860673, ,0.93883,-1.47944,-1.79719,-1.48155,1.45876,1.25955, ,0.00035264,-0.00222577,-0.000507159,0.00452505,-0.00153483,-9.77467e-05,
,17,1608638303,922753545, ,0.938836,-1.47947,-1.7972,-1.48148,1.45873,1.25955, ,-0.00242107,0.00129332,0.00178608,-0.00129882,0.00203983,-0.000503749,
,18,1608638303,938646417, ,0.938797,-1.47945,-1.79717,-1.4815,1.45877,1.25954, ,0.00400584,-0.000327315,6.24904e-05,0.000568716,-0.00271065,0.000509919,
,19,1608638303,954539289, ,0.938861,-1.47946,-1.79717,-1.48149,1.45872,1.25955, ,-0.000253527,-0.000983362,-0.000899918,-0.00212753,-0.000625977,-0.000363729,
,20,1608638303,970432161, ,0.938857,-1.47947,-1.79718,-1.48152,1.45871,1.25954, ,-0.00115628,0.00197669,-0.00161156,-0.000796179,-0.000767246,0.00106413,
,21,1608638303,986325033, ,0.938838,-1.47944,-1.79721,-1.48154,1.4587,1.25956, ,-0.00152397,-1.10976e-05,8.96645e-05,0.00123248,0.00325677,-0.000486034,
,22,1608638304,2217905, ,0.938814,-1.47944,-1.79721,-1.48152,1.45875,1.25955, ,0.000722517,-0.00128868,0.000586196,0.000241505,0.000199269,-0.000893213,
,23,1608638304,18110777, ,0.938826,-1.47946,-1.7972,-1.48151,1.45876,1.25954, ,0.000110834,0.000219138,0.000646091,0.000875003,-0.0006736,0.00159539,
,24,1608638304,34003649, ,0.938827,-1.47946,-1.79719,-1.4815,1.45875,1.25956, ,-0.000536339,0.0017749,-0.000709344,-0.00120979,-0.000748627,-0.00115763,
,25,1608638304,49896521, ,0.938819,-1.47943,-1.7972,-1.48152,1.45873,1.25955, ,-0.000885509,8.47162e-05,0.00214106,-0.000173592,0.00217848,-0.00115653,
,26,1608638304,65789393, ,0.938805,-1.47943,-1.79716,-1.48152,1.45877,1.25953, ,0.00175594,-0.00259415,-0.00191419,0.00100227,-0.00056155,0.000426168,
,27,1608638304,81682265, ,0.938833,-1.47947,-1.79719,-1.48151,1.45876,1.25953, ,-7.74155e-05,-0.00103299,0.00024062,0.00054187,-0.00128635,-0.00156679,
,28,1608638304,97575137, ,0.938831,-1.47949,-1.79719,-1.4815,1.45874,1.25951, ,0.000796769,0.00363646,-2.69246e-05,-0.00397503,9.09816e-05,0.00189974,
,29,1608638304,113468009, ,0.938844,-1.47943,-1.79719,-1.48156,1.45874,1.25954, ,-0.000917622,-0.00252203,-8.22849e-05,0.00311337,-0.00241024,0.00119632,
,30,1608638304,129360881, ,0.938829,-1.47947,-1.79719,-1.48151,1.4587,1.25956, ,0.000390892,0.000133508,-0.000155499,-1.64307e-05,0.00309902,-0.00118227,
,31,1608638304,145253753, ,0.938836,-1.47947,-1.79719,-1.48151,1.45875,1.25954, ,-0.00183661,0.000141246,6.89805e-05,0.0012623,-0.00222752,0.00294832,
,32,1608638304,161146625, ,0.938806,-1.47947,-1.79719,-1.48149,1.45872,1.25959, ,0.000469363,-0.000527095,-0.000725762,-0.000670574,0.00337763,-0.00178948,
,33,1608638304,177039497, ,0.938814,-1.47947,-1.7972,-1.4815,1.45877,1.25956, ,0.00178525,0.00151552,0.00161985,-0.000897513,-0.00102253,0.000135957,
,34,1608638304,192932369, ,0.938842,-1.47945,-1.79718,-1.48152,1.45875,1.25956, ,-2.19172e-05,-0.000473248,0.00168267,0.0029636,-0.00112538,-0.00284693,
,35,1608638304,208825241, ,0.938842,-1.47946,-1.79715,-1.48147,1.45873,1.25952, ,0.00109517,0.00196548,-0.00229487,-0.00254914,0.000572142,0.00100083,
,36,1608638304,224718113, ,0.938859,-1.47943,-1.79719,-1.48151,1.45874,1.25953, ,-0.00364365,-0.000400713,0.000441143,-0.00239592,-0.00109177,0.00060279,
,37,1608638304,240610985, ,0.938801,-1.47943,-1.79718,-1.48155,1.45873,1.25954, ,0.00199043,-0.00116399,-0.00103939,0.00298567,0.00143675,-0.00199244,
,38,1608638304,256503857, ,0.938833,-1.47945,-1.7972,-1.4815,1.45875,1.25951, ,0.000132792,-0.00179024,0.000469632,-0.00141195,-0.00167805,0.00149141,
,39,1608638304,272396729, ,0.938835,-1.47948,-1.79719,-1.48152,1.45872,1.25953, ,-0.00213211,0.00076265,0.000985491,0.000717989,-0.000341171,-0.000840121,
,40,1608638304,288289601, ,0.938801,-1.47947,-1.79717,-1.48151,1.45872,1.25952, ,0.00328527,-0.00115963,-0.00164616,0.00106856,0.000448213,0.00249656,
,41,1608638304,304182473, ,0.938854,-1.47949,-1.7972,-1.48149,1.45872,1.25956, ,-0.00146385,-0.000122336,0.000571668,-0.00143799,0.00099306,-6.48464e-05,
,42,1608638304,320075345, ,0.93883,-1.47949,-1.79719,-1.48152,1.45874,1.25956, ,0.000892276,-0.000153363,0.000160503,0.000336674,-0.000100389,0.00010653,
,43,1608638304,335968217, ,0.938844,-1.47949,-1.79719,-1.48151,1.45874,1.25956, ,-0.000733672,0.00121262,-0.000729241,-0.00124563,0.00127163,-0.000630416,
,44,1608638304,351861089, ,0.938833,-1.47947,-1.7972,-1.48153,1.45876,1.25955, ,0.0012281,0.00331033,0.00236692,0.000923171,0.000118099,-0.00248548,
,45,1608638304,367753961, ,0.938852,-1.47942,-1.79716,-1.48152,1.45876,1.25951, ,-0.00276592,-0.00102904,-0.00167912,0.000445099,-0.00188368,0.00278994,
,46,1608638304,383646833, ,0.938808,-1.47943,-1.79719,-1.48151,1.45873,1.25955, ,0.0022259,-0.00030843,0.00122949,-0.00029088,0.000690646,-0.00230723,
,47,1608638304,399539705, ,0.938844,-1.47944,-1.79717,-1.48151,1.45874,1.25952, ,-0.000885543,0.000378161,0.00110587,-0.000909342,-0.000437205,0.00197453,
,48,1608638304,415432577, ,0.93883,-1.47943,-1.79715,-1.48153,1.45873,1.25955, ,-0.000656947,7.59349e-05,-0.0027313,-6.81888e-05,0.00329967,-0.000835055,
,49,1608638304,431325449, ,0.938819,-1.47943,-1.7972,-1.48153,1.45879,1.25954, ,6.35776e-05,-0.00221175,0.000580098,0.00226015,-0.00331883,0.000428506,
,50,1608638304,447218321, ,0.93882,-1.47947,-1.79719,-1.48149,1.45873,1.25954, ,0.00126797,0.00150377,0.000360828,-0.000128707,-0.000362965,0.00100116,
,51,1608638304,463111193, ,0.93884,-1.47944,-1.79718,-1.4815,1.45873,1.25956, ,-0.00150008,0.000616618,0.000662771,0.000866947,0.00100234,-0.00153535,
,52,1608638304,479004065, ,0.938817,-1.47943,-1.79717,-1.48148,1.45874,1.25953, ,0.00120151,-0.000876458,-0.00115804,0.000149212,0.000572871,0.000642564,
,53,1608638304,494896937, ,0.938836,-1.47945,-1.79719,-1.48148,1.45875,1.25954, ,0.000807179,-0.00132329,0.000294571,-0.00328064,-0.00143442,-0.00240619,
,54,1608638304,510789809, ,0.938848,-1.47947,-1.79718,-1.48153,1.45873,1.25951, ,-0.00283249,-8.39353e-05,0.00115238,0.00149963,0.000559031,0.00415482,
,55,1608638304,526682681, ,0.938803,-1.47947,-1.79717,-1.48151,1.45874,1.25957, ,0.000375461,0.00097506,0.000370616,6.93326e-05,-0.000240675,-0.00335991,
,56,1608638304,542575553, ,0.938809,-1.47945,-1.79716,-1.48151,1.45874,1.25952, ,0.000525246,-0.00167348,-0.00177311,0.000946113,-0.00026421,0.00066189,
,57,1608638304,558468425, ,0.938818,-1.47948,-1.79719,-1.48149,1.45873,1.25953, ,0.000892128,6.49255e-05,-0.00135255,-0.00180184,0.000512454,0.00125975,
,58,1608638304,574361297, ,0.938832,-1.47948,-1.79721,-1.48152,1.45874,1.25955, ,0.0014485,0.0023884,0.00439489,0.000596753,0.000482214,-0.00260688,
,59,1608638304,590254169, ,0.938855,-1.47944,-1.79714,-1.48151,1.45875,1.25951, ,-0.00137273,-0.00172223,-0.00299012,-0.000616311,-0.00115265,0.0034557,
,60,1608638304,606147041, ,0.938833,-1.47947,-1.79719,-1.48152,1.45873,1.25956, ,0.00100371,0.000904142,0.000130708,0.000135579,0.00205327,-0.000189573,
,61,1608638304,622039913, ,0.938849,-1.47946,-1.79719,-1.48152,1.45876,1.25956, ,-0.00308849,0.00104026,0.00194343,0.00195702,-0.00114699,-0.00276191,
,62,1608638304,637932785, ,0.9388,-1.47944,-1.79715,-1.48149,1.45874,1.25952, ,0.00132773,-0.000287165,-0.00149816,-0.00139186,0.000142171,0.00323643,
,63,1608638304,653825657, ,0.938821,-1.47944,-1.79718,-1.48151,1.45875,1.25957, ,0.00113919,-0.000937726,-0.000912871,0.00218552,0.000235567,-0.00105574,
,64,1608638304,669718529, ,0.938839,-1.47946,-1.79719,-1.48147,1.45875,1.25955, ,0.000661677,-0.00188879,0.00224412,-0.000530174,-0.00232158,-0.00107771,
,65,1608638304,685611401, ,0.93885,-1.47949,-1.79716,-1.48148,1.45871,1.25953, ,-0.00239614,0.000255952,-0.00129672,-0.00162964,0.00142621,0.00087663,
,66,1608638304,701504273, ,0.938812,-1.47948,-1.79718,-1.48151,1.45874,1.25955, ,0.00067066,0.00314732,-0.000226967,-0.0017981,0.000406762,-0.00132531,
,67,1608638304,717397145, ,0.938822,-1.47943,-1.79718,-1.48154,1.45874,1.25953, ,0.000906462,-0.00298906,-0.000378794,0.00199364,-0.000150265,-0.000380259,
,68,1608638304,733290017, ,0.938837,-1.47948,-1.79719,-1.48151,1.45874,1.25952, ,-5.40273e-05,0.0006595,0.000960251,0.000894955,-0.00284271,0.000943461,
,69,1608638304,749182889, ,0.938836,-1.47947,-1.79717,-1.48149,1.45869,1.25954, ,0.00117287,0.000894913,-0.00151184,-0.00211831,0.00226338,0.000961907,
,70,1608638304,765075761, ,0.938854,-1.47946,-1.7972,-1.48153,1.45873,1.25955, ,-0.000990065,0.00108107,-0.000539599,0.00224959,0.00233304,-0.00345073,
,71,1608638304,780968633, ,0.938839,-1.47944,-1.7972,-1.48149,1.45877,1.2595, ,-0.00195644,-0.00122611,0.000936516,-0.000100485,-0.000472546,0.00398442,
,72,1608638304,796861505, ,0.938808,-1.47946,-1.79719,-1.48149,1.45876,1.25956, ,0.000774101,-0.00197663,0.00120616,-0.00116697,-4.24747e-05,-0.00116042,
,73,1608638304,812754377, ,0.93882,-1.47949,-1.79717,-1.48151,1.45876,1.25954, ,0.000727869,0.00314802,0.000551907,-0.00305329,-0.00386687,0.000821791,
,74,1608638304,828647249, ,0.938832,-1.47944,-1.79716,-1.48156,1.4587,1.25955, ,-0.00154068,-0.000164814,-0.00184031,0.0019553,0.000650484,-0.000525382,
,75,1608638304,844540121, ,0.938807,-1.47944,-1.79719,-1.48153,1.45871,1.25955, ,0.00156241,-0.000437745,-0.00150529,0.00323862,-0.000418888,-0.000373569,
,76,1608638304,860432993, ,0.938832,-1.47945,-1.79722,-1.48148,1.4587,1.25954, ,0.00138038,0.000920277,0.00266585,-0.00194742,0.00401215,0.00130151,
,77,1608638304,876325865, ,0.938854,-1.47944,-1.79717,-1.48151,1.45877,1.25956, ,-0.00170898,-0.00342951,-0.000450178,0.000904442,-0.00382714,7.30596e-05,
,78,1608638304,892218737, ,0.938827,-1.47949,-1.79718,-1.48149,1.4587,1.25956, ,0.000671117,0.00393865,-0.0010994,-3.92599e-05,0.0022532,-0.00157001,
,79,1608638304,908111609, ,0.938837,-1.47943,-1.7972,-1.48149,1.45874,1.25954, ,-2.46954e-06,-0.00191727,0.00164397,0.000129866,0.000166711,0.00278364,
,80,1608638304,924004481, ,0.938837,-1.47946,-1.79717,-1.48149,1.45874,1.25958, ,0.000380688,-0.0016018,-0.00200504,-0.000879111,0.000229225,-0.00170823,
,81,1608638304,939897353, ,0.938843,-1.47948,-1.7972,-1.4815,1.45875,1.25955, ,-0.00060526,0.000844068,0.000247132,0.00136038,-0.00185717,-0.000288065,
,82,1608638304,955790225, ,0.938834,-1.47947,-1.7972,-1.48148,1.45872,1.25955, ,0.000381271,0.00135425,-0.000854334,-0.000750388,0.000743246,0.00135528,
,83,1608638304,971683097, ,0.93884,-1.47945,-1.79721,-1.48149,1.45873,1.25957, ,-0.00033925,-0.000516743,0.00265568,-0.00115294,0.00229353,-0.00270361,
,84,1608638304,987575969, ,0.938834,-1.47946,-1.79717,-1.48151,1.45877,1.25953, ,-0.002709,-0.00101808,-0.00133663,0.000393434,-0.00158071,0.00116214,
,85,1608638305,3468841, ,0.938791,-1.47947,-1.79719,-1.48151,1.45874,1.25955, ,0.0019251,0.000377918,0.00140993,0.00279115,0.00045454,-0.00228873,
,86,1608638305,19361713, ,0.938822,-1.47947,-1.79717,-1.48146,1.45875,1.25951, ,-0.000866176,0.000406367,-0.00131423,-0.00300898,-0.00106894,0.00252908,
,87,1608638305,35254585, ,0.938808,-1.47946,-1.79719,-1.48151,1.45873,1.25955, ,2.52509e-05,0.00130146,0.000113351,0.000670027,-0.00120047,-0.000217469,
,88,1608638305,51147457, ,0.938809,-1.47944,-1.79719,-1.4815,1.45871,1.25955, ,0.00151834,-0.00222512,0.00110976,0.000107915,0.00176466,0.000143845,
,89,1608638305,67040329, ,0.938833,-1.47948,-1.79717,-1.4815,1.45874,1.25955, ,0.000515417,-0.000653483,-0.00159721,-0.000339375,-0.00132655,-0.000142889,
,90,1608638305,82933201, ,0.938841,-1.47949,-1.7972,-1.4815,1.45872,1.25955, ,-0.00121594,-9.64983e-05,0.000804521,-0.000904416,0.00110714,3.93961e-05,
,91,1608638305,98826073, ,0.938822,-1.47949,-1.79718,-1.48152,1.45874,1.25955, ,0.000958378,0.00173782,0.000858145,-0.0016222,0.000913597,-0.000267074,
,92,1608638305,114718945, ,0.938837,-1.47946,-1.79717,-1.48154,1.45875,1.25954, ,0.000101704,0.00199582,-0.00128481,0.00128856,-0.000294248,-0.000591368,
,93,1608638305,130611817, ,0.938838,-1.47943,-1.79719,-1.48152,1.45875,1.25953, ,-0.000622556,-0.00305251,-0.00114198,0.00274902,0.000191707,0.000976156,
,94,1608638305,146504689, ,0.938829,-1.47948,-1.79721,-1.48148,1.45875,1.25955, ,0.00109703,0.00284479,0.000522212,-0.0014412,-0.000408408,-0.000562324,
,95,1608638305,162397561, ,0.938846,-1.47943,-1.7972,-1.4815,1.45874,1.25954, ,-0.00198435,-0.00221451,-6.0222e-06,0.000766555,0.000822344,0.00104949,
,96,1608638305,178290433, ,0.938814,-1.47947,-1.7972,-1.48149,1.45876,1.25956, ,0.00156798,-9.75024e-05,0.000235317,-0.00147826,-0.000120274,-0.00264657,
,97,1608638305,194183305, ,0.938839,-1.47947,-1.7972,-1.48151,1.45875,1.25951, ,0.000119316,0.000486662,0.00227535,-0.00236359,-0.000848383,0.00203043,
,98,1608638305,210076177, ,0.938841,-1.47946,-1.79716,-1.48155,1.45874,1.25955, ,-0.000382848,0.00215606,-0.00311743,0.00217341,0.00138039,0.000225806,
,99,1608638305,225969049, ,0.938835,-1.47943,-1.79721,-1.48152,1.45876,1.25955, ,4.09846e-05,-0.00349208,0.00149204,-0.000250387,-0.000790399,0.000474161,
,100,1608638305,241861921, ,0.938836,-1.47948,-1.79719,-1.48152,1.45875,1.25956, ,-0.000138092,0.00312902,0.00103299,0.000688399,0.00128267,-0.00117439,
,101,1608638305,257754793, ,0.938834,-1.47943,-1.79717,-1.48151,1.45877,1.25954, ,-0.000830612,-0.00309022,-0.0012296,0.000615921,-0.00125217,-0.00181928,
,102,1608638305,273647665, ,0.93882,-1.47948,-1.79719,-1.4815,1.45875,1.25951, ,0.00226741,0.00158,0.00177495,0.000613085,0.000252124,-0.000415578,
,103,1608638305,289540537, ,0.938856,-1.47946,-1.79716,-1.48149,1.45875,1.2595, ,-0.00212541,0.00138159,-0.00170639,-0.0012211,0.00121067,0.00318251,
,104,1608638305,305433409, ,0.938823,-1.47943,-1.79719,-1.48151,1.45877,1.25955, ,-0.000106081,-0.00170957,0.00083072,-0.00179418,-0.00179536,-0.00311678,
,105,1608638305,321326281, ,0.938821,-1.47946,-1.79717,-1.48154,1.45874,1.25951, ,-0.000833995,0.000317632,-0.00176471,0.0011179,0.000327814,0.0022081,
,106,1608638305,337219153, ,0.938808,-1.47946,-1.7972,-1.48152,1.45875,1.25954, ,0.00235264,0.00164241,-3.03661e-05,-0.00115605,0.000839351,-0.00171236,
,107,1608638305,353112025, ,0.938845,-1.47943,-1.7972,-1.48154,1.45876,1.25951, ,-0.000363439,-0.00143951,0.00212367,0.00159512,-0.00314483,0.00569637,
,108,1608638305,369004897, ,0.938839,-1.47945,-1.79717,-1.48151,1.45871,1.2596, ,0.00110899,0.000638624,-0.00282645,0.000345796,0.00137139,-0.00381407,
,109,1608638305,384897769, ,0.938857,-1.47944,-1.79721,-1.48151,1.45873,1.25954, ,-0.00312127,-0.00370056,0.0044187,-0.00126384,-0.00282326,-0.000158104,
,110,1608638305,400790641, ,0.938807,-1.4795,-1.79714,-1.48153,1.45869,1.25954, ,0.000315793,0.00154725,-0.00215836,0.00171389,0.00355783,0.000662948,
,111,1608638305,416683513, ,0.938812,-1.47948,-1.79718,-1.4815,1.45875,1.25955, ,0.00336612,0.000959598,0.000412072,-0.00146919,0.00153985,-3.63254e-06,
,112,1608638305,432576385, ,0.938866,-1.47946,-1.79717,-1.48152,1.45877,1.25955, ,-0.00185443,-0.000460978,-0.00158273,-0.000192476,-0.00246396,-0.00148589,
,113,1608638305,448469257, ,0.938836,-1.47947,-1.7972,-1.48153,1.45873,1.25953, ,-0.00114506,-0.000632008,0.00217718,-0.00144328,0.000238907,0.000997128,
,114,1608638305,464362129, ,0.938818,-1.47948,-1.79716,-1.48155,1.45874,1.25954, ,0.000176188,0.0012423,-0.000422788,0.00249462,0.0015124,-0.000879945,
,115,1608638305,480255001, ,0.938821,-1.47946,-1.79717,-1.48151,1.45876,1.25953, ,0.00293672,-0.000710142,-0.00126946,2.09739e-05,-0.00190366,0.000674567,
,116,1608638305,496147873, ,0.938868,-1.47947,-1.79719,-1.48151,1.45873,1.25954, ,-0.003018,-0.00175621,-0.000650579,0.00128406,0.000608027,0.000106311,
,117,1608638305,512040745, ,0.93882,-1.4795,-1.7972,-1.48149,1.45874,1.25954, ,0.00200448,-0.000279891,0.000514196,-0.00197889,0.00114271,-0.00282691,
,118,1608638305,527933617, ,0.938852,-1.4795,-1.79719,-1.48152,1.45876,1.2595, ,-0.00147606,0.00223459,0.000586068,-0.000255407,9.52608e-06,0.00210772,
,119,1608638305,543826489, ,0.938828,-1.47947,-1.79718,-1.48153,1.45876,1.25953, ,0.000220247,0.000417072,0.000658346,0.00336554,-0.000595875,0.00221204,
,120,1608638305,559719361, ,0.938832,-1.47946,-1.79717,-1.48147,1.45875,1.25957, ,0.0010265,0.000854499,1.29007e-05,-0.00207245,-0.000473808,-0.00323853,
,121,1608638305,575612233, ,0.938848,-1.47945,-1.79717,-1.4815,1.45874,1.25951, ,-0.000801345,-0.00224248,0.00146239,-0.000866611,-0.0023208,0.00124237,
,122,1608638305,591505105, ,0.938835,-1.47948,-1.79715,-1.48152,1.4587,1.25953, ,-0.000725018,0.00165409,-0.00378542,0.00107387,0.00225299,0.000248012,
,123,1608638305,607397977, ,0.938824,-1.47946,-1.79721,-1.4815,1.45874,1.25954, ,0.000859357,-0.000779324,0.000972065,-0.00162924,-0.00112756,0.00091948,
,124,1608638305,623290849, ,0.938837,-1.47947,-1.79719,-1.48153,1.45872,1.25955, ,-0.0011762,0.00115788,0.00152286,0.000450848,0.00052941,-0.00159736,
,125,1608638305,639183721, ,0.938819,-1.47945,-1.79717,-1.48152,1.45873,1.25953, ,0.000956159,-0.00130788,-0.0035726,-0.000194551,0.0014871,0.000169438,
,126,1608638305,655076593, ,0.938834,-1.47947,-1.79723,-1.48152,1.45875,1.25953, ,-0.00100004,0.00338342,0.000513369,0.00231376,0.00132901,0.000845649,
,127,1608638305,670969465, ,0.938818,-1.47942,-1.79722,-1.48149,1.45877,1.25954, ,0.000852849,-0.000855275,0.00445096,-0.00181735,-0.00256159,-0.00182643,
,128,1608638305,686862337, ,0.938831,-1.47943,-1.79715,-1.48152,1.45873,1.25951, ,0.000857156,-0.000442506,-0.00409043,0.00145963,-0.00151854,-0.000802764,
,129,1608638305,702755209, ,0.938845,-1.47944,-1.79721,-1.48149,1.45871,1.2595, ,-0.00304854,-8.76582e-05,3.35392e-05,-0.00362041,0.00122584,0.00569922,
,130,1608638305,718648081, ,0.938797,-1.47944,-1.79721,-1.48155,1.45873,1.25959, ,0.00146114,0.00120157,0.00263239,0.00188674,0.00257218,-0.00260471,
,131,1608638305,734540953, ,0.93882,-1.47942,-1.79717,-1.48152,1.45877,1.25955, ,0.00169078,-0.00141712,-0.00131191,0.00176173,-0.00242138,-0.00248688,
,132,1608638305,750433825, ,0.938847,-1.47944,-1.79719,-1.48149,1.45873,1.25951, ,-0.000246608,-0.000847376,0.00145153,-2.5245e-05,0.00140193,0.00353778,
,133,1608638305,766326697, ,0.938843,-1.47946,-1.79717,-1.48149,1.45875,1.25957, ,0.00117453,0.000627521,-0.00122646,-0.00253859,0.000532339,-0.00132044,
,134,1608638305,782219569, ,0.938861,-1.47945,-1.79719,-1.48153,1.45876,1.25955, ,-0.000672514,-0.00204958,0.00210325,0.000421951,-0.00186879,-0.00188034,
,135,1608638305,798112441, ,0.938851,-1.47948,-1.79715,-1.48153,1.45873,1.25952, ,-2.91522e-05,0.00184002,-0.00333822,0.000423749,0.00105963,0.00259532,
,136,1608638305,814005313, ,0.93885,-1.47945,-1.79721,-1.48152,1.45875,1.25956, ,-0.000578085,-0.00130768,0.00101989,-2.00039e-05,-0.00251602,0.00117849,
,137,1608638305,829898185, ,0.938841,-1.47947,-1.79719,-1.48152,1.45871,1.25958, ,-0.000346529,-0.000195784,0.000644481,-0.000850387,0.000779479,0.000260282,
,138,1608638305,845791057, ,0.938836,-1.47947,-1.79718,-1.48153,1.45872,1.25958, ,0.00046221,0.00170397,-0.00103478,-0.00108983,0.00159149,-0.00169134,
,139,1608638305,861683929, ,0.938843,-1.47945,-1.7972,-1.48155,1.45875,1.25955, ,-0.00131807,0.000515451,0.00248135,0.00329447,0.00108643,0.00163582,
,140,1608638305,877576801, ,0.938822,-1.47944,-1.79716,-1.4815,1.45876,1.25958, ,0.000590114,-0.00160827,-0.00135932,-0.000925466,-0.00112223,-0.00146724,
,141,1608638305,893469673, ,0.938831,-1.47946,-1.79718,-1.48151,1.45875,1.25956, ,0.00044463,0.000486003,-0.00147322,-0.000894318,-9.81267e-06,-0.00243917,
,142,1608638305,909362545, ,0.938838,-1.47946,-1.7972,-1.48153,1.45875,1.25952, ,-0.00130784,-0.000985959,-0.0007847,-4.75129e-05,0.00100812,0.00152987,
,143,1608638305,925255417, ,0.938818,-1.47947,-1.79721,-1.48153,1.45876,1.25954, ,0.000826653,-0.00176955,0.0014332,-0.00272477,-0.00126391,-4.93488e-05,
,144,1608638305,941148289, ,0.938831,-1.4795,-1.79719,-1.48157,1.45874,1.25954, ,4.12206e-05,0.00371854,0.00132597,0.00325119,-0.000171228,0.000567003,
,145,1608638305,957041161, ,0.938831,-1.47944,-1.79717,-1.48152,1.45874,1.25955, ,8.75255e-05,-0.00114572,-0.00127471,-0.000194347,0.000538975,-0.00310668,
,146,1608638305,972934033, ,0.938833,-1.47946,-1.79719,-1.48152,1.45875,1.2595, ,0.000629406,0.000867393,-0.000792639,0.000740617,0.000510205,0.0037395,
,147,1608638305,988826905, ,0.938843,-1.47944,-1.7972,-1.48151,1.45876,1.25956, ,-0.000529895,-0.000456898,-0.000989762,-0.000330134,-0.000553367,0.000785993,
,148,1608638306,4719777, ,0.938834,-1.47945,-1.79722,-1.48152,1.45875,1.25957, ,-0.00110028,-0.000454886,0.00229036,0.000708961,0.000485221,-0.00148539,
,149,1608638306,20612649, ,0.938817,-1.47946,-1.79718,-1.4815,1.45876,1.25955, ,0.000912985,-0.000804962,-5.08939e-05,-0.00208244,-0.00228141,-0.000994803,
,150,1608638306,36505521, ,0.938831,-1.47947,-1.79718,-1.48154,1.45872,1.25953, ,0.000113031,0.00109432,-0.000543407,0.00144521,-0.000947376,0.000758793,
,151,1608638306,52398393, ,0.938833,-1.47945,-1.79719,-1.48151,1.4587,1.25954, ,0.000859461,0.000321385,0.0022355,0.000278386,0.0038255,-0.000318264,
,152,1608638306,68291265, ,0.938847,-1.47945,-1.79716,-1.48151,1.45876,1.25954, ,-0.00127043,0.00158959,-9.17046e-05,0.000300045,-0.0024289,-0.00202996,
,153,1608638306,84184137, ,0.938827,-1.47942,-1.79716,-1.48151,1.45873,1.25951, ,4.86701e-05,-0.000670763,-0.00230631,-0.000189384,0.00149912,0.00246664,
,154,1608638306,100077009, ,0.938828,-1.47944,-1.79719,-1.48151,1.45875,1.25955, ,0.000793747,-0.000767343,0.000316785,-0.000136649,-0.00255912,0.000961727,
,155,1608638306,115969881, ,0.93884,-1.47945,-1.79719,-1.48151,1.45871,1.25956, ,0.000461991,-0.00143941,-0.000294205,0.000350576,-0.000112134,0.000825739,
,156,1608638306,131862753, ,0.938847,-1.47947,-1.79719,-1.4815,1.45871,1.25958, ,-0.00234862,0.000490563,0.00187784,-0.000620949,0.00148742,-0.00046639,
,157,1608638306,147755625, ,0.93881,-1.47946,-1.79716,-1.48151,1.45873,1.25957, ,0.00220144,-0.000378716,-0.00260126,-0.000304951,0.000511814,-0.00210015,
,158,1608638306,163648497, ,0.938845,-1.47947,-1.79721,-1.48152,1.45874,1.25953, ,0.000597859,0.000478387,0.00297374,-0.000739368,0.00190463,0.00100622,
,159,1608638306,179541369, ,0.938855,-1.47946,-1.79716,-1.48153,1.45877,1.25955, ,-0.000694272,0.0013541,0.000535893,-0.00180594,-0.00250602,-4.44367e-05,
,160,1608638306,195434241, ,0.938844,-1.47944,-1.79715,-1.48156,1.45873,1.25955, ,-0.00144861,0.000628134,-0.00376415,0.00328379,-0.00247811,-0.000465608,
,161,1608638306,211327113, ,0.938821,-1.47943,-1.79721,-1.48151,1.45869,1.25954, ,0.00235739,-0.00124749,0.00360018,0.000114351,0.00292999,0.00161782,
,162,1608638306,227219985, ,0.938858,-1.47945,-1.79715,-1.48151,1.45874,1.25957, ,-0.000812378,-0.000961356,-0.00299248,0.000650358,-0.000606404,-0.00126533,
,163,1608638306,243112857, ,0.938845,-1.47946,-1.7972,-1.4815,1.45873,1.25955, ,0.00124052,0.000262069,0.000233704,-0.00227181,0.00236065,-0.00174277,
,164,1608638306,259005729, ,0.938865,-1.47946,-1.7972,-1.48153,1.45876,1.25952, ,-0.00136163,0.000293227,-0.0009923,0.00176226,-0.00257584,0.001896,
,165,1608638306,274898601, ,0.938843,-1.47946,-1.79721,-1.4815,1.45872,1.25955, ,-0.00075821,-0.0013903,0.00146992,-0.000295999,-0.000887741,-0.00129833,
,166,1608638306,290791473, ,0.938831,-1.47948,-1.79719,-1.48151,1.45871,1.25953, ,0.00257091,0.00049916,-0.000768108,0.000985442,0.00404247,0.00133411,
,167,1608638306,306684345, ,0.938872,-1.47947,-1.7972,-1.48149,1.45877,1.25955, ,-0.00339827,-0.000719455,0.000256897,-0.00183673,-0.000756061,0.00107461,
,168,1608638306,322577217, ,0.938818,-1.47948,-1.7972,-1.48152,1.45876,1.25957, ,0.000845778,0.00115087,-0.000542722,-1.79185e-06,-0.00136103,-0.000650414,
,169,1608638306,338470089, ,0.938831,-1.47946,-1.79721,-1.48152,1.45874,1.25956, ,-0.00107273,0.000772786,0.000983517,0.00139804,-0.000125924,-0.00273916,
,170,1608638306,354362961, ,0.938814,-1.47945,-1.79719,-1.4815,1.45874,1.25951, ,-0.00011998,-0.00156688,0.00122863,-0.00147392,-0.00137602,-0.000138764,
,171,1608638306,370255833, ,0.938813,-1.47948,-1.79717,-1.48152,1.45872,1.25951, ,0.00304607,0.000110141,0.000488424,0.000349172,0.000632975,0.00287837,
,172,1608638306,386148705, ,0.938861,-1.47947,-1.79716,-1.48152,1.45873,1.25956, ,-0.00112313,0.00101088,-0.000381083,0.00125409,0.000146192,-0.000308616,
,173,1608638306,402041577, ,0.938843,-1.47946,-1.79717,-1.4815,1.45873,1.25955, ,-0.00144215,0.00180243,-0.00196249,-0.00139986,0.00197004,-0.000825481,
,174,1608638306,417934449, ,0.93882,-1.47943,-1.7972,-1.48152,1.45876,1.25954, ,0.00144961,-0.000540386,-0.000607592,0.000624575,-0.00192646,-8.09848e-06,
,175,1608638306,433827321, ,0.938843,-1.47944,-1.79721,-1.48151,1.45873,1.25954, ,-0.00190061,0.00148945,0.00308169,-2.83221e-05,0.00249815,1.91779e-05,
,176,1608638306,449720193, ,0.938813,-1.47941,-1.79716,-1.48151,1.45877,1.25954, ,0.000562462,-0.00158267,-0.00374071,0.000230613,-0.00474212,-0.00237336,
,177,1608638306,465613065, ,0.938822,-1.47944,-1.79722,-1.48151,1.45869,1.2595, ,0.000897233,-0.00118306,0.00188516,-0.000276958,0.00344807,0.00354786,
,178,1608638306,481505937, ,0.938836,-1.47946,-1.79719,-1.48151,1.45875,1.25956, ,-0.00209095,0.0029439,2.06974e-05,0.00149249,-0.000357373,0.00121304,
,179,1608638306,497398809, ,0.938803,-1.47941,-1.79719,-1.48149,1.45874,1.25958, ,0.00274822,-0.00474002,0.000663036,-0.00242916,0.000365958,-0.00100181,
,180,1608638306,513291681, ,0.938847,-1.47949,-1.79718,-1.48153,1.45875,1.25956, ,-0.00116544,0.00300417,-0.000838287,0.00164842,-0.000454938,-0.00230132,
,181,1608638306,529184553, ,0.938828,-1.47944,-1.79719,-1.4815,1.45874,1.25953, ,-0.000458625,-0.000625263,-0.000404423,-0.00078154,-0.000117509,0.00207156,
,182,1608638306,545077425, ,0.938821,-1.47945,-1.7972,-1.48151,1.45874,1.25956, ,0.000179158,0.00125369,0.0012222,-0.000575916,0.00179597,-0.00104411,
,183,1608638306,560970297, ,0.938824,-1.47943,-1.79718,-1.48152,1.45877,1.25954, ,0.00182121,-0.00128279,0.000796484,0.000896029,-0.00341269,-0.000232807,
,184,1608638306,576863169, ,0.938853,-1.47945,-1.79717,-1.48151,1.45871,1.25954, ,-0.00323596,-0.00167596,-0.00251616,-0.000621947,0.00218785,-0.00131506,
,185,1608638306,592756041, ,0.938801,-1.47948,-1.79721,-1.48152,1.45875,1.25952, ,0.00166298,0.00181765,0.00229579,0.00100489,0.000251593,0.00154798,
,186,1608638306,608648913, ,0.938828,-1.47945,-1.79717,-1.4815,1.45875,1.25954, ,0.000899325,-0.00051219,0.000200273,-0.00364457,-0.00256564,-0.00017396,
,187,1608638306,624541785, ,0.938842,-1.47946,-1.79717,-1.48156,1.45871,1.25954, ,0.000138469,0.00160464,-0.000109307,0.00259031,0.00234806,-1.96958e-05,
,188,1608638306,640434657, ,0.938844,-1.47943,-1.79717,-1.48152,1.45875,1.25954, ,-0.000755928,-0.00188393,0.000560987,0.000509036,-0.000586108,-0.00178503,
,189,1608638306,656327529, ,0.938832,-1.47946,-1.79716,-1.48151,1.45874,1.25951, ,0.00164121,7.89447e-05,-6.89527e-05,-0.00143412,0.000548386,0.00384567,
,190,1608638306,672220401, ,0.938858,-1.47946,-1.79716,-1.48153,1.45875,1.25957, ,-0.000922923,0.000130696,-0.00020069,0.000619897,-0.000469404,-0.00259392,
,191,1608638306,688113273, ,0.938844,-1.47946,-1.79716,-1.48152,1.45874,1.25953, ,0.000578126,-0.000305944,-0.00235779,0.000922349,-0.00174848,0.00227865,
,192,1608638306,704006145, ,0.938853,-1.47946,-1.7972,-1.48151,1.45871,1.25957, ,-0.000942354,0.002214,0.000706098,0.000912138,0.000891707,-0.00239525,
,193,1608638306,719899017, ,0.938838,-1.47943,-1.79719,-1.48149,1.45873,1.25953, ,-0.00155442,-0.00112921,-0.000344049,-0.00119182,-0.000358673,0.00143649,
,194,1608638306,735791889, ,0.938813,-1.47944,-1.7972,-1.48151,1.45872,1.25955, ,0.00113023,0.000175697,0.000455462,0.00121543,0.00178558,-0.000493918,
,195,1608638306,751684761, ,0.938831,-1.47944,-1.79719,-1.48149,1.45875,1.25954, ,0.00166941,0.00101437,-0.000699964,-0.000991454,-0.00187086,-0.00136643,
,196,1608638306,767577633, ,0.938858,-1.47942,-1.7972,-1.48151,1.45872,1.25952, ,0.000367598,-0.00414311,0.0029337,-0.000987275,0.00209487,0.00190227,
,197,1608638306,783470505, ,0.938863,-1.47949,-1.79715,-1.48152,1.45875,1.25955, ,-0.000964734,0.000815085,-0.00061235,-0.00230366,-0.00168213,-0.000843202,
,198,1608638306,799363377, ,0.938848,-1.47948,-1.79716,-1.48156,1.45873,1.25954, ,-0.000442613,0.000624727,-0.000925154,0.00210582,-0.00142703,-0.000363235,
,199,1608638306,815256249, ,0.938841,-1.47947,-1.79718,-1.48153,1.4587,1.25953, ,-0.00102344,0.00136788,0.000498254,0.000464473,0.00159613,0.00239999,
,200,1608638306,831149121, ,0.938825,-1.47945,-1.79717,-1.48152,1.45873,1.25957, ,0.000472875,-0.000887808,-0.00150865,0.000761911,0.00139323,-0.00363155,
,201,1608638306,847041993, ,0.938832,-1.47946,-1.79719,-1.48151,1.45875,1.25951, ,-0.00147799,-0.00101158,6.26695e-05,0.00046519,-0.00276272,-0.000428796,
,202,1608638306,862934865, ,0.938809,-1.47948,-1.79719,-1.4815,1.45871,1.25951, ,-9.57883e-05,0.000513125,0.0013804,0.000706064,0.00197351,0.00347105,
,203,1608638306,878827737, ,0.938807,-1.47947,-1.79717,-1.48149,1.45874,1.25956, ,0.0023526,0.0023593,5.84537e-05,-0.00123788,-0.000586457,-0.003187,
,204,1608638306,894720609, ,0.938845,-1.47943,-1.79717,-1.48151,1.45873,1.25951, ,-0.00172549,-0.00338287,-0.000146675,-9.88591e-05,0.00103343,0.00180657,
,205,1608638306,910613481, ,0.938817,-1.47948,-1.79717,-1.48151,1.45875,1.25954, ,0.000585053,0.00350877,-0.00168905,0.00141555,0.000359402,-1.20281e-05,
,206,1608638306,926506353, ,0.938826,-1.47943,-1.7972,-1.48149,1.45875,1.25954, ,0.000656284,-0.00316759,0.000478231,0.000669724,-0.00203787,-0.00230037,
,207,1608638306,942399225, ,0.938837,-1.47948,-1.79719,-1.48148,1.45872,1.2595, ,-0.000701856,0.00332596,0.00153744,-0.00257138,4.97401e-05,0.00310822,
,208,1608638306,958292097, ,0.938826,-1.47943,-1.79717,-1.48152,1.45872,1.25955, ,0.000372504,-0.00169978,-0.000539375,0.000507003,0.00113367,-0.00213488,
,209,1608638306,974184969, ,0.938832,-1.47945,-1.79718,-1.48151,1.45874,1.25952, ,0.000305272,0.00132036,-0.0012695,0.000171491,0.00103674,0.00311654,
,210,1608638306,990077841, ,0.938837,-1.47943,-1.7972,-1.48151,1.45876,1.25957, ,-0.000983995,-0.000726299,0.00112244,-0.00135481,-0.00153421,-0.000869463,
,211,1608638307,5970713, ,0.938821,-1.47944,-1.79718,-1.48153,1.45873,1.25955, ,-0.000262161,-0.0012886,0.00109588,0.000707473,-0.000643352,6.25853e-05,
,212,1608638307,21863585, ,0.938817,-1.47946,-1.79716,-1.48152,1.45872,1.25955, ,0.00300371,0.00223994,-0.00234538,8.41893e-05,0.0032499,-0.000929894,
,213,1608638307,37756457, ,0.938864,-1.47943,-1.7972,-1.48152,1.45877,1.25954, ,-0.00293542,-0.00280398,0.000160125,0.000769628,-0.00371597,0.00152549,
,214,1608638307,53649329, ,0.938818,-1.47947,-1.7972,-1.4815,1.45871,1.25956, ,0.00419733,0.0013849,0.00178337,-0.00170153,0.00184312,-0.00118721,
,215,1608638307,69542201, ,0.938885,-1.47945,-1.79717,-1.48153,1.45874,1.25955, ,-0.00306079,-0.00156606,0.000627412,0.000825788,-0.0029803,-0.00228004,
,216,1608638307,85435073, ,0.938836,-1.47948,-1.79716,-1.48152,1.4587,1.25951, ,0.000454745,0.0004226,-0.00258745,-0.000159118,0.000843935,0.00313956,
,217,1608638307,101327945, ,0.938843,-1.47947,-1.7972,-1.48152,1.45871,1.25956, ,0.000807462,-4.80802e-05,-0.000103074,0.000708067,0.00134072,0.00193841,
,218,1608638307,117220817, ,0.938856,-1.47947,-1.7972,-1.48151,1.45873,1.25959, ,-0.0015793,0.00191618,5.29127e-05,0.00241492,0.0012697,-0.00531198,
,219,1608638307,133113689, ,0.938831,-1.47944,-1.7972,-1.48147,1.45875,1.25951, ,0.000733515,-0.00148589,0.00173462,-0.00314023,-0.000886491,0.00364918,
,220,1608638307,149006561, ,0.938842,-1.47946,-1.79717,-1.48152,1.45874,1.25956, ,0.0013027,0.000255272,-0.00105197,0.00166593,-0.00186921,-0.00139837,
,221,1608638307,164899433, ,0.938863,-1.47946,-1.79719,-1.4815,1.45871,1.25954, ,-0.00137052,0.000670237,-7.36901e-05,0.000809972,0.00198161,-0.000229502,
,222,1608638307,180792305, ,0.938841,-1.47945,-1.79719,-1.48148,1.45874,1.25954, ,0.000555466,-0.000267504,0.00151248,-0.000965661,-0.000846939,0.0010815,
,223,1608638307,196685177, ,0.93885,-1.47945,-1.79717,-1.4815,1.45872,1.25955, ,-0.00111753,0.000213337,-0.0034039,0.00198134,-0.000209093,-0.000855951,
,224,1608638307,212578049, ,0.938832,-1.47945,-1.79722,-1.48147,1.45872,1.25954, ,0.000709118,-0.00017069,0.00313066,-0.0042717,0.000692211,0.000699003,
,225,1608638307,228470921, ,0.938844,-1.47945,-1.79717,-1.48153,1.45873,1.25955, ,0.000509146,-0.000286845,-0.00157062,0.001973,4.745e-05,0.000793207,
,226,1608638307,244363793, ,0.938852,-1.47946,-1.79719,-1.4815,1.45873,1.25956, ,-0.00165645,0.000664654,0.00036671,-0.00132437,0.000919736,-0.00229722,
,227,1608638307,260256665, ,0.938826,-1.47945,-1.79719,-1.48152,1.45875,1.25953, ,0.00126233,-0.00185079,0.00067681,0.00155382,-1.64808e-05,-0.000379889,
,228,1608638307,276149537, ,0.938846,-1.47948,-1.79718,-1.4815,1.45875,1.25952, ,0.000606538,0.00067837,-0.000427511,-0.000361107,-0.000674966,0.00170081,
,229,1608638307,292042409, ,0.938855,-1.47946,-1.79718,-1.4815,1.45874,1.25955, ,-0.000547355,-0.000236146,-0.0002287,0.000906375,0.00126752,-7.93269e-05,
,230,1608638307,307935281, ,0.938847,-1.47947,-1.79719,-1.48149,1.45876,1.25955, ,-6.28275e-05,0.00245937,-0.000109779,-0.00377128,-0.00297991,-0.00015294,
,231,1608638307,323828153, ,0.938846,-1.47943,-1.79719,-1.48155,1.45871,1.25955, ,-0.00304536,0.00177368,0.00187695,0.00317369,5.71072e-05,0.000885788,
,232,1608638307,339721025, ,0.938797,-1.4794,-1.79716,-1.4815,1.45871,1.25956, ,0.00366052,-0.00499448,-0.00250589,-0.00123295,0.00320795,-0.00190708,
,233,1608638307,355613897, ,0.938855,-1.47948,-1.7972,-1.48152,1.45876,1.25953, ,-0.00155937,0.000713293,2.16942e-05,0.00328752,-0.0014583,0.00130931,
,234,1608638307,371506769, ,0.938831,-1.47947,-1.7972,-1.48147,1.45874,1.25955, ,-2.09906e-05,-0.000762364,0.00203409,-0.00187199,0.00121951,-0.000236239,
,235,1608638307,387399641, ,0.93883,-1.47948,-1.79717,-1.4815,1.45876,1.25955, ,0.000281456,0.00238813,0.000151527,-0.000849705,-0.00116397,0.00021754,
,236,1608638307,403292513, ,0.938835,-1.47944,-1.79717,-1.48151,1.45874,1.25955, ,-0.00207345,0.000423548,-0.000436839,0.000154494,0.00111604,0.000459062,
,237,1608638307,419185385, ,0.938802,-1.47944,-1.79717,-1.48151,1.45876,1.25956, ,0.00397261,-0.00162846,-0.000931459,0.000484882,-0.0023529,-0.00133566,
,238,1608638307,435078257, ,0.938865,-1.47946,-1.79719,-1.4815,1.45872,1.25954, ,-0.00158971,-0.000754688,0.000339496,-0.00129561,-0.000145276,0.000524588,
,239,1608638307,450971129, ,0.93884,-1.47947,-1.79718,-1.48152,1.45872,1.25954, ,-0.00151658,0.00229144,0.000664378,0.00131914,0.00279995,0.000612373,
,240,1608638307,466864001, ,0.938815,-1.47944,-1.79717,-1.4815,1.45876,1.25955, ,0.000318577,-0.0017606,-0.00195698,-0.000150403,-0.000555963,-0.000828302,
,241,1608638307,482756873, ,0.938821,-1.47947,-1.7972,-1.4815,1.45875,1.25954, ,0.000471767,-0.000342552,0.00259952,0.000895098,0.000677588,8.31911e-05,
,242,1608638307,498649745, ,0.938828,-1.47947,-1.79716,-1.48149,1.45876,1.25954, ,-0.000284965,0.00109046,-0.00246736,-0.002058,-0.00178422,0.00058148,
,243,1608638307,514542617, ,0.938824,-1.47945,-1.7972,-1.48152,1.45873,1.25955, ,0.000474078,0.00118215,0.000731397,0.00187724,0.000305227,-0.00298646,
,244,1608638307,530435489, ,0.938831,-1.47944,-1.79719,-1.48149,1.45874,1.2595, ,0.000964723,0.000477425,0.00105562,-0.00119593,-0.000343205,0.00637192,
,245,1608638307,546328361, ,0.938846,-1.47943,-1.79717,-1.48151,1.45873,1.25961, ,0.000633218,-0.00184974,5.97713e-05,-0.000712991,-0.000164235,-0.00407806,
,246,1608638307,562221233, ,0.938856,-1.47946,-1.79717,-1.48152,1.45873,1.25954, ,-0.00229378,-0.000802643,-0.00184722,7.28775e-05,-0.0026223,-3.06038e-05,
,247,1608638307,578114105, ,0.93882,-1.47947,-1.7972,-1.48152,1.45869,1.25954, ,0.000730189,0.000703279,0.000653104,-0.000577781,0.00124432,0.000588768,
,248,1608638307,594006977, ,0.938832,-1.47946,-1.79719,-1.48153,1.45871,1.25955, ,-0.000609037,0.000675818,0.000925452,0.00245197,-0.000343646,-0.00388179,
,249,1608638307,609899849, ,0.938822,-1.47945,-1.79717,-1.48149,1.4587,1.25949, ,0.000920277,0.000580796,-0.00139516,-0.000954223,0.00232538,0.00325505,
,250,1608638307,625792721, ,0.938837,-1.47944,-1.7972,-1.48151,1.45874,1.25954, ,0.000303039,-0.000726943,-0.000583122,-0.000907192,0.000108684,0.000659036,
,251,1608638307,641685593, ,0.938841,-1.47945,-1.79721,-1.48152,1.45874,1.25955, ,8.47875e-06,-0.000405678,0.000946212,0.00117304,0.000150194,-0.000822531,
,252,1608638307,657578465, ,0.938841,-1.47946,-1.79719,-1.4815,1.45875,1.25954, ,-0.000942519,6.21703e-05,0.000143016,-8.11847e-05,0.0019764,-0.000163232,
,253,1608638307,673471337, ,0.938827,-1.47946,-1.79719,-1.4815,1.45878,1.25953, ,-0.00191227,-0.00139839,0.000958084,-0.000606281,-0.00127481,0.000930826,
,254,1608638307,689364209, ,0.938796,-1.47948,-1.79717,-1.48151,1.45876,1.25955, ,0.000624294,0.000166723,-0.00187051,-0.00307264,-0.0023169,0.000167164,
,255,1608638307,705257081, ,0.938806,-1.47948,-1.7972,-1.48156,1.45872,1.25955, ,0.00279416,-0.000363186,0.000531509,0.0010369,0.0015014,0.000681992,
,256,1608638307,721149953, ,0.93885,-1.47948,-1.7972,-1.48154,1.45874,1.25956, ,-0.00230118,5.05752e-05,-0.000687112,0.00303256,-0.000552534,-0.000747799,
,257,1608638307,737042825, ,0.938814,-1.47948,-1.79721,-1.4815,1.45873,1.25955, ,0.00242861,-0.00049353,0.00191616,0.00151037,0.00152624,-0.00277384,
,258,1608638307,752935697, ,0.938852,-1.47949,-1.79718,-1.48147,1.45876,1.25951, ,-0.00286448,-0.00030272,-0.0026597,-0.00272614,-3.82508e-05,0.00233942,
,259,1608638307,768828569, ,0.938807,-1.47949,-1.79722,-1.48152,1.45876,1.25954, ,0.00232601,0.00130827,0.00189692,0.000459762,-0.00293938,-9.16194e-05,
,260,1608638307,784721441, ,0.938844,-1.47947,-1.79719,-1.48151,1.45871,1.25954, ,6.47588e-06,-0.000408983,0.00227854,-0.00265339,0.00236431,-0.00018622,
,261,1608638307,800614313, ,0.938844,-1.47948,-1.79715,-1.48155,1.45875,1.25954, ,-0.00153426,-7.14523e-05,-0.00364247,0.00256758,-0.000592311,0.00324383,
,262,1608638307,816507185, ,0.93882,-1.47948,-1.79721,-1.48151,1.45874,1.25959, ,0.00381611,-0.000806612,0.00013027,7.72197e-05,0.00204151,-0.00489616,
,263,1608638307,832400057, ,0.93888,-1.47949,-1.79721,-1.48151,1.45877,1.25951, ,-0.00363347,0.00407516,0.00248901,-0.000588605,-0.000673913,0.00153292,
,264,1608638307,848292929, ,0.938823,-1.47943,-1.79717,-1.48152,1.45876,1.25954, ,0.000572779,-0.00581026,-0.000320766,9.6925e-06,-0.00221057,0.000203067,
,265,1608638307,864185801, ,0.938832,-1.47952,-1.79717,-1.48152,1.45873,1.25954, ,-0.00120062,0.00260317,-0.00147628,0.000381447,0.000412654,-0.00119723,
,266,1608638307,880078673, ,0.938813,-1.47948,-1.7972,-1.48151,1.45873,1.25952, ,-0.00281863,0.000921846,-0.000576849,-0.000124661,0.00206723,0.000353808,
,267,1608638307,895971545, ,0.938768,-1.47946,-1.79721,-1.48151,1.45877,1.25953, ,0.00566858,0.000941678,0.00118988,0.00103359,-0.00206744,-2.33067e-05,
,268,1608638307,911864417, ,0.938858,-1.47945,-1.79719,-1.4815,1.45873,1.25953, ,-0.00179361,-0.000386075,-9.26825e-05,-0.000781909,-0.000776117,0.00108378,
,269,1608638307,927757289, ,0.938829,-1.47946,-1.79719,-1.48151,1.45872,1.25954, ,0.00104935,-0.00107492,0.000270977,0.00165735,0.00138955,-0.00166779,
,270,1608638307,943650161, ,0.938846,-1.47947,-1.79718,-1.48148,1.45874,1.25952, ,-0.000283506,0.00101206,-0.00123102,-0.00210139,0.000276747,0.00150564,
,271,1608638307,959543033, ,0.938842,-1.47946,-1.7972,-1.48152,1.45875,1.25954, ,-0.00101765,0.0012079,0.000761519,0.000877558,-0.00152897,-0.000570946,
,272,1608638307,975435905, ,0.938825,-1.47944,-1.79719,-1.4815,1.45872,1.25953, ,0.00134136,-0.000957272,0.00018901,-0.00116685,0.0018552,0.00197746,
,273,1608638307,991328777, ,0.938847,-1.47945,-1.79719,-1.48152,1.45875,1.25956, ,-0.000993334,-0.00175623,-0.000826651,0.00132068,-0.00144581,-0.00365861,
,274,1608638308,7221649, ,0.938831,-1.47948,-1.7972,-1.4815,1.45873,1.25951, ,0.000130042,0.00314154,0.00207691,-0.00195161,0.00179342,0.00152809,
,275,1608638308,23114521, ,0.938833,-1.47943,-1.79717,-1.48153,1.45876,1.25953, ,0.00145172,-0.00185621,-0.00135882,0.000705755,-0.0036447,1.36278e-06,
,276,1608638308,39007393, ,0.938856,-1.47946,-1.79719,-1.48152,1.4587,1.25953, ,-0.00231481,-0.00117534,-0.000612979,0.00192787,0.000591992,-0.00204263,
,277,1608638308,54900265, ,0.938819,-1.47948,-1.7972,-1.48149,1.45871,1.2595, ,0.00163888,0.00108947,0.00264517,-0.000135037,-0.00039964,0.00446391,
,278,1608638308,70793137, ,0.938845,-1.47946,-1.79716,-1.48149,1.4587,1.25957, ,-0.000951692,0.00136525,-0.00262716,0.000902516,0.00287264,-0.000728225,
,279,1608638308,86686009, ,0.93883,-1.47944,-1.7972,-1.48148,1.45875,1.25956, ,0.000728985,-0.00202221,0.000159298,-0.00226688,0.000493881,-0.000451019,
,280,1608638308,102578881, ,0.938842,-1.47947,-1.7972,-1.48151,1.45876,1.25955, ,-0.000710466,0.00132203,-0.000339392,-0.000413799,-0.000788409,-0.00119525,
,281,1608638308,118471753, ,0.93883,-1.47945,-1.7972,-1.48152,1.45874,1.25953, ,-0.000165345,0.000845557,0.00214341,-0.000237992,0.000689189,0.00116855,
,282,1608638308,134364625, ,0.938828,-1.47944,-1.79717,-1.48152,1.45875,1.25955, ,-0.0016773,-0.00199367,-0.000729497,0.00244216,-0.0023825,0.00208099,
,283,1608638308,150257497, ,0.938801,-1.47947,-1.79718,-1.48148,1.45872,1.25958, ,0.00162769,4.42939e-05,-0.00264062,-0.000849992,0.00266729,-0.004832,
,284,1608638308,166150369, ,0.938827,-1.47947,-1.79722,-1.4815,1.45876,1.25951, ,0.000205093,-0.000796033,0.00158813,0.000715324,-0.00200417,0.00125646,
,285,1608638308,182043241, ,0.93883,-1.47948,-1.7972,-1.48149,1.45873,1.25953, ,0.00173475,0.000416753,0.000889849,-0.00166697,0.00243537,0.000737186,
,286,1608638308,197936113, ,0.938858,-1.47947,-1.79718,-1.48151,1.45877,1.25954, ,-0.00320808,0.00199234,0.00196388,0.000270924,-0.00179754,-0.00287292,
,287,1608638308,213828985, ,0.938807,-1.47944,-1.79715,-1.48151,1.45874,1.25949, ,0.00308238,-0.00126903,-0.00238712,-0.000144839,0.000109851,0.00448508,
,288,1608638308,229721857, ,0.938856,-1.47946,-1.79719,-1.48151,1.45874,1.25956, ,-0.00285294,-0.00108095,0.00138305,4.87824e-05,0.00137309,-0.00348267,
,289,1608638308,245614729, ,0.938811,-1.47948,-1.79717,-1.48151,1.45876,1.25951, ,0.001441,0.00379252,-0.00147291,0.00128676,-0.000647452,0.00196997,
,290,1608638308,261507601, ,0.938833,-1.47942,-1.79719,-1.48149,1.45875,1.25954, ,-0.00162928,-0.00139579,-0.00130608,0.00130443,0.000507627,8.31408e-05,
,291,1608638308,277400473, ,0.938808,-1.47944,-1.79721,-1.48147,1.45876,1.25954, ,0.00164764,-0.00176693,0.000774623,-0.00125096,7.73599e-05,-0.000131634,
,292,1608638308,293293345, ,0.938834,-1.47947,-1.7972,-1.48149,1.45876,1.25954, ,-0.00064909,0.000709132,1.81463e-05,-0.00123491,-0.000806394,0.00143343,
,293,1608638308,309186217, ,0.938823,-1.47946,-1.7972,-1.48151,1.45875,1.25956, ,0.000908643,-0.000964269,-9.49299e-05,0.00214776,-0.000372966,-0.00115772,
,294,1608638308,325079089, ,0.938838,-1.47947,-1.7972,-1.48147,1.45874,1.25954, ,0.000673904,-6.78316e-05,0.000717265,-0.0017309,0.000120341,-5.70666e-05,
,295,1608638308,340971961, ,0.938849,-1.47948,-1.79719,-1.4815,1.45874,1.25954, ,5.81268e-05,2.20421e-05,0.000100401,-0.00155475,0.000452575,0.000863085,
,296,1608638308,356864833, ,0.938849,-1.47947,-1.79719,-1.48153,1.45875,1.25956, ,-0.000353351,0.000665798,-0.00107415,0.00138048,-0.00135692,-0.000617851,
,297,1608638308,372757705, ,0.938844,-1.47946,-1.7972,-1.48151,1.45873,1.25955, ,-0.000789086,-0.00297075,-0.000396335,-0.000212882,0.000354554,-0.000275378,
,298,1608638308,388650577, ,0.938831,-1.47951,-1.79721,-1.48151,1.45873,1.25954, ,0.000591469,0.00272578,0.00283123,0.000585802,0.00200849,0.000773695,
,299,1608638308,404543449, ,0.938841,-1.47947,-1.79717,-1.4815,1.45877,1.25955, ,-0.000311402,0.00184793,-0.00108221,0.00272422,-0.000823913,-0.00033886,
,300,1608638308,420436321, ,0.938836,-1.47944,-1.79718,-1.48146,1.45875,1.25955, ,-0.000653028,-0.00243686,-0.000506446,-0.00224739,-0.00153968,-0.000549213,
,301,1608638308,436329193, ,0.938825,-1.47948,-1.79719,-1.48149,1.45873,1.25954, ,0.000799574,0.00113826,-0.000173948,-0.00184481,0.000618278,-0.000100373,
,302,1608638308,452222065, ,0.938838,-1.47946,-1.79719,-1.48152,1.45874,1.25954, ,-0.00066059,-4.88856e-05,-0.000203338,0.0017058,0.00108207,0.00102871,
,303,1608638308,468114937, ,0.938828,-1.47946,-1.7972,-1.48149,1.45876,1.25955, ,0.00171626,-0.000717784,-0.000772315,-0.00169655,-0.00109493,-0.00255694,
,304,1608638308,484007809, ,0.938855,-1.47947,-1.79721,-1.48152,1.45874,1.25951, ,-0.000675387,0.0026325,0.00120558,-0.000583627,0.00195765,-0.000835622,
,305,1608638308,499900681, ,0.938844,-1.47943,-1.79719,-1.48153,1.45877,1.2595, ,-0.00149659,-0.000611443,0.000106492,0.00199547,-0.000514438,0.00368843,
,306,1608638308,515793553, ,0.93882,-1.47944,-1.79719,-1.4815,1.45876,1.25956, ,0.000895379,-0.00274167,-0.000266861,-0.000494955,-0.00133611,-5.40131e-05,
,307,1608638308,531686425, ,0.938835,-1.47948,-1.79719,-1.48151,1.45874,1.25956, ,-0.00173547,0.000613792,0.00194304,-0.00051399,0.000179093,-0.00279265,
,308,1608638308,547579297, ,0.938807,-1.47947,-1.79716,-1.48151,1.45874,1.25951, ,0.00209581,0.00269296,0.00168686,0.000845675,-0.00100125,0.00102948,
,309,1608638308,563472169, ,0.93884,-1.47943,-1.79713,-1.4815,1.45873,1.25953, ,0.000241038,-0.00116395,-0.00215246,-0.00173189,0.00288281,0.00146444,
,310,1608638308,579365041, ,0.938844,-1.47945,-1.79717,-1.48153,1.45877,1.25955, ,0.000386245,-0.00213243,-0.000479378,0.00126958,-0.00277894,-0.000274333,
,311,1608638308,595257913, ,0.93885,-1.47948,-1.79718,-1.48151,1.45873,1.25955, ,-0.00321827,0.00134514,9.80721e-05,-0.00167778,0.000522289,-0.000535858,
,312,1608638308,611150785, ,0.938799,-1.47946,-1.79718,-1.48153,1.45874,1.25954, ,0.00344765,0.00135864,-0.00104208,0.001998,0.000143328,0.00123275,
,313,1608638308,627043657, ,0.938854,-1.47944,-1.79719,-1.4815,1.45874,1.25956, ,-0.00210489,0.000823013,0.00115627,-0.00187134,2.1696e-05,-0.00264441,
,314,1608638308,642936529, ,0.93882,-1.47943,-1.79717,-1.48153,1.45874,1.25952, ,0.000312842,-0.00344915,-0.00128679,0.000835762,-0.000844444,0.00246884,
,315,1608638308,658829401, ,0.938825,-1.47948,-1.79719,-1.48152,1.45873,1.25956, ,8.93763e-07,0.00118662,0.000176768,0.000799536,-0.00085738,-0.00130084,
,316,1608638308,674722273, ,0.938825,-1.47946,-1.79719,-1.48151,1.45871,1.25954, ,-0.00083658,0.000490691,0.00209158,-0.000687104,0.00203336,0.00180378,
,317,1608638308,690615145, ,0.938812,-1.47945,-1.79716,-1.48152,1.45875,1.25957, ,0.000453629,-0.000141291,-0.00199236,-0.000216053,0.000545241,-0.000931625,
,318,1608638308,706508017, ,0.938819,-1.47946,-1.79719,-1.48152,1.45875,1.25955, ,0.000711095,-0.000155275,0.00120673,6.32902e-05,-0.00278013,-0.00250047,
,319,1608638308,722400889, ,0.938831,-1.47946,-1.79717,-1.48152,1.45871,1.25951, ,-0.000627502,-0.000662319,-0.00186669,5.13041e-05,-0.000669448,0.00119398,
,320,1608638308,738293761, ,0.938821,-1.47947,-1.7972,-1.48152,1.4587,1.25953, ,0.000103348,0.00399014,2.58212e-05,0.000318057,0.00249662,0.00126203,
,321,1608638308,754186633, ,0.938822,-1.47941,-1.7972,-1.48151,1.45874,1.25955, ,0.000994529,-0.00354081,5.02653e-05,0.00301129,-0.000376153,-0.001024,
,322,1608638308,770079505, ,0.938838,-1.47946,-1.7972,-1.48147,1.45873,1.25953, ,0.000689419,0.00196603,0.0016555,-0.00396594,0.000485705,0.00125582,
,323,1608638308,785972377, ,0.938849,-1.47943,-1.79717,-1.48153,1.45874,1.25955, ,3.39725e-05,-0.00425012,-0.000432679,0.000792777,0.000993849,-0.000543893,
,324,1608638308,801865249, ,0.93885,-1.4795,-1.79718,-1.48152,1.45876,1.25954, ,-0.00107195,0.00378893,-0.000125705,0.000229246,-0.00104792,-0.000676233,
,325,1608638308,817758121, ,0.938833,-1.47944,-1.79718,-1.48151,1.45874,1.25953, ,0.000650429,-0.00100308,-0.000286836,0.00137406,0.000701358,0.00148927,
,326,1608638308,833650993, ,0.938843,-1.47946,-1.79719,-1.48149,1.45875,1.25956, ,-0.00190236,-0.000809928,0.000324902,-0.00197293,-0.00309582,0.000253355,
,327,1608638308,849543865, ,0.938813,-1.47947,-1.79718,-1.48152,1.4587,1.25956, ,0.00173187,0.000371826,0.000242754,-0.000848526,0.0038773,-0.00105116,
,328,1608638308,865436737, ,0.93884,-1.47946,-1.79718,-1.48154,1.45876,1.25954, ,0.00012115,0.00145763,0.00229557,0.00175749,-0.00163888,0.000420397,
,329,1608638308,881329609, ,0.938842,-1.47944,-1.79714,-1.48151,1.45874,1.25955, ,-0.0003599,0.000420563,-0.00288395,-0.00024337,-0.000270403,-0.0025204,
,330,1608638308,897222481, ,0.938836,-1.47943,-1.79719,-1.48151,1.45873,1.25951, ,0.000978779,-0.000214788,-0.0010222,0.000193611,0.00162291,0.00142024,
,331,1608638308,913115353, ,0.938852,-1.47944,-1.7972,-1.48151,1.45876,1.25953, ,-0.000115004,-0.000209084,3.43072e-05,-0.00245492,-0.00307312,-0.001496,
,332,1608638308,929008225, ,0.93885,-1.47944,-1.7972,-1.48155,1.45871,1.25951, ,-0.00275739,-0.00132044,0.00265791,0.00115306,0.00194302,3.53691e-05,
,333,1608638308,944901097, ,0.938806,-1.47946,-1.79716,-1.48153,1.45874,1.25951, ,0.0016358,-1.40308e-05,-0.000640407,0.00122755,-0.00318553,0.00247848,
,334,1608638308,960793969, ,0.938832,-1.47946,-1.79717,-1.48151,1.45869,1.25955, ,-3.79544e-05,-0.00245419,-0.00196056,-0.000439262,0.00506445,-9.74675e-05,
,335,1608638308,976686841, ,0.938832,-1.4795,-1.7972,-1.48152,1.45877,1.25955, ,0.000742453,0.00398966,-0.00104451,-0.000849814,-0.000202682,-0.000786218,
,336,1608638308,992579713, ,0.938844,-1.47944,-1.79722,-1.48153,1.45877,1.25954, ,-0.000829063,-0.000991526,-0.0002858,0.00254339,-0.00347117,0.000220424,
,337,1608638309,8472585, ,0.93883,-1.47945,-1.79722,-1.48149,1.45871,1.25954, ,0.000810964,0.00197566,0.00172838,-0.00335923,0.000140555,0.00121686,
,338,1608638309,24365457, ,0.938843,-1.47942,-1.79719,-1.48154,1.45871,1.25956, ,-0.000888125,-0.00141392,0.000967553,0.00182734,0.00116272,-0.000944977,
,339,1608638309,40258329, ,0.938829,-1.47944,-1.79718,-1.48151,1.45873,1.25954, ,-0.00101624,-0.000223893,-2.75001e-05,0.00246141,-0.0033876,-0.00121484,
,340,1608638309,56151201, ,0.938813,-1.47945,-1.79718,-1.48148,1.45868,1.25952, ,-0.000227371,-0.00193804,-0.000406033,-0.000224709,0.00326296,0.000568654,
,341,1608638309,72044073, ,0.938809,-1.47948,-1.79719,-1.48148,1.45873,1.25953, ,-0.000132368,0.00137286,0.00051027,-0.00232209,7.68484e-05,0.00144192,
,342,1608638309,87936945, ,0.938807,-1.47946,-1.79718,-1.48152,1.45873,1.25956, ,0.000906492,-0.00146269,-0.00151838,-0.00233634,0.000102732,-0.000600014,
,343,1608638309,103829817, ,0.938822,-1.47948,-1.7972,-1.48155,1.45873,1.25955, ,0.00152399,0.00236366,-0.000224135,0.00326771,-0.00199109,-0.000868635,
,344,1608638309,119722689, ,0.938846,-1.47944,-1.79721,-1.4815,1.4587,1.25953, ,-0.00178628,-0.000324445,0.00187331,-0.000860439,0.00350564,0.002539,
,345,1608638309,135615561, ,0.938818,-1.47945,-1.79718,-1.48151,1.45876,1.25957, ,0.00110259,0.000354716,-0.00103306,0.00154904,-0.000232939,-0.00203747,
,346,1608638309,151508433, ,0.938835,-1.47944,-1.79719,-1.48149,1.45875,1.25954, ,0.000580687,-0.00160255,0.00143319,-0.0011636,-0.000809367,0.000984727,
,347,1608638309,167401305, ,0.938844,-1.47947,-1.79717,-1.48151,1.45874,1.25956, ,-0.00155174,-0.000248201,0.000696939,-0.000681743,-0.000677851,-0.000175988,
,348,1608638309,183294177, ,0.93882,-1.47947,-1.79716,-1.48152,1.45873,1.25955, ,0.00149278,0.000673437,-0.00200257,-0.00187121,0.00121649,0.000391565,
,349,1608638309,199187049, ,0.938843,-1.47946,-1.79719,-1.48155,1.45875,1.25956, ,0.000236508,0.00120612,0.00208325,0.00181687,-0.000570654,-0.000733296,
,350,1608638309,215079921, ,0.938847,-1.47944,-1.79716,-1.48152,1.45874,1.25955, ,0.000425938,-0.00393043,-0.00192769,0.000685729,0.00102783,-0.00277184,
,351,1608638309,230972793, ,0.938854,-1.4795,-1.79719,-1.48151,1.45876,1.2595, ,-0.0017324,0.00291927,-0.000398681,-0.000684738,-0.00289282,0.00132092,
,352,1608638309,246865665, ,0.938826,-1.47946,-1.79719,-1.48152,1.45871,1.25953, ,0.00190699,-0.000842442,0.000240284,0.00164504,0.00305279,0.002042,
,353,1608638309,262758537, ,0.938857,-1.47947,-1.79719,-1.48149,1.45876,1.25956, ,-0.000309281,0.0029066,0.00167102,-0.000814047,0.000646385,-0.000163517,
,354,1608638309,278651409, ,0.938852,-1.47942,-1.79716,-1.48151,1.45877,1.25956, ,-0.00237926,-0.00141812,-0.0012888,-0.00116537,-1.75153e-05,-0.00257665,
,355,1608638309,294544281, ,0.938814,-1.47945,-1.79718,-1.48153,1.45877,1.25951, ,0.00224293,-0.00136689,-0.00151146,0.00116115,-0.00120767,0.00265793,
,356,1608638309,310437153, ,0.93885,-1.47947,-1.79721,-1.48151,1.45875,1.25956, ,-0.000735587,0.000162063,0.00254129,0.000666296,-0.000874118,-0.000633956,
,357,1608638309,326330025, ,0.938838,-1.47946,-1.79717,-1.4815,1.45874,1.25955, ,-8.42324e-05,-0.00191455,0.000483925,-0.000878138,0.000251327,-0.000163388,
,358,1608638309,342222897, ,0.938837,-1.4795,-1.79716,-1.48151,1.45874,1.25954, ,0.000596914,0.00142414,-0.000777284,-0.00130729,0.000303576,-0.000286755,
,359,1608638309,358115769, ,0.938846,-1.47947,-1.79717,-1.48153,1.45875,1.25954, ,0.000499206,-0.000420764,0.000330587,0.00183885,0.00126541,0.000924926,
,360,1608638309,374008641, ,0.938854,-1.47948,-1.79717,-1.4815,1.45877,1.25955, ,-0.00191682,0.0028899,-0.00270236,-0.00277808,-0.00161352,0.000991178,
,361,1608638309,389901513, ,0.938823,-1.47943,-1.79721,-1.48155,1.45874,1.25957, ,-0.000973674,-0.000360193,0.00302192,0.00280789,-0.00165728,-0.00341612,
,362,1608638309,405794385, ,0.938808,-1.47944,-1.79716,-1.4815,1.45871,1.25952, ,0.00151397,0.00119849,-0.00364708,0.000733672,-0.000209355,-0.000340217,
,363,1608638309,421687257, ,0.938832,-1.47942,-1.79722,-1.48149,1.45871,1.25951, ,0.000685273,-0.00304585,0.000687507,-0.00253996,0.00252828,0.00369554,
,364,1608638309,437580129, ,0.938843,-1.47947,-1.79721,-1.48153,1.45875,1.25957, ,0.000712355,0.00253324,0.00248409,0.00119341,-0.00283731,-0.00255712,
,365,1608638309,453473001, ,0.938854,-1.47943,-1.79717,-1.48151,1.45871,1.25953, ,-0.00308151,-0.00266277,-0.00260393,0.000923965,0.00365981,-0.00144671,
,366,1608638309,469365873, ,0.938805,-1.47947,-1.79721,-1.4815,1.45876,1.25951, ,0.00109604,0.00112646,0.00126685,0.000361615,-0.000391049,0.00105178,
,367,1608638309,485258745, ,0.938823,-1.47945,-1.79719,-1.48149,1.45876,1.25952, ,0.00106947,0.000341766,0.0015915,-0.00424616,-0.0019743,0.000563139,
,368,1608638309,501151617, ,0.93884,-1.47945,-1.79717,-1.48156,1.45873,1.25953, ,-0.000783627,-0.00117323,-0.000969485,0.00221648,-0.000459206,0.00156484,
,369,1608638309,517044489, ,0.938827,-1.47947,-1.79718,-1.48152,1.45872,1.25956, ,0.000894585,0.000624287,-0.000642777,0.000133996,0.00105246,0.00208969,
,370,1608638309,532937361, ,0.938841,-1.47946,-1.79719,-1.48152,1.45874,1.25959, ,0.00181999,-0.00125675,-0.00117803,0.000248491,-0.000251399,-0.00345869,
,371,1608638309,548830233, ,0.93887,-1.47948,-1.79721,-1.48152,1.45873,1.25953, ,-0.00150176,0.000975351,0.00136985,-0.00034232,-0.000610242,0.00168431,
,372,1608638309,564723105, ,0.938847,-1.47946,-1.79719,-1.48152,1.45872,1.25956, ,5.16048e-05,0.00061752,-0.000955121,-0.000713604,0.00224775,-0.000340023,
,373,1608638309,580615977, ,0.938847,-1.47945,-1.7972,-1.48153,1.45876,1.25956, ,-0.000335141,-0.00054592,0.00148138,-0.000951448,-0.00237134,-0.000575272,
,374,1608638309,596508849, ,0.938842,-1.47946,-1.79718,-1.48155,1.45872,1.25955, ,0.000642543,-0.000169347,-0.000516956,0.00292815,0.00181576,-0.000463829,
,375,1608638309,612401721, ,0.938852,-1.47946,-1.79719,-1.4815,1.45875,1.25954, ,-0.000675168,0.00125544,-0.000644284,0.000924735,2.12421e-05,-0.000890917,
,376,1608638309,628294593, ,0.938842,-1.47944,-1.7972,-1.48149,1.45875,1.25952, ,0.0010063,-0.00113767,0.000556067,-0.00147418,-0.0023865,0.0015344,
,377,1608638309,644187465, ,0.938857,-1.47946,-1.79719,-1.48151,1.45871,1.25955, ,-0.00316962,-0.00128134,-0.000666495,0.00258821,0.00246162,-0.00308213,
,378,1608638309,660080337, ,0.938807,-1.47948,-1.7972,-1.48147,1.45875,1.2595, ,0.00152906,-0.000147176,0.000596591,-0.00142839,-0.00249146,0.0032485,
,379,1608638309,675973209, ,0.938831,-1.47948,-1.79719,-1.48149,1.45871,1.25955, ,0.00253443,-1.68124e-05,-0.00139655,-0.00174403,0.00512515,0.000295722,
,380,1608638309,691866081, ,0.938872,-1.47948,-1.79721,-1.48152,1.45879,1.25956, ,-0.00111833,-0.000868434,-0.000270654,0.000568957,-0.00292598,-0.00127759,
,381,1608638309,707758953, ,0.938854,-1.4795,-1.79722,-1.48151,1.45875,1.25954, ,-0.00171209,0.0014134,0.0020303,0.000619454,0.000211328,0.000777503,
,382,1608638309,723651825, ,0.938827,-1.47947,-1.79718,-1.4815,1.45875,1.25955, ,0.00286099,-0.00075511,0.000584688,-0.0010019,0.00124597,-0.000265955,
,383,1608638309,739544697, ,0.938872,-1.47949,-1.79718,-1.48152,1.45877,1.25954, ,-0.000184721,0.00146868,-0.0016982,-0.000120699,0.000210866,0.000186585,
,384,1608638309,755437569, ,0.938869,-1.47946,-1.7972,-1.48152,1.45877,1.25955, ,-0.00238779,0.000798547,0.000115054,-0.000370267,-0.001308,-0.000626541,
,385,1608638309,771330441, ,0.938831,-1.47945,-1.7972,-1.48153,1.45875,1.25954, ,0.00290268,-0.0035587,0.0014124,-0.00105533,0.000861246,5.18735e-05,
,386,1608638309,787223313, ,0.938877,-1.47951,-1.79718,-1.48154,1.45876,1.25954, ,-0.000946414,0.000193705,-0.000109343,0.00411734,-0.00173627,-0.000376506,
,387,1608638309,803116185, ,0.938862,-1.4795,-1.79718,-1.48148,1.45874,1.25953, ,-0.000446583,0.00377737,-0.00118591,-0.00266797,0.00217906,0.000789771,
,388,1608638309,819009057, ,0.938855,-1.47944,-1.7972,-1.48152,1.45877,1.25954, ,-0.000755026,0.000131902,0.00203485,-0.000786435,-0.000328732,0.000370964,
,389,1608638309,834901929, ,0.938843,-1.47944,-1.79717,-1.48153,1.45877,1.25955, ,0.0010006,-0.0021039,-0.00293277,0.00127155,-0.000372821,-2.23466e-05,
,390,1608638309,850794801, ,0.938859,-1.47948,-1.79721,-1.48151,1.45876,1.25955, ,0.00130311,0.00108937,-0.000580665,-0.0025869,-0.000799325,-0.000598308,
,391,1608638309,866687673, ,0.93888,-1.47946,-1.79722,-1.48155,1.45875,1.25954, ,-0.000730667,-0.00136929,0.00393808,0.00210243,-0.000525584,-0.000674182,
,392,1608638309,882580545, ,0.938868,-1.47948,-1.79716,-1.48152,1.45874,1.25953, ,0.00156076,0.000654585,-0.00185884,0.000576039,0.00120524,2.44454e-05,
,393,1608638309,898473417, ,0.938893,-1.47947,-1.79719,-1.48151,1.45876,1.25953, ,-0.00246167,0.00326191,2.18266e-05,-0.000276069,-0.000145037,0.00132545,
,394,1608638309,914366289, ,0.938854,-1.47942,-1.79719,-1.48151,1.45876,1.25955, ,0.00162288,-0.00359765,0.00119906,0.000285299,0.00230082,-0.00139618,
,395,1608638309,930259161, ,0.93888,-1.47947,-1.79717,-1.48151,1.45879,1.25953, ,-0.00152854,-8.82628e-05,-0.00108773,0.000386258,-0.00146627,0.00209378,
,396,1608638309,946152033, ,0.938855,-1.47948,-1.79719,-1.4815,1.45877,1.25956, ,-0.000736389,-0.000319421,0.00148113,-0.00155133,0.00144282,-0.00110514,
,397,1608638309,962044905, ,0.938844,-1.47948,-1.79716,-1.48153,1.45879,1.25955, ,0.00102061,0.00246315,0.000591396,0.00088739,-0.00333666,-0.000461582,
,398,1608638309,977937777, ,0.93886,-1.47944,-1.79715,-1.48151,1.45874,1.25954, ,-0.000795208,-0.00174683,-0.00274787,-3.07661e-05,0.00325138,-0.00313345,
,399,1608638309,993830649, ,0.938847,-1.47947,-1.7972,-1.48151,1.45879,1.25949, ,-0.00133092,-0.000781604,0.00152768,-0.00131189,-0.00386026,0.00348338,
,400,1608638310,9723521, ,0.938826,-1.47948,-1.79717,-1.48154,1.45873,1.25954, ,0.000790432,-0.00155209,-0.00160125,0.00274767,0.00301267,-0.00248249,
,401,1608638310,25616393, ,0.938839,-1.47951,-1.7972,-1.48149,1.45878,1.2595, ,0.00085558,0.00270238,-0.000655151,-0.00203088,-0.000677089,0.00278308,
,402,1608638310,41509265, ,0.938852,-1.47946,-1.79721,-1.48152,1.45877,1.25955, ,-0.000513921,-0.000333102,0.00168987,0.000800705,-0.00109482,-0.0029592,
,403,1608638310,57402137, ,0.938844,-1.47947,-1.79718,-1.48151,1.45875,1.2595, ,0.00218585,0.00266005,-0.000257007,-0.00271093,-3.9293e-05,0.000982313,
,404,1608638310,73295009, ,0.938879,-1.47943,-1.79719,-1.48155,1.45875,1.25952, ,-0.00166664,-0.000159587,0.00119251,0.00273225,-5.3605e-05,0.0019055,
,405,1608638310,89187881, ,0.938852,-1.47943,-1.79717,-1.48151,1.45875,1.25955, ,-0.00150474,-0.000710032,-0.00195006,-0.00045877,-0.0012596,0.000673595,
,406,1608638310,105080753, ,0.938829,-1.47944,-1.7972,-1.48152,1.45873,1.25956, ,-0.0028605,-0.00183031,-5.96285e-05,-9.8392e-05,0.00263686,-0.00114948,
,407,1608638310,120973625, ,0.938783,-1.47947,-1.7972,-1.48152,1.45877,1.25954, ,-0.00519822,-0.00128133,0.000510425,-0.00175768,-0.00428352,-0.00323694,
,408,1608638310,136866497, ,0.9387,-1.47949,-1.79719,-1.48155,1.4587,1.25949, ,-0.00271837,0.00156697,-0.00130846,-0.000561574,-0.00210077,0.00156024,
,409,1608638310,152759369, ,0.938657,-1.47947,-1.79721,-1.48156,1.45867,1.25951, ,-0.00256863,0.00161082,-0.000104944,0.00287648,-0.00181124,0.00046585,
,410,1608638310,168652241, ,0.938616,-1.47944,-1.79721,-1.48151,1.45864,1.25952, ,-0.0035825,-0.00250824,0.00309493,-0.000643164,-0.00303673,0.000881448,
,411,1608638310,184545113, ,0.938559,-1.47948,-1.79716,-1.48152,1.45859,1.25953, ,-0.00287653,0.00127787,-0.00150936,-0.000473006,-0.0049333,-0.00024016,
,412,1608638310,200437985, ,0.938514,-1.47946,-1.79719,-1.48153,1.45851,1.25953, ,-0.00289205,-2.1725e-06,-0.000132831,0.000160663,-0.00718577,0.000460988,
,413,1608638310,216330857, ,0.938468,-1.47946,-1.79719,-1.48153,1.4584,1.25954, ,-0.00222985,-6.67112e-05,-0.00129375,0.000725638,-0.00910885,0.00142414,
,414,1608638310,232223729, ,0.938432,-1.47946,-1.79721,-1.48151,1.45825,1.25956, ,-0.00796804,-0.000167,0.000912232,0.000196777,-0.0141977,-0.00474063,
,415,1608638310,248116601, ,0.938306,-1.47946,-1.7972,-1.48151,1.45803,1.25948, ,-0.00460509,0.00253171,3.01635e-05,0.000246184,-0.0120245,0.00365396,
,416,1608638310,264009473, ,0.938233,-1.47942,-1.7972,-1.48151,1.45784,1.25954, ,-0.0100131,-0.00221677,-7.91366e-05,-0.000248085,-0.00952377,-0.0011764,
,417,1608638310,279902345, ,0.938073,-1.47946,-1.7972,-1.48151,1.45769,1.25952, ,-0.0139218,-0.000142207,-0.000408856,-5.94912e-05,-0.0130816,0.00369631,
,418,1608638310,295795217, ,0.937852,-1.47946,-1.7972,-1.48151,1.45748,1.25958, ,-0.0135559,-0.00119489,-0.000601016,9.04968e-05,-0.0083059,-0.00325446,
,419,1608638310,311688089, ,0.937637,-1.47948,-1.79721,-1.48151,1.45735,1.25953, ,-0.0164193,-0.000695628,0.000853328,-0.00132788,-0.00939521,-8.75405e-05,
,420,1608638310,327580961, ,0.937376,-1.47949,-1.7972,-1.48153,1.4572,1.25953, ,-0.0134061,0.00131116,-0.000601088,0.00139001,-0.00733195,-0.00193161,
,421,1608638310,343473833, ,0.937163,-1.47947,-1.79721,-1.48151,1.45708,1.2595, ,-0.0157381,0.000420777,0.00123444,0.00124342,-0.00806131,0.00306517,
,422,1608638310,359366705, ,0.936913,-1.47946,-1.79719,-1.48149,1.45695,1.25955, ,-0.0125912,0.000277209,-0.000633979,-0.00243395,-0.00457142,-0.00291782,
,423,1608638310,375259577, ,0.936712,-1.47946,-1.7972,-1.48153,1.45688,1.2595, ,-0.0120817,0.00012401,0.000759589,0.00153011,-0.0034562,6.21834e-05,
,424,1608638310,391152449, ,0.93652,-1.47946,-1.79719,-1.4815,1.45682,1.2595, ,-0.0117518,-0.00116273,0.00058535,-0.0012052,-0.00363887,0.00220859,
,425,1608638310,407045321, ,0.936334,-1.47947,-1.79718,-1.48152,1.45677,1.25954, ,-0.0139823,0.00162547,0.00132396,0.00351524,-0.00125631,-0.00209134,
,426,1608638310,422938193, ,0.936111,-1.47945,-1.79716,-1.48147,1.45675,1.2595, ,-0.00958146,-0.001759,-0.00194741,-0.00322882,-0.0020148,0.00136724,
,427,1608638310,438831065, ,0.935959,-1.47948,-1.79719,-1.48152,1.45671,1.25953, ,-0.00920886,0.00052482,-0.000641074,0.00243567,-0.00189022,-0.00142408,
,428,1608638310,454723937, ,0.935813,-1.47947,-1.7972,-1.48148,1.45668,1.2595, ,-0.00924534,0.000303967,6.89537e-05,-0.00155461,-0.00580239,0.00228814,
,429,1608638310,470616809, ,0.935666,-1.47946,-1.7972,-1.48151,1.45659,1.25954, ,-0.010856,-0.000170781,-0.000221144,-0.00186956,-0.00215716,-0.002333,
,430,1608638310,486509681, ,0.935493,-1.47947,-1.7972,-1.48154,1.45656,1.2595, ,-0.0102797,-0.000262401,-0.00113045,0.0013103,-0.00753499,0.000361677,
,431,1608638310,502402553, ,0.93533,-1.47947,-1.79722,-1.48151,1.45644,1.25951, ,-0.0125406,-0.000640539,0.00239838,0.000126739,-0.0112983,0.000508751,
,432,1608638310,518295425, ,0.935131,-1.47948,-1.79718,-1.48151,1.45626,1.25952, ,-0.0101567,-0.000357555,0.000480316,0.000673447,-0.0179106,0.000127401,
,433,1608638310,534188297, ,0.934969,-1.47949,-1.79717,-1.4815,1.45597,1.25952, ,-0.0142409,0.000255628,-0.00249337,-0.000365314,-0.0136477,0.000554508,
,434,1608638310,550081169, ,0.934743,-1.47948,-1.79721,-1.48151,1.45576,1.25953, ,-0.0104401,0.000887897,0.00269708,0.000513402,-0.0143674,-0.0010019,
,435,1608638310,565974041, ,0.934577,-1.47947,-1.79717,-1.4815,1.45553,1.25951, ,-0.0105041,-0.000113345,0.000647873,-0.00317243,-0.0118994,-0.000746489,
,436,1608638310,581866913, ,0.93441,-1.47947,-1.79716,-1.48155,1.45534,1.2595, ,-0.0127366,-0.000496999,0.000627001,0.00310417,-0.0135787,0.000579377,
,437,1608638310,597759785, ,0.934208,-1.47948,-1.79715,-1.4815,1.45512,1.25951, ,-0.0137868,0.000731586,-0.00114646,0.00028813,-0.00344077,0.000185192,
,438,1608638310,613652657, ,0.933989,-1.47947,-1.79717,-1.4815,1.45507,1.25951, ,-0.0127712,-0.00125728,-0.00213181,-0.00140259,0.00139082,-0.000720343,
,439,1608638310,629545529, ,0.933786,-1.47949,-1.7972,-1.48152,1.45509,1.2595, ,-0.0113117,0.00259522,0.00219069,0.00318524,-0.00377094,0.00211411,
,440,1608638310,645438401, ,0.933606,-1.47944,-1.79717,-1.48147,1.45503,1.25953, ,-0.0116594,-0.00177148,-0.00175666,-0.0031609,0.00188065,-0.00113593,
,441,1608638310,661331273, ,0.933421,-1.47947,-1.7972,-1.48152,1.45506,1.25952, ,-0.0132338,-0.00137937,-2.23901e-05,-0.00109736,0.000671316,0.000998789,
,442,1608638310,677224145, ,0.93321,-1.4795,-1.7972,-1.48154,1.45507,1.25953, ,-0.0115128,0.00176518,-9.42654e-05,0.00205751,-0.00124129,-0.000318746,
,443,1608638310,693117017, ,0.933027,-1.47947,-1.7972,-1.4815,1.45505,1.25953, ,-0.0126365,0.000942092,-0.000631577,-8.14336e-05,0.00215513,-0.00146176,
,444,1608638310,709009889, ,0.932826,-1.47945,-1.79721,-1.4815,1.45509,1.2595, ,-0.00980554,-6.70635e-05,0.00154851,0.00116249,0.000522399,-0.000120668,
,445,1608638310,724902761, ,0.932671,-1.47945,-1.79718,-1.48149,1.4551,1.2595, ,-0.00973876,-0.00219145,-0.00163332,0.00182,-0.00259852,0.00211658,
,446,1608638310,740795633, ,0.932516,-1.47949,-1.79721,-1.48146,1.45505,1.25954, ,-0.0113819,0.00190841,0.0023243,-0.00101565,0.0014747,0.000371886,
,447,1608638310,756688505, ,0.932335,-1.47946,-1.79717,-1.48147,1.45508,1.25954, ,-0.00976321,0.00124887,-0.00136907,0.000160811,-0.00212775,0.000918619,
,448,1608638310,772581377, ,0.93218,-1.47944,-1.79719,-1.48147,1.45504,1.25956, ,-0.00836127,-0.00145404,-0.000561529,-0.00143066,0.00397249,-0.00271794,
,449,1608638310,788474249, ,0.932047,-1.47946,-1.7972,-1.48149,1.45511,1.25951, ,-0.0132912,-0.000524482,0.00324819,0.00142303,-0.00292816,0.00112322,
,450,1608638310,804367121, ,0.931836,-1.47947,-1.79715,-1.48147,1.45506,1.25953, ,-0.0103646,0.00058102,-0.00116193,-0.00190035,0.00182109,0.00134305,
,451,1608638310,820259993, ,0.931671,-1.47946,-1.79717,-1.4815,1.45509,1.25955, ,-0.0134151,-0.00380167,-0.00119347,0.000126467,0.000196522,-6.92323e-05,
,452,1608638310,836152865, ,0.931458,-1.47952,-1.79719,-1.4815,1.45509,1.25955, ,-0.0102854,0.0026492,-0.000722326,-0.000427341,-0.000243716,-0.000755141,
,453,1608638310,852045737, ,0.931294,-1.47948,-1.7972,-1.48151,1.45509,1.25954, ,-0.0149813,0.00195273,0.000849328,-0.000557872,-0.00126537,-0.00210459,
,454,1608638310,867938609, ,0.931056,-1.47945,-1.79719,-1.48151,1.45507,1.25951, ,-0.011867,-0.00173046,0.000758394,0.00136806,0.00190857,0.00177785,
,455,1608638310,883831481, ,0.930867,-1.47947,-1.79717,-1.48149,1.4551,1.25953, ,-0.0127458,0.00172947,-0.00185495,-0.00114922,-0.00108558,-0.00162255,
,456,1608638310,899724353, ,0.930665,-1.47945,-1.7972,-1.48151,1.45508,1.25951, ,-0.017009,-0.0019186,0.00169607,0.00155061,0.00111417,0.000150138,
,457,1608638310,915617225, ,0.930395,-1.47948,-1.79718,-1.48149,1.4551,1.25951, ,-0.0131584,0.000885191,-0.00101126,-0.00206153,0.00073228,0.00109414,
,458,1608638310,931510097, ,0.930185,-1.47946,-1.79719,-1.48152,1.45511,1.25953, ,-0.0141477,-0.0017289,-0.000161547,0.000921542,-0.00244798,-0.00137162,
,459,1608638310,947402969, ,0.929961,-1.47949,-1.7972,-1.4815,1.45507,1.25951, ,-0.0142752,0.00045605,0.00155954,0.00214615,0.00255345,-0.000138603,
,460,1608638310,963295841, ,0.929734,-1.47948,-1.79717,-1.48147,1.45511,1.2595, ,-0.0137922,-0.000177117,0.000215542,-0.00254519,-0.00301683,0.00052633,
,461,1608638310,979188713, ,0.929515,-1.47949,-1.79717,-1.48151,1.45506,1.25951, ,-0.0162669,0.00338249,-0.00263206,0.000632592,0.00124967,-0.000370647,
,462,1608638310,995081585, ,0.929256,-1.47943,-1.79721,-1.4815,1.45508,1.25951, ,-0.0129099,-0.00164958,-0.000224618,0.000819527,-0.00190297,0.000181149,
,463,1608638311,10974457, ,0.929051,-1.47946,-1.79721,-1.48149,1.45505,1.25951, ,-0.0155732,-0.0013438,0.00139238,-0.00207443,0.000448502,-0.000613212,
,464,1608638311,26867329, ,0.928803,-1.47948,-1.79719,-1.48152,1.45506,1.2595, ,-0.0148269,0.00318366,-0.000607029,0.000614941,0.00120642,-0.00183632,
,465,1608638311,42760201, ,0.928568,-1.47943,-1.7972,-1.48151,1.45508,1.25947, ,-0.0129135,-0.000490271,-0.00120886,0.00152659,0.0013927,0.0027344,
,466,1608638311,58653073, ,0.928362,-1.47944,-1.79722,-1.48149,1.4551,1.25951, ,-0.014459,0.000185001,0.00199063,-0.000508333,-0.00129079,-0.00257794,
,467,1608638311,74545945, ,0.928133,-1.47943,-1.79719,-1.48149,1.45508,1.25947, ,-0.0110108,-0.00168337,-0.00115911,0.000126423,0.00117619,0.00379909,
,468,1608638311,90438817, ,0.927958,-1.47946,-1.79721,-1.48149,1.4551,1.25953, ,-0.0139719,-0.000594025,0.000384202,-0.000540501,9.80906e-05,-0.00177514,
,469,1608638311,106331689, ,0.927736,-1.47947,-1.7972,-1.4815,1.4551,1.2595, ,-0.0130717,0.000366324,-5.74382e-05,-0.000338134,0.000980313,-0.00123477,
,470,1608638311,122224561, ,0.927528,-1.47947,-1.7972,-1.48151,1.45512,1.25948, ,-0.0119544,0.00159097,0.000102977,-3.58967e-05,-0.00248286,0.00132513,
,471,1608638311,138117433, ,0.927338,-1.47944,-1.7972,-1.48151,1.45508,1.25951, ,-0.0128239,-0.00104341,0.00130459,-0.00115318,0.00136585,0.00100029,
,472,1608638311,154010305, ,0.927134,-1.47946,-1.79718,-1.48153,1.4551,1.25952, ,-0.0153137,-0.00125873,3.96777e-05,0.0012708,0.00260317,-0.000495026,
,473,1608638311,169903177, ,0.926891,-1.47948,-1.79718,-1.4815,1.45514,1.25951, ,-0.0149693,-0.00064927,-0.000536163,-0.001336,-0.00198743,-0.002086,
,474,1608638311,185796049, ,0.926653,-1.47949,-1.79719,-1.48153,1.45511,1.25948, ,-0.0109437,0.000508334,-0.00122736,0.00199582,-0.00164524,0.000898825,
,475,1608638311,201688921, ,0.926479,-1.47948,-1.79721,-1.48149,1.45508,1.2595, ,-0.0146476,0.00303828,0.000406193,-0.00207707,0.000194491,0.000264122,
,476,1608638311,217581793, ,0.926246,-1.47943,-1.7972,-1.48153,1.45509,1.2595, ,-0.0123519,-0.00381272,0.000360117,-0.00143325,-0.00186048,0.0026286,
,477,1608638311,233474665, ,0.92605,-1.47949,-1.79719,-1.48155,1.45506,1.25954, ,-0.0127868,0.000677824,-0.000210911,0.00385839,0.00376603,-0.000914508,
,478,1608638311,249367537, ,0.925847,-1.47948,-1.7972,-1.48149,1.45512,1.25953, ,-0.0171193,-0.000575059,0.000436582,0.0011315,-0.00236705,0.000238413,
,479,1608638311,265260409, ,0.925574,-1.47949,-1.79719,-1.48147,1.45508,1.25953, ,-0.0156536,0.00429238,-2.64347e-05,-0.00120457,0.000630657,0.000650093,
,480,1608638311,281153281, ,0.925326,-1.47942,-1.79719,-1.48149,1.45509,1.25954, ,-0.0125919,-0.00434264,0.000363802,-0.0012861,0.000906072,-0.000544652,
,481,1608638311,297046153, ,0.925126,-1.47949,-1.79718,-1.48151,1.4551,1.25953, ,-0.0133109,0.00126593,-0.000447634,-0.00136501,-0.00119419,-0.00119276,
,482,1608638311,312939025, ,0.924914,-1.47947,-1.79719,-1.48153,1.45508,1.25951, ,-0.0119018,0.00195204,0.000806957,0.0028424,0.000718423,-0.00159276,
,483,1608638311,328831897, ,0.924725,-1.47944,-1.79718,-1.48149,1.4551,1.25949, ,-0.0141896,0.000170263,0.000773789,0.000425832,-0.000835395,0.00317738,
,484,1608638311,344724769, ,0.924499,-1.47944,-1.79717,-1.48148,1.45508,1.25954, ,-0.0110698,-0.00242771,-0.00238244,-0.00222267,-0.00132552,-0.00164692,
,485,1608638311,360617641, ,0.924323,-1.47947,-1.7972,-1.48152,1.45506,1.25951, ,-0.0125133,0.00282604,0.00168856,0.000354922,0.00185629,-0.000188276,
,486,1608638311,376510513, ,0.924125,-1.47943,-1.79718,-1.48151,1.45509,1.25951, ,-0.00945235,-0.00164219,2.58434e-05,0.000275959,-0.0027605,-0.000169019,
,487,1608638311,392403385, ,0.923974,-1.47946,-1.79718,-1.48151,1.45505,1.25951, ,-0.0117922,-0.000329864,-0.0017981,0.000393403,0.000953152,-0.00121874,
,488,1608638311,408296257, ,0.923787,-1.47946,-1.79721,-1.4815,1.45506,1.25949, ,-0.0123008,-0.00135863,-0.000262112,0.00166699,-0.00132013,-0.00065561,
,489,1608638311,424189129, ,0.923591,-1.47948,-1.79721,-1.48147,1.45504,1.25948, ,-0.0113112,0.00188954,0.00109967,-0.00218695,0.00161481,0.00342565,
,490,1608638311,440082001, ,0.923412,-1.47945,-1.79719,-1.48151,1.45507,1.25953, ,-0.00845987,0.00114043,-0.000333022,0.000279147,-0.000990201,-0.000562393,
,491,1608638311,455974873, ,0.923277,-1.47943,-1.7972,-1.4815,1.45505,1.25952, ,-0.00871737,-0.000482851,-0.0024913,0.000616898,0.00230317,-0.00147817,
,492,1608638311,471867745, ,0.923139,-1.47944,-1.79724,-1.48149,1.45509,1.2595, ,-0.00620004,0.000116905,0.00255436,-0.00112364,-0.00238985,-0.0061674,
,493,1608638311,487760617, ,0.92304,-1.47944,-1.7972,-1.48151,1.45505,1.2594, ,-0.00906198,-0.00123583,-0.000826507,7.71137e-05,0.00190517,-0.0012948,
,494,1608638311,503653489, ,0.922896,-1.47946,-1.79721,-1.48151,1.45508,1.25938, ,-0.0119791,0.000295232,0.000537246,0.00120376,-0.00107229,-0.00252137,
,495,1608638311,519546361, ,0.922706,-1.47946,-1.7972,-1.48149,1.45506,1.25934, ,-0.00749526,-0.000611156,0.0025636,-0.001512,5.63759e-05,-0.00565719,
,496,1608638311,535439233, ,0.922587,-1.47947,-1.79716,-1.48151,1.45506,1.25925, ,-0.00749941,-0.000579686,-0.00193365,0.00259002,-0.0031469,-0.00418163,
,497,1608638311,551332105, ,0.922467,-1.47947,-1.79719,-1.48147,1.45501,1.25918, ,-0.00903491,0.000519034,-0.00162712,-0.00270711,0.00257032,-0.00432307,
,498,1608638311,567224977, ,0.922324,-1.47947,-1.79722,-1.48152,1.45506,1.25911, ,-0.00713513,-0.000134664,0.00038784,0.00131628,0.000897842,-0.00520515,
,499,1608638311,583117849, ,0.92221,-1.47947,-1.79721,-1.4815,1.45507,1.25903, ,-0.0134116,-0.00169721,0.00126204,-0.00244332,-0.000786731,-0.00422202,
,500,1608638311,599010721, ,0.921997,-1.4795,-1.79719,-1.48153,1.45506,1.25897, ,-0.0139136,0.0033637,-0.0006687,-0.000240115,-0.00153713,-0.00887317,
,501,1608638311,614903593, ,0.921776,-1.47944,-1.7972,-1.48154,1.45503,1.25882, ,-0.0158049,-0.00164325,-0.000148206,0.000595941,0.0021711,-0.00791403,
,502,1608638311,630796465, ,0.921525,-1.47947,-1.7972,-1.48153,1.45507,1.2587, ,-0.0148738,0.00181569,-0.000238078,-0.000418353,-0.00159205,-0.00812825,
,503,1608638311,646689337, ,0.921289,-1.47944,-1.79721,-1.48154,1.45504,1.25857, ,-0.0129887,-0.00168803,2.63486e-05,0.00286032,-0.000225536,-0.0106211,
,504,1608638311,662582209, ,0.921082,-1.47947,-1.79721,-1.48149,1.45504,1.2584, ,-0.0111434,0.000439032,0.000235549,-0.00470557,0.000217036,-0.0130082,
,505,1608638311,678475081, ,0.920905,-1.47946,-1.7972,-1.48156,1.45504,1.25819, ,-0.0137597,8.22683e-05,-0.00230477,0.00434266,0.000218471,-0.00819663,
,506,1608638311,694367953, ,0.920686,-1.47946,-1.79724,-1.4815,1.45504,1.25806, ,-0.0125271,-0.00104515,0.00299322,-0.00096906,-0.00176697,-0.0130716,
,507,1608638311,710260825, ,0.920487,-1.47947,-1.79719,-1.48151,1.45502,1.25786, ,-0.0128952,0.00405805,-0.000453862,0.000796513,0.00148591,-0.0110543,
,508,1608638311,726153697, ,0.920282,-1.47941,-1.7972,-1.4815,1.45504,1.25768, ,-0.0110926,-0.001373,-1.30888e-05,-6.75261e-05,-0.000658595,-0.0106392,
,509,1608638311,742046569, ,0.920106,-1.47943,-1.7972,-1.4815,1.45503,1.25751, ,-0.0106054,-0.000791054,0.000782142,-0.000556723,-0.00172812,-0.0130931,
,510,1608638311,757939441, ,0.919938,-1.47944,-1.79719,-1.48151,1.455,1.2573, ,-0.00561386,0.00223756,-0.00341576,-0.0025323,-0.000801648,-0.0110086,
,511,1608638311,773832313, ,0.919848,-1.47941,-1.79724,-1.48155,1.45499,1.25713, ,-0.0109696,-0.00445408,0.0028063,0.00451761,0.00227214,-0.0147177,
,512,1608638311,789725185, ,0.919674,-1.47948,-1.7972,-1.48148,1.45503,1.25689, ,-0.00588186,0.000757485,-3.35446e-05,-0.00101993,-0.00388229,-0.0135787,
,513,1608638311,805618057, ,0.91958,-1.47947,-1.7972,-1.48149,1.45496,1.25668, ,-0.00484789,0.000417875,0.00149345,0.00010499,0.00245166,-0.0147386,
,514,1608638311,821510929, ,0.919503,-1.47946,-1.79717,-1.48149,1.455,1.25644, ,0.00220758,0.000386426,5.31557e-05,-0.00149425,0.00440682,-0.0141017,
,515,1608638311,837403801, ,0.919539,-1.47945,-1.79717,-1.48152,1.45507,1.25622, ,0.000175407,0.000738421,-0.00135297,0.0017782,0.00579604,-0.0164257,
,516,1608638311,853296673, ,0.919541,-1.47944,-1.79719,-1.48149,1.45517,1.25596, ,-0.00165396,0.000374706,0.00027054,-0.00224628,0.0105107,-0.015365,
,517,1608638311,869189545, ,0.919515,-1.47944,-1.79719,-1.48152,1.45533,1.25571, ,-0.00217198,0.000921133,0.000816343,0.00198097,0.0113663,-0.0173222,
,518,1608638311,885082417, ,0.91948,-1.47942,-1.79718,-1.48149,1.45551,1.25544, ,-0.000800663,-0.00213654,0.00114198,-0.000140421,0.0106736,-0.0156569,
,519,1608638311,900975289, ,0.919468,-1.47946,-1.79716,-1.48149,1.45568,1.25519, ,-0.00369109,0.000128597,-0.00152135,-0.000299415,0.0119411,-0.0170174,
,520,1608638311,916868161, ,0.919409,-1.47945,-1.79718,-1.4815,1.45587,1.25492, ,-0.00449805,0.000542519,-0.00023269,-0.00303013,0.0120666,-0.00960146,
,521,1608638311,932761033, ,0.919338,-1.47945,-1.79719,-1.48155,1.45606,1.25477, ,-0.00984206,0.000267193,0.00103389,0.00104318,0.0137667,-0.0114579,
,522,1608638311,948653905, ,0.919181,-1.47944,-1.79717,-1.48153,1.45628,1.25459, ,-0.0120288,-0.00180096,-0.00182992,0.00187543,0.011138,-0.014795,
,523,1608638311,964546777, ,0.91899,-1.47947,-1.7972,-1.4815,1.45646,1.25435, ,-0.0143311,0.000765227,0.00181871,0.00258466,0.0125196,-0.0125558,
,524,1608638311,980439649, ,0.918762,-1.47946,-1.79717,-1.48146,1.45666,1.25415, ,-0.0146034,-0.00100562,-4.43025e-05,-0.000762958,0.0126198,-0.0135224,
,525,1608638311,996332521, ,0.91853,-1.47947,-1.79717,-1.48147,1.45686,1.25394, ,-0.0101536,0.00266932,-0.00186715,-0.00165233,0.0172904,-0.0143337,
,526,1608638312,12225393, ,0.918369,-1.47943,-1.7972,-1.4815,1.45713,1.25371, ,-0.00362495,0.000838353,0.000772189,-0.000300532,0.0179641,-0.0126695,
,527,1608638312,28118265, ,0.918311,-1.47942,-1.79719,-1.4815,1.45742,1.25351, ,-0.00473354,4.31672e-05,-0.00124261,0.00108227,0.0183094,-0.0171796,
,528,1608638312,44011137, ,0.918236,-1.47942,-1.79721,-1.48148,1.45771,1.25323, ,0.00204354,-0.00042088,0.00307925,-0.000539725,0.0218205,-0.0120451,
,529,1608638312,59904009, ,0.918268,-1.47942,-1.79716,-1.48149,1.45806,1.25304, ,0.00339182,-0.00140776,-0.00299459,0.000951474,0.0227304,-0.0126479,
,530,1608638312,75796881, ,0.918322,-1.47945,-1.79721,-1.48148,1.45842,1.25284, ,-0.000119159,0.00111483,3.46717e-05,-0.00179719,0.0214284,-0.0140356,
,531,1608638312,91689753, ,0.91832,-1.47943,-1.79721,-1.48151,1.45876,1.25262, ,0.000660408,-0.00462465,0.00185079,-0.00147989,0.0251899,-0.0120793,
,532,1608638312,107582625, ,0.918331,-1.4795,-1.79718,-1.48153,1.45916,1.25243, ,0.00112417,0.00106227,0.000392233,0.00219672,0.0218774,-0.00920291,
,533,1608638312,123475497, ,0.918349,-1.47949,-1.79717,-1.4815,1.45951,1.25228, ,-0.00319813,0.00233521,-0.000212898,-0.000228144,0.0300231,-0.01111,
,534,1608638312,139368369, ,0.918298,-1.47945,-1.79717,-1.4815,1.45998,1.2521, ,0.000723169,-0.00160253,-0.0010068,0.00195931,0.0294981,-0.00361911,
,535,1608638312,155261241, ,0.918309,-1.47947,-1.79719,-1.48147,1.46045,1.25205, ,0.00030919,0.00115631,-0.000650127,-0.0024864,0.0303152,-0.00200631,
,536,1608638312,171154113, ,0.918314,-1.47946,-1.7972,-1.48151,1.46094,1.25201, ,-8.46923e-05,-0.000797617,1.15172e-05,-0.000137808,0.0306054,0.00362966,
,537,1608638312,187046985, ,0.918313,-1.47947,-1.7972,-1.48151,1.46142,1.25207, ,-0.00146141,0.000487203,0.000690099,0.000617771,0.0280353,-0.00375079,
,538,1608638312,202939857, ,0.91829,-1.47946,-1.79719,-1.4815,1.46187,1.25201, ,-0.000312551,1.1315e-05,-5.7365e-05,0.00262295,0.0256323,0.000474392,
,539,1608638312,218832729, ,0.918285,-1.47946,-1.79719,-1.48146,1.46227,1.25202, ,-6.1624e-05,0.00250886,-0.00032384,-0.00159232,0.0250231,-0.000547694,
,540,1608638312,234725601, ,0.918284,-1.47942,-1.7972,-1.48148,1.46267,1.25201, ,0.000612635,-0.000524251,0.00146404,-0.00240793,0.0278742,-0.006084,
,541,1608638312,250618473, ,0.918294,-1.47943,-1.79717,-1.48152,1.46312,1.25191, ,-0.000483458,0.00121112,0.000548686,0.00237743,0.0261825,-0.00295533,
,542,1608638312,266511345, ,0.918286,-1.47941,-1.79716,-1.48148,1.46353,1.25187, ,0.000592887,-0.000954812,-0.000989691,0.000256608,0.0259789,-0.0129561,
,543,1608638312,282404217, ,0.918295,-1.47942,-1.79718,-1.48148,1.46394,1.25166, ,-0.000389427,-0.00124453,-0.000799327,-0.000611371,0.0250602,-0.012992,
,544,1608638312,298297089, ,0.918289,-1.47944,-1.79719,-1.48149,1.46434,1.25145, ,0.00240505,0.000354364,0.00069456,-0.000126806,0.0238449,-0.0144135,
,545,1608638312,314189961, ,0.918327,-1.47944,-1.79718,-1.48149,1.46472,1.25123, ,-0.00440623,0.00045683,-0.00115146,-0.00170562,0.0263513,-0.0107699,
,546,1608638312,330082833, ,0.918257,-1.47943,-1.7972,-1.48152,1.46514,1.25105, ,-0.00315599,-0.00134712,-0.000592046,0.000471372,0.0210816,-0.0115832,
,547,1608638312,345975705, ,0.918207,-1.47945,-1.79721,-1.48151,1.46548,1.25087, ,-0.00290676,0.00129506,0.00122056,7.51857e-05,0.0222068,-0.00450042,
,548,1608638312,361868577, ,0.918161,-1.47943,-1.79719,-1.48151,1.46583,1.2508, ,-0.00605759,-0.00158623,0.00167127,0.00248774,0.0194186,-0.00282613,
,549,1608638312,377761449, ,0.918065,-1.47946,-1.79716,-1.48147,1.46614,1.25075, ,-0.00962734,0.00228096,-0.00147654,0.000227154,0.0176115,-0.000804025,
,550,1608638312,393654321, ,0.917912,-1.47942,-1.79719,-1.48147,1.46642,1.25074, ,-0.0136972,6.84459e-05,-0.00144247,-0.00160957,0.0166519,0.00384976,
,551,1608638312,409547193, ,0.917694,-1.47942,-1.79721,-1.48149,1.46668,1.2508, ,-0.0141583,-0.00063343,0.00248931,-0.00234649,0.0156472,-0.00264865,
,552,1608638312,425440065, ,0.917469,-1.47943,-1.79717,-1.48153,1.46693,1.25076, ,-0.0139512,-0.00431811,-4.90206e-05,0.00265234,0.0175271,-0.00320474,
,553,1608638312,441332937, ,0.917247,-1.4795,-1.79717,-1.48149,1.46721,1.25071, ,-0.00673892,0.00120305,-0.00192273,-0.00110458,0.0129025,0.00176963,
,554,1608638312,457225809, ,0.91714,-1.47948,-1.7972,-1.48151,1.46741,1.25074, ,-0.0103938,0.0038619,-0.00109582,0.000533365,0.0156791,-0.00100988,
,555,1608638312,473118681, ,0.916975,-1.47942,-1.79722,-1.4815,1.46766,1.25072, ,-0.00204363,-0.00154302,0.0010835,0.00127901,0.0152047,-0.00299776,
,556,1608638312,489011553, ,0.916943,-1.47944,-1.7972,-1.48148,1.4679,1.25067, ,0.00141072,0.00118494,-0.00119637,-0.00169882,0.0155177,-0.00629669,
,557,1608638312,504904425, ,0.916965,-1.47942,-1.79722,-1.4815,1.46815,1.25057, ,-0.000259963,0.00116166,0.00129732,0.00122813,0.0132347,-0.0106083,
,558,1608638312,520797297, ,0.916961,-1.47941,-1.7972,-1.48148,1.46836,1.2504, ,0.00120876,-0.00284349,0.0028263,0.00195872,0.0159505,-0.0144866,
,559,1608638312,536690169, ,0.91698,-1.47945,-1.79716,-1.48145,1.46861,1.25017, ,0.000981929,-0.000305491,-0.00230033,-0.00241526,0.00779268,-0.0118317,
,560,1608638312,552583041, ,0.916996,-1.47946,-1.79719,-1.48149,1.46874,1.24999, ,-0.00159333,-0.00240633,-0.000999849,0.00123439,0.0109262,-0.00892601,
,561,1608638312,568475913, ,0.91697,-1.47949,-1.79721,-1.48147,1.46891,1.24984, ,-0.00137554,0.00214424,-0.00029727,-8.49666e-05,0.0131684,-0.00614952,
,562,1608638312,584368785, ,0.916948,-1.47946,-1.79721,-1.48147,1.46912,1.24975, ,0.00226545,0.000309178,0.000336186,-0.000406805,0.0103867,-0.00324027,
,563,1608638312,600261657, ,0.916984,-1.47945,-1.79721,-1.48148,1.46929,1.2497, ,-0.000733345,-0.00175336,0.0011292,-0.000512859,0.0118873,-0.000417296,
,564,1608638312,616154529, ,0.916973,-1.47948,-1.79719,-1.48149,1.46948,1.24969, ,-0.00134992,0.00100487,-0.000576006,0.000872805,0.0105104,0.000763493,
,565,1608638312,632047401, ,0.916951,-1.47947,-1.7972,-1.48147,1.46964,1.2497, ,0.00131695,0.00341823,0.00173102,-0.00298245,0.00995578,0.00118539,
,566,1608638312,647940273, ,0.916972,-1.47941,-1.79717,-1.48152,1.4698,1.24972, ,-5.68385e-06,-0.000515889,-0.00250514,5.03047e-05,0.0130766,-5.69849e-05,
,567,1608638312,663833145, ,0.916972,-1.47942,-1.79721,-1.48152,1.47001,1.24972, ,0.00064993,-0.00116616,-0.000641922,0.00146229,0.0151792,-0.0016791,
,568,1608638312,679726017, ,0.916983,-1.47944,-1.79722,-1.4815,1.47025,1.24969, ,0.000419512,-0.0017914,0.00109613,0.000529557,0.00974374,-7.97749e-06,
,569,1608638312,695618889, ,0.916989,-1.47947,-1.7972,-1.48149,1.4704,1.24969, ,-0.00100954,0.00211542,0.000283775,-0.000788362,0.00928536,-0.00346606,
,570,1608638312,711511761, ,0.916973,-1.47943,-1.7972,-1.4815,1.47055,1.24964, ,-0.00224475,0.00116315,0.0008544,0.000913115,0.0126745,0.00235107,
,571,1608638312,727404633, ,0.916937,-1.47942,-1.79719,-1.48149,1.47075,1.24967, ,-0.0027818,-0.00372973,-0.000651006,-0.000497436,0.0117733,-0.00104222,
,572,1608638312,743297505, ,0.916893,-1.47947,-1.7972,-1.48149,1.47094,1.24966, ,-0.00113728,-0.000153113,-0.00130633,0.000504216,0.0108611,-0.00601026,
,573,1608638312,759190377, ,0.916875,-1.47948,-1.79722,-1.48149,1.47111,1.24956, ,-0.00397476,-2.64005e-05,0.00158012,9.44422e-05,0.0133256,-0.00339428,
,574,1608638312,775083249, ,0.916812,-1.47948,-1.79719,-1.48148,1.47133,1.24951, ,-0.0130968,0.00111368,0.00114354,-0.0020251,0.0102783,-0.00721217,
,575,1608638312,790976121, ,0.916604,-1.47946,-1.79717,-1.48152,1.47149,1.24939, ,-0.0118063,0.00140978,-0.00229299,0.00230043,0.0158715,-0.0091582,
,576,1608638312,806868993, ,0.916416,-1.47944,-1.79721,-1.48148,1.47174,1.24925, ,-0.0162626,-0.00193341,-0.000756039,-0.00113107,0.0110972,-0.00692926,
,577,1608638312,822761865, ,0.916158,-1.47947,-1.79722,-1.4815,1.47192,1.24914, ,-0.0115937,0.00151511,0.00109314,-4.13752e-06,0.0101723,-0.00621191,
,578,1608638312,838654737, ,0.915974,-1.47944,-1.7972,-1.4815,1.47208,1.24904, ,-0.0121748,0.000269081,0.00272333,0.00229442,0.0115359,-0.00818705,
,579,1608638312,854547609, ,0.91578,-1.47944,-1.79716,-1.48146,1.47226,1.24891, ,-0.00112929,-0.00147321,-0.00301256,0.000341,0.0149945,-0.00881579,
,580,1608638312,870440481, ,0.915762,-1.47946,-1.79721,-1.48146,1.4725,1.24877, ,-0.0037238,0.00145044,0.000527982,-0.00272007,0.0106608,-0.00812522,
,581,1608638312,886333353, ,0.915703,-1.47944,-1.7972,-1.4815,1.47267,1.24864, ,0.000180205,-0.00129406,-0.00128536,-0.00123416,0.0100058,-0.00361477,
,582,1608638312,902226225, ,0.915706,-1.47946,-1.79722,-1.48152,1.47283,1.24858, ,0.00148384,0.00320605,0.00119904,0.00129475,0.0187689,-0.00342698,
,583,1608638312,918119097, ,0.915729,-1.47941,-1.7972,-1.4815,1.47313,1.24853, ,0.00160377,-0.00418887,0.00111237,0.00132198,0.0160902,-0.00373931,
,584,1608638312,934011969, ,0.915755,-1.47948,-1.79718,-1.48148,1.47338,1.24847, ,-0.000723845,0.00249585,0.00105136,-0.00115896,0.0140614,-0.000368536,
,585,1608638312,949904841, ,0.915743,-1.47944,-1.79717,-1.4815,1.47361,1.24846, ,-0.000187723,-0.00310271,-0.00283752,-0.000617354,0.01653,-0.00335425,
,586,1608638312,965797713, ,0.91574,-1.47949,-1.79721,-1.48151,1.47387,1.24841, ,-0.00162123,0.00218901,0.00190752,0.00059887,0.0115808,0.00172879,
,587,1608638312,981690585, ,0.915715,-1.47945,-1.79718,-1.4815,1.47405,1.24844, ,-0.000299444,-0.00110289,-0.000288072,0.000978006,0.0171739,-5.07532e-05,
,588,1608638312,997583457, ,0.91571,-1.47947,-1.79719,-1.48148,1.47433,1.24844, ,-0.000379824,-0.00046357,0.00103924,-0.000547187,0.016583,-0.00494189,
,589,1608638313,13476329, ,0.915704,-1.47948,-1.79717,-1.48149,1.47459,1.24836, ,0.00181764,0.000139989,-0.00212774,-0.00175055,0.0152204,-0.00171668,
,590,1608638313,29369201, ,0.915733,-1.47947,-1.7972,-1.48152,1.47483,1.24833, ,-0.00163126,0.00247147,0.000240855,0.00214505,0.0144479,-0.00519975,
,591,1608638313,45262073, ,0.915707,-1.47943,-1.7972,-1.48148,1.47506,1.24825, ,-0.00107712,-0.000539908,0.000271839,-0.000370431,0.0219538,-0.00339152,
,592,1608638313,61154945, ,0.91569,-1.47944,-1.7972,-1.48149,1.47541,1.24819, ,0.000981586,-0.000856364,0.000434021,-1.23319e-05,0.0151393,-0.0088866,
,593,1608638313,77047817, ,0.915705,-1.47946,-1.79719,-1.48149,1.47565,1.24805, ,-0.00315516,0.00128295,-0.000348051,-0.0026475,0.0189925,-0.00457308,
,594,1608638313,92940689, ,0.915655,-1.47944,-1.79719,-1.48153,1.47595,1.24798, ,-0.00690394,-0.00257028,-0.00162825,0.00186936,0.0162977,-0.00452588,
,595,1608638313,108833561, ,0.915545,-1.47948,-1.79722,-1.4815,1.47621,1.24791, ,-0.00987615,-0.000172992,0.00316632,0.00208268,0.0162127,-0.00673444,
,596,1608638313,124726433, ,0.915388,-1.47948,-1.79717,-1.48147,1.47647,1.2478, ,-0.0129061,0.00443404,-1.618e-05,-0.00196123,0.0174278,-0.00760897,
,597,1608638313,140619305, ,0.915183,-1.47941,-1.79717,-1.4815,1.47675,1.24768, ,-0.0135275,-0.00221169,-0.00170581,-0.00043653,0.0153566,-0.00226512,
,598,1608638313,156512177, ,0.914968,-1.47944,-1.7972,-1.48151,1.47699,1.24764, ,-0.0146576,-7.29634e-05,9.30478e-05,-0.000701838,0.015215,-0.00587548,
,599,1608638313,172405049, ,0.914735,-1.47945,-1.7972,-1.48152,1.47723,1.24755, ,-0.0108093,-0.000402143,0.00137441,0.00155209,0.0178069,-0.00581308,
,600,1608638313,188297921, ,0.914564,-1.47945,-1.79717,-1.48149,1.47752,1.24746, ,-0.00623251,-0.000267923,0.000460738,-0.00107965,0.0155553,-0.00207557,
,601,1608638313,204190793, ,0.914464,-1.47946,-1.79717,-1.48151,1.47776,1.24743, ,-0.00169446,0.00231054,-0.00074418,0.00110255,0.0149393,-0.000461279,
,602,1608638313,220083665, ,0.914438,-1.47942,-1.79718,-1.48149,1.478,1.24742, ,0.000208275,-0.000924114,9.85774e-05,-0.00127729,0.0152632,-0.00452607,
,603,1608638313,235976537, ,0.914441,-1.47943,-1.79718,-1.48151,1.47824,1.24735, ,0.000554012,-0.000631657,-0.00132482,3.6834e-05,0.0131424,-0.00291725,
,604,1608638313,251869409, ,0.91445,-1.47944,-1.7972,-1.48151,1.47845,1.2473, ,0.0018126,0.000308666,0.00165763,-0.000173236,0.0172483,-0.00317143,
,605,1608638313,267762281, ,0.914478,-1.47944,-1.79717,-1.48152,1.47873,1.24725, ,-0.000847941,-0.00307922,-0.00167904,0.000563343,0.0148988,-0.00199385,
,606,1608638313,283655153, ,0.914465,-1.47949,-1.7972,-1.48151,1.47896,1.24722, ,-0.000202364,0.00180245,0.000304587,-0.000173267,0.0134267,-0.00136303,
,607,1608638313,299548025, ,0.914462,-1.47946,-1.79719,-1.48151,1.47918,1.2472, ,0.000688803,-0.00122523,0.000442955,-0.000187133,0.0149125,-0.00497923,
,608,1608638313,315440897, ,0.914473,-1.47948,-1.79719,-1.48151,1.47941,1.24712, ,-0.00232024,0.00318462,-0.000817117,0.000683482,0.0150076,-0.00112744,
,609,1608638313,331333769, ,0.914436,-1.47943,-1.7972,-1.4815,1.47965,1.2471, ,0.00296711,-0.00320079,0.000569228,0.00198429,0.0131565,0.00132842,
,610,1608638313,347226641, ,0.914483,-1.47948,-1.79719,-1.48147,1.47986,1.24712, ,-0.000811887,0.00112993,0.00130066,-0.0030682,0.0137474,-0.00126927,
,611,1608638313,363119513, ,0.91447,-1.47946,-1.79717,-1.48152,1.48008,1.2471, ,-0.00364866,0.00266044,-0.00179788,0.00118369,0.0122746,-0.0016172,
,612,1608638313,379012385, ,0.914412,-1.47942,-1.7972,-1.4815,1.48027,1.24707, ,0.000421946,8.14603e-05,-0.00060996,-0.00166356,0.0156877,-0.00386137,
,613,1608638313,394905257, ,0.914419,-1.47942,-1.79721,-1.48153,1.48052,1.24701, ,-0.00375224,-0.000269796,0.00101199,0.00263029,0.0137571,0.00125118,
,614,1608638313,410798129, ,0.914359,-1.47942,-1.79719,-1.48148,1.48074,1.24703, ,0.00151855,-0.000631929,0.000187795,-0.00114941,0.016112,-0.00695024,
,615,1608638313,426691001, ,0.914383,-1.47943,-1.79719,-1.4815,1.481,1.24692, ,-0.00251844,-0.00179551,-0.000895534,-0.000191818,0.0157911,-0.00131544,
,616,1608638313,442583873, ,0.914343,-1.47946,-1.7972,-1.48151,1.48125,1.2469, ,0.000262419,0.00041449,0.00112222,0.0020451,0.0179456,-4.15874e-05,
,617,1608638313,458476745, ,0.914347,-1.47945,-1.79719,-1.48147,1.48153,1.2469, ,-0.00280706,-0.000158507,0.00113541,-0.0022737,0.0163855,-0.000301928,
,618,1608638313,474369617, ,0.914303,-1.47946,-1.79717,-1.48151,1.48179,1.2469, ,-0.000660393,0.00118334,-0.000727659,0.000737396,0.0132007,0.000905762,
,619,1608638313,490262489, ,0.914292,-1.47944,-1.79718,-1.4815,1.482,1.24691, ,-0.00167727,-0.000522974,-0.00106512,8.62461e-05,0.0153357,-2.74796e-05,
,620,1608638313,506155361, ,0.914266,-1.47945,-1.7972,-1.4815,1.48225,1.24691, ,-0.000997034,0.00056532,0.000274541,-0.00100599,0.0132183,-0.00109864,
,621,1608638313,522048233, ,0.91425,-1.47944,-1.79719,-1.48151,1.48246,1.24689, ,-0.000503888,0.000220387,0.00116003,0.00136972,0.0131251,-0.00406755,
,622,1608638313,537941105, ,0.914242,-1.47943,-1.79717,-1.48149,1.48267,1.24683, ,-0.00293303,0.00130073,-0.00111396,-0.00134621,0.0116335,0.00144597,
,623,1608638313,553833977, ,0.914195,-1.47941,-1.79719,-1.48151,1.48285,1.24685, ,-0.000739989,-0.0029402,0.00196908,0.000149906,0.0138367,-0.00131519,
,624,1608638313,569726849, ,0.914183,-1.47946,-1.79716,-1.48151,1.48307,1.24683, ,-0.00149211,-0.000663093,-0.00196184,0.000620354,0.015019,-0.00314007,
,625,1608638313,585619721, ,0.91416,-1.47947,-1.79719,-1.4815,1.48331,1.24678, ,-8.12809e-05,0.00213342,-0.000118764,-0.000582133,0.0118418,-0.00197155,
,626,1608638313,601512593, ,0.914158,-1.47944,-1.79719,-1.48151,1.4835,1.24675, ,0.00252201,-0.00208299,0.00015004,0.00060542,0.0173494,-0.00268007,
,627,1608638313,617405465, ,0.914199,-1.47947,-1.79719,-1.4815,1.48377,1.24671, ,-0.000698531,0.00166262,0.00158913,0.00162981,0.012755,0.00157276,
,628,1608638313,633298337, ,0.914187,-1.47944,-1.79716,-1.48147,1.48398,1.24673, ,-0.000454805,-0.000584937,-0.00082912,-0.0011853,0.0118128,-0.0016627,
,629,1608638313,649191209, ,0.91418,-1.47945,-1.79718,-1.48149,1.48416,1.2467, ,0.00119949,-0.00132297,-0.00179699,-0.0011589,0.00867947,0.00327221,
,630,1608638313,665084081, ,0.914199,-1.47947,-1.79721,-1.48151,1.4843,1.24676, ,-0.00135052,-0.000172676,0.000647631,-0.000400875,0.0131836,-0.00398575,
,631,1608638313,680976953, ,0.914178,-1.47948,-1.7972,-1.48152,1.48451,1.24669, ,-0.000919212,0.000825744,0.00232895,0.000774303,0.0128152,0.00104656,
,632,1608638313,696869825, ,0.914163,-1.47946,-1.79716,-1.4815,1.48472,1.24671, ,0.000720458,0.00145275,-0.00327492,-0.00106027,0.0111132,-0.000265457,
,633,1608638313,712762697, ,0.914175,-1.47944,-1.79721,-1.48152,1.48489,1.24671, ,-0.00233568,-0.000484225,9.93851e-05,0.00142388,0.0108249,-0.000541946,
,634,1608638313,728655569, ,0.914138,-1.47945,-1.79721,-1.4815,1.48506,1.2467, ,0.00181408,0.000851233,0.00275936,-0.000339249,0.0128198,-0.00156867,
,635,1608638313,744548441, ,0.914166,-1.47943,-1.79717,-1.4815,1.48527,1.24667, ,-0.00200324,0.0011345,-0.0023579,1.64665e-05,0.00924853,-0.00082029,
,636,1608638313,760441313, ,0.914135,-1.47942,-1.7972,-1.4815,1.48542,1.24666, ,-0.000911014,-0.00310229,0.00182289,-0.00183528,0.013724,-0.000249627,
,637,1608638313,776334185, ,0.91412,-1.47947,-1.79717,-1.48153,1.48563,1.24665, ,0.00156819,0.00140624,-0.00144232,0.00262733,0.0112288,-0.00263935,
,638,1608638313,792227057, ,0.914145,-1.47944,-1.7972,-1.48149,1.48581,1.24661, ,5.73779e-05,-0.00166764,0.000434231,-0.000532141,0.0099733,-0.00212144,
,639,1608638313,808119929, ,0.914146,-1.47947,-1.79719,-1.4815,1.48597,1.24658, ,-0.000772256,0.000680062,1.68848e-05,0.00061417,0.00860735,-0.00543581,
,640,1608638313,824012801, ,0.914134,-1.47946,-1.79719,-1.48149,1.48611,1.24649, ,-0.000272728,-0.00122569,0.00135869,-0.00165427,0.0126349,0.00113657,
,641,1608638313,839905673, ,0.914129,-1.47948,-1.79717,-1.48152,1.48631,1.24651, ,0.000182466,0.00305755,7.16382e-05,0.00307251,0.0101696,-0.00316746,
,642,1608638313,855798545, ,0.914132,-1.47943,-1.79717,-1.48147,1.48647,1.24646, ,-0.00230263,-0.00335919,-0.00232816,-0.00039829,0.013594,-0.00199711,
,643,1608638313,871691417, ,0.914096,-1.47948,-1.7972,-1.48147,1.48669,1.24643, ,-0.000401075,0.00389148,0.00149345,-0.00041985,0.011552,-0.00425661,
,644,1608638313,887584289, ,0.914089,-1.47942,-1.79718,-1.48148,1.48687,1.24636, ,-0.00110753,-0.000946076,-5.37449e-05,-0.000775276,0.0109461,-0.00220637,
,645,1608638313,903477161, ,0.914072,-1.47944,-1.79718,-1.48149,1.48704,1.24633, ,-0.000453773,-0.00360418,-0.00251247,-0.000257163,0.0101529,-0.0023733,
,646,1608638313,919370033, ,0.914064,-1.47949,-1.79722,-1.4815,1.4872,1.24629, ,0.000999431,0.00352717,0.00151623,0.000303656,0.00917363,-0.00280149,
,647,1608638313,935262905, ,0.91408,-1.47944,-1.7972,-1.48149,1.48735,1.24624, ,0.000432974,-0.00186909,0.000971872,-0.00145969,0.00677248,-0.00176534,
,648,1608638313,951155777, ,0.914087,-1.47947,-1.79718,-1.48152,1.48746,1.24622, ,0.00183737,-0.00142228,-0.000767013,0.00124669,0.00990846,-0.000643778,
,649,1608638313,967048649, ,0.914116,-1.47949,-1.79719,-1.4815,1.48762,1.24621, ,-0.00141265,0.00162207,0.00291977,-0.00014841,0.00773868,-0.000665392,
,650,1608638313,982941521, ,0.914094,-1.47946,-1.79715,-1.4815,1.48774,1.2462, ,0.000701818,0.00347452,-0.00100025,-0.00143473,0.00761188,-0.0012222,
,651,1608638313,998834393, ,0.914105,-1.47941,-1.79716,-1.48152,1.48786,1.24618, ,-0.0013051,-0.00220883,-0.00307051,0.000894161,0.0120653,0.000703387,
,652,1608638314,14727265, ,0.914084,-1.47944,-1.79721,-1.48151,1.48805,1.24619, ,-0.000770061,-0.00162582,0.00136613,0.000903801,0.0114746,-0.0022799,
,653,1608638314,30620137, ,0.914072,-1.47947,-1.79719,-1.48149,1.48823,1.24615, ,0.000127484,-5.35931e-09,0.00128311,-0.000480353,0.0129813,-0.000675862,
