davideferrari95/admittance_controller/debug/scaled_trajectory_debug.csv
frame_id,seq,sec,nsec,     ,pos_joint1,pos_joint2,pos_joint2,pos_joint4,pos_joint5,pos_joint6,     ,vel_joint1,vel_joint2,vel_joint3,vel_joint4,vel_joint5,vel_joint6

,0,1606844115,646234359, ,0.747586,-1.88025,-1.66647,0.365268,1.74152,-0.592464, ,2.16221e-05,0.00192891,-0.00126449,0.000800319,0.00247484,-0.00236118,
,1,1606844115,662137135, ,0.747586,-1.88022,-1.66649,0.365281,1.74156,-0.592502, ,-0.000729853,-0.00263645,-0.00198584,-0.000107355,-0.00191461,-0.00139084,
,2,1606844115,678039911, ,0.747575,-1.88026,-1.66652,0.365279,1.74153,-0.592524, ,-9.84615e-05,0.00325561,-0.000544503,0.00193494,-0.00120077,0.00299259,
,3,1606844115,693942687, ,0.747573,-1.88021,-1.66653,0.36531,1.74151,-0.592476, ,0.000871792,-0.00187802,0.00203386,-0.00397579,0.000488456,-0.000353645,
,4,1606844115,709845463, ,0.747587,-1.88024,-1.6665,0.365247,1.74152,-0.592482, ,0.00128401,-0.00120967,-5.42019e-05,0.00276982,0.000920117,0.00101754,
,5,1606844115,725748239, ,0.747607,-1.88026,-1.6665,0.365291,1.74153,-0.592466, ,-0.000845135,0.00323511,4.51294e-05,-0.000897943,-0.000855307,-0.00210267,
,6,1606844115,741651015, ,0.747594,-1.88021,-1.6665,0.365276,1.74152,-0.592499, ,-0.00122926,-0.00233376,0.00116724,-0.000390824,0.000564693,-0.000706403,
,7,1606844115,757553791, ,0.747574,-1.88024,-1.66648,0.36527,1.74153,-0.59251, ,0.00179362,0.00299322,-0.000752474,0.000496798,-0.000305743,0.00120204,
,8,1606844115,773456567, ,0.747603,-1.8802,-1.66649,0.365278,1.74152,-0.592491, ,-0.000898804,-0.000492929,-7.15012e-05,0.000528531,-5.37007e-05,-0.00186434,
,9,1606844115,789359343, ,0.747589,-1.8802,-1.66649,0.365286,1.74152,-0.592521, ,-0.000198277,-0.00354832,-0.00255178,-0.000963022,0.000912798,0.00261124,
,10,1606844115,805262119, ,0.747586,-1.88026,-1.66653,0.365271,1.74154,-0.592479, ,0.00131986,0.00514974,0.00321986,0.000197276,-0.00147218,-0.00279754,
,11,1606844115,821164895, ,0.747607,-1.88018,-1.66648,0.365274,1.74151,-0.592524, ,-0.00164558,-0.000904975,-0.0004003,0.000139297,-0.000441577,-0.000472335,
,12,1606844115,837067671, ,0.74758,-1.88019,-1.66649,0.365276,1.74151,-0.592531, ,0.000943981,-0.00562855,-0.000102425,0.00104289,-0.000459128,0.00283435,
,13,1606844115,852970447, ,0.747595,-1.88028,-1.66649,0.365293,1.7415,-0.592486, ,-0.000430666,0.00422369,-0.000406145,-0.00124815,0.00246493,-0.00274466,
,14,1606844115,868873223, ,0.747589,-1.88022,-1.6665,0.365273,1.74154,-0.59253, ,-0.00107414,-0.00189281,-0.0017658,0.000879936,-0.000971868,0.000949651,
,15,1606844115,884775999, ,0.747571,-1.88025,-1.66652,0.365287,1.74152,-0.592515, ,0.000890553,0.00266248,0.00372184,-0.00238577,0.00100714,-0.000631809,
,16,1606844115,900678775, ,0.747586,-1.8802,-1.66647,0.365249,1.74154,-0.592525, ,-0.00107471,0.00111675,-0.00146035,0.00126546,-0.00179267,0.00179318,
,17,1606844115,916581551, ,0.747569,-1.88019,-1.66649,0.365269,1.74151,-0.592496, ,0.000107726,-0.00237199,0.00219807,0.000575176,0.00143448,0.00132566,
,18,1606844115,932484327, ,0.74757,-1.88022,-1.66645,0.365279,1.74153,-0.592475, ,0.00202362,-0.000543449,-0.00191033,-0.000872851,-0.00146548,-0.000892676,
,19,1606844115,948387103, ,0.747602,-1.88023,-1.66648,0.365265,1.74151,-0.592489, ,-0.00132118,0.00023704,-0.00308492,0.00178601,0.00041397,-0.00188163,
,20,1606844115,964289879, ,0.747581,-1.88023,-1.66653,0.365293,1.74152,-0.592519, ,0.00136528,-0.00181601,0.00297049,-0.00243222,0.00130956,0.000222949,
,21,1606844115,980192655, ,0.747603,-1.88026,-1.66649,0.365254,1.74154,-0.592516, ,-0.00201548,0.00311142,-0.000824653,0.000862817,-0.00125502,-0.000749365,
,22,1606844115,996095431, ,0.747571,-1.88021,-1.6665,0.365268,1.74152,-0.592528, ,0.00038017,-0.00236296,5.5549e-05,-0.000744644,0.000830251,0.00343366,
,23,1606844116,11998207, ,0.747577,-1.88025,-1.6665,0.365256,1.74153,-0.592473, ,0.00114494,-0.0010664,0.000583659,0.00249811,-0.00135225,-0.00346255,
,24,1606844116,27900983, ,0.747595,-1.88026,-1.66649,0.365296,1.74151,-0.592528, ,-0.00123596,0.00253444,-0.000637858,-0.00353853,0.000163679,0.00114831,
,25,1606844116,43803759, ,0.747576,-1.88022,-1.6665,0.36524,1.74151,-0.59251, ,-3.10272e-05,-0.000924987,-0.00113952,0.00200679,0.00280077,0.000734846,
,26,1606844116,59706535, ,0.747575,-1.88024,-1.66652,0.365272,1.74156,-0.592498, ,-8.76157e-06,0.00060044,0.00194007,-0.000414964,-0.00278848,-0.000655485,
,27,1606844116,75609311, ,0.747575,-1.88023,-1.66649,0.365265,1.74151,-0.592509, ,8.71459e-05,-0.000693817,-0.00128812,-0.000645069,-0.000814623,-0.000368833,
,28,1606844116,91512087, ,0.747576,-1.88024,-1.66651,0.365255,1.7415,-0.592514, ,0.0024728,0.00178246,0.00165967,0.00106582,0.00278798,0.00363821,
,29,1606844116,107414863, ,0.747616,-1.88021,-1.66648,0.365272,1.74154,-0.592457, ,-0.0019949,0.000176746,-0.00170295,-0.00105858,-0.00386874,-0.00452296,
,30,1606844116,123317639, ,0.747584,-1.88021,-1.66651,0.365255,1.74148,-0.592528, ,-1.99674e-06,0.000545912,0.00146343,0.00140179,0.00350546,0.00117979,
,31,1606844116,139220415, ,0.747584,-1.8802,-1.66648,0.365277,1.74154,-0.59251, ,-0.000589117,-0.00278102,-0.0020971,-0.000897164,-0.00492795,-0.00147121,
,32,1606844116,155123191, ,0.747575,-1.88024,-1.66652,0.365263,1.74146,-0.592533, ,0.00309043,-0.000354595,0.00116652,-0.00051725,0.00620023,0.00136479,
,33,1606844116,171025967, ,0.747624,-1.88025,-1.6665,0.365255,1.74156,-0.592511, ,-0.00160092,0.00255767,-0.00133364,0.00199775,0.000944862,0.000121223,
,34,1606844116,186928743, ,0.747598,-1.88021,-1.66652,0.365286,1.74157,-0.592509, ,-0.00306597,-0.00216206,0.0013401,-0.00127136,-0.0022968,0.000391093,
,35,1606844116,202831519, ,0.74755,-1.88024,-1.6665,0.365266,1.74154,-0.592503, ,0.00156371,-0.000457394,0.00114241,9.58114e-05,-0.000913911,-0.000465307,
,36,1606844116,218734295, ,0.747574,-1.88025,-1.66648,0.365268,1.74152,-0.592511, ,0.00153181,-0.00070146,4.6701e-05,0.000810345,-8.3067e-05,-0.000777656,
,37,1606844116,234637071, ,0.747599,-1.88026,-1.66648,0.365281,1.74152,-0.592523, ,-0.0022956,0.00125876,-0.000627361,-0.00224753,0.00125246,0.0014377,
,38,1606844116,250539847, ,0.747562,-1.88024,-1.66649,0.365245,1.74154,-0.5925, ,0.000690137,-0.000531404,0.000596548,0.00222555,-0.000550947,0.000680121,
,39,1606844116,266442623, ,0.747573,-1.88025,-1.66648,0.36528,1.74153,-0.592489, ,0.000162985,-0.000501745,0.00132955,-0.000770915,-2.6372e-05,0.000943154,
,40,1606844116,282345399, ,0.747576,-1.88026,-1.66646,0.365268,1.74153,-0.592474, ,-0.000105398,0.00479595,-0.00122688,0.000867746,0.00196395,-0.000894423,
,41,1606844116,298248175, ,0.747574,-1.88018,-1.66648,0.365282,1.74156,-0.592489, ,0.00259643,-0.00358951,-0.00256227,-0.0017531,-0.00351492,-0.000112481,
,42,1606844116,314150951, ,0.747615,-1.88024,-1.66652,0.365254,1.74151,-0.59249, ,-0.0029733,-5.96754e-05,0.003364,0.00127586,0.000443459,-0.00268319,
,43,1606844116,330053727, ,0.747568,-1.88024,-1.66647,0.365274,1.74151,-0.592533, ,-0.00119372,0.00182142,-0.00285555,0.000811664,0.00162491,0.0017694,
,44,1606844116,345956503, ,0.747549,-1.88021,-1.66651,0.365287,1.74154,-0.592505, ,0.00235315,-0.0024783,0.00153064,-0.000861399,-0.00128224,0.000182329,
,45,1606844116,361859279, ,0.747587,-1.88025,-1.66649,0.365273,1.74152,-0.592502, ,0.00135229,0.000333336,-0.000420641,-0.00106809,-6.63613e-05,0.000900639,
,46,1606844116,377762055, ,0.747608,-1.88024,-1.66649,0.365256,1.74152,-0.592488, ,-0.00109435,-0.000467537,0.00133384,-0.00135167,0.000563546,-0.00133053,
,47,1606844116,393664831, ,0.747591,-1.88025,-1.66647,0.365235,1.74153,-0.592509, ,-0.00151009,0.00106099,-0.00140292,0.00226826,-0.000559595,-0.000970703,
,48,1606844116,409567607, ,0.747567,-1.88023,-1.66649,0.365271,1.74152,-0.592524, ,0.0023165,-0.000115969,0.000397338,-0.000181916,6.53198e-05,0.00278668,
,49,1606844116,425470383, ,0.747604,-1.88024,-1.66649,0.365268,1.74152,-0.59248, ,-0.000908192,0.000749551,-0.000919812,-0.00147776,0.000877931,-0.00247798,
,50,1606844116,441373159, ,0.747589,-1.88022,-1.6665,0.365245,1.74153,-0.592519, ,-0.0014475,-0.00231799,0.00134683,0.00287612,-0.000207857,0.000234619,
,51,1606844116,457275935, ,0.747566,-1.88026,-1.66648,0.36529,1.74153,-0.592516, ,0.00249998,0.00156225,0.000639526,-0.000207899,-0.00211279,0.00234063,
,52,1606844116,473178711, ,0.747606,-1.88024,-1.66647,0.365287,1.7415,-0.592478, ,0.00067956,0.00148213,-0.00140577,-0.0012634,0.00238904,0.000733008,
,53,1606844116,489081487, ,0.747617,-1.88021,-1.66649,0.365267,1.74153,-0.592467, ,-0.000693167,0.000428709,-0.000696648,-0.00123682,-0.00105073,-0.00351054,
,54,1606844116,504984263, ,0.747606,-1.88021,-1.66651,0.365247,1.74152,-0.592523, ,0.000959497,-0.00124477,0.00115458,-0.00227634,-0.000439927,0.00216012,
,55,1606844116,520887039, ,0.747621,-1.88023,-1.66649,0.365211,1.74151,-0.592488, ,-0.00261701,0.00027088,0.000379807,0.00404269,3.46522e-05,-0.000548879,
,56,1606844116,536789815, ,0.747579,-1.88022,-1.66648,0.365275,1.74151,-0.592497, ,0.000866039,-6.10474e-05,-0.00235306,-0.00187213,0.000594575,-0.000947428,
,57,1606844116,552692591, ,0.747593,-1.88022,-1.66652,0.365246,1.74152,-0.592512, ,-0.00161999,0.00117802,0.0017746,0.000248611,-0.00102214,0.000872511,
,58,1606844116,568595367, ,0.747567,-1.8802,-1.66649,0.36525,1.7415,-0.592498, ,0.00141238,-0.00507752,0.000129085,-3.24778e-05,0.000279447,-0.00111665,
,59,1606844116,584498143, ,0.74759,-1.88028,-1.66649,0.365249,1.74151,-0.592516, ,0.000371646,0.00541709,-8.72453e-05,-0.0012509,0.000305622,0.000199906,
,60,1606844116,600400919, ,0.747596,-1.8802,-1.66649,0.365229,1.74151,-0.592513, ,-0.00221855,-0.00391306,-0.000999069,0.00175236,0.000127964,0.00280904,
,61,1606844116,616303695, ,0.74756,-1.88026,-1.66651,0.365257,1.74151,-0.592468, ,0.00237691,0.00252604,0.000685175,0.00124517,0.000234999,-0.00297822,
,62,1606844116,632206471, ,0.747598,-1.88022,-1.66649,0.365277,1.74152,-0.592515, ,-0.000662817,-0.00149797,-0.000136229,0.000367067,-8.24951e-05,-5.84094e-05,
,63,1606844116,648109247, ,0.747588,-1.88024,-1.6665,0.365283,1.74152,-0.592516, ,-0.00130488,-0.000818942,0.00010649,2.69107e-05,0.000903461,0.000973944,
,64,1606844116,664012023, ,0.747567,-1.88026,-1.66649,0.365283,1.74153,-0.592501, ,-1.2615e-05,0.000769371,0.00127272,0.000188817,-0.000399599,0.000752381,
,65,1606844116,679914799, ,0.747567,-1.88024,-1.66647,0.365286,1.74153,-0.592489, ,0.00290578,0.00278655,-0.00066413,0.00163072,6.94597e-05,-0.00055713,
,66,1606844116,695817575, ,0.747613,-1.8802,-1.66648,0.365312,1.74153,-0.592498, ,-0.00402262,-0.00149447,-0.00054743,-0.00273308,-0.000942478,-0.000686588,
,67,1606844116,711720351, ,0.747549,-1.88022,-1.66649,0.365269,1.74151,-0.592509, ,0.00326213,0.00169528,-0.000252998,0.00173769,0.00125467,-0.000383214,
,68,1606844116,727623127, ,0.747601,-1.8802,-1.6665,0.365296,1.74153,-0.592515, ,0.000844324,-0.00264896,-0.00119395,-0.00374533,0.00147901,0.00075207,
,69,1606844116,743525903, ,0.747614,-1.88024,-1.66652,0.365237,1.74155,-0.592503, ,-0.00120298,0.00211411,-0.00072383,0.00261296,-0.00238555,0.000404612,
,70,1606844116,759428679, ,0.747595,-1.88021,-1.66653,0.365278,1.74152,-0.592496, ,0.000295684,-0.00197115,0.000537707,0.000833451,0.00103278,0.00133027,
,71,1606844116,775331455, ,0.7476,-1.88024,-1.66652,0.365291,1.74153,-0.592475, ,0.000720206,-0.00206543,0.00104529,-0.000763216,-0.00118821,-0.00231533,
,72,1606844116,791234231, ,0.747611,-1.88027,-1.6665,0.365279,1.74151,-0.592512, ,-3.65749e-05,0.00119577,0.00157417,0.00162264,0.00413297,-0.000719912,
,73,1606844116,807137007, ,0.747611,-1.88025,-1.66648,0.365305,1.74158,-0.592523, ,-0.000747023,7.06829e-05,-0.0032356,-0.00155569,-0.00378021,0.0030324,
,74,1606844116,823039783, ,0.747599,-1.88025,-1.66653,0.36528,1.74152,-0.592475, ,1.59162e-05,0.000606222,0.0024776,-0.00222449,-0.000629809,-0.001543,
,75,1606844116,838942559, ,0.747599,-1.88024,-1.66649,0.365245,1.74151,-0.5925, ,0.00153925,0.00187219,1.57218e-05,0.0021625,0.000573929,0.00304416,
,76,1606844116,854845335, ,0.747623,-1.88021,-1.66649,0.365279,1.74152,-0.592451, ,-0.00246485,-0.00327907,0.0012829,-0.00194595,0.00125864,-0.00243109,
,77,1606844116,870748111, ,0.747584,-1.88026,-1.66647,0.365248,1.74154,-0.59249, ,0.000329534,0.00523898,0.000125444,-0.00121903,-0.000809803,-0.00139037,
,78,1606844116,886650887, ,0.74759,-1.88018,-1.66647,0.365229,1.74153,-0.592512, ,-0.000306324,-0.00565211,-0.00208975,0.00228843,0.000685412,0.000730778,
,79,1606844116,902553663, ,0.747585,-1.88027,-1.6665,0.365265,1.74154,-0.592501, ,-0.00056532,0.00342272,0.00144232,0.000117261,-0.000471039,-0.00369883,
,80,1606844116,918456439, ,0.747576,-1.88021,-1.66648,0.365267,1.74153,-0.592559, ,-0.00048702,-0.00287203,-0.00129103,-0.0014735,-0.000159082,0.00170178,
,81,1606844116,934359215, ,0.747568,-1.88026,-1.6665,0.365244,1.74153,-0.592532, ,-0.0020309,0.000883201,-0.000311619,0.00176401,-0.000692602,0.00241372,
,82,1606844116,950261991, ,0.747536,-1.88025,-1.6665,0.365272,1.74152,-0.592494, ,0.00391431,-0.00122191,0.000279974,0.000519189,-1.23921e-06,-0.00100839,
,83,1606844116,966164767, ,0.747598,-1.88027,-1.6665,0.36528,1.74152,-0.59251, ,-0.00158316,0.00297261,-0.000163856,0.00153765,-0.000991936,2.24211e-05,
,84,1606844116,982067543, ,0.747573,-1.88022,-1.6665,0.365305,1.7415,-0.59251, ,0.00126208,0.00109226,-0.000526677,-0.0015829,0.000714195,-7.08861e-05,
,85,1606844116,997970319, ,0.747593,-1.8802,-1.66651,0.365279,1.74151,-0.592511, ,-0.000779203,-0.000712667,0.000115673,-0.00101648,-0.00133664,0.00094476,
,86,1606844117,13873095, ,0.74758,-1.88021,-1.66651,0.365263,1.74149,-0.592496, ,0.00173525,0.000330777,0.000623733,0.000831664,0.000511944,-0.00251527,
,87,1606844117,29775871, ,0.747608,-1.88021,-1.6665,0.365277,1.7415,-0.592536, ,-0.000666358,-0.00204839,0.000811855,0.00282505,0.00245424,0.000842554,
,88,1606844117,45678647, ,0.747597,-1.88024,-1.66649,0.365321,1.74154,-0.592522, ,-0.00160382,0.00207151,1.33118e-05,-0.00298169,-0.00215151,0.00182415,
,89,1606844117,61581423, ,0.747572,-1.88021,-1.66648,0.365274,1.7415,-0.592493, ,0.00110779,-0.00268054,-0.00122365,-0.000554059,-0.00177967,-0.00292405,
,90,1606844117,77484199, ,0.747589,-1.88025,-1.6665,0.365265,1.74148,-0.59254, ,-0.000580174,-0.000535411,0.00118669,0.00148656,0.00238162,0.00203978,
,91,1606844117,93386975, ,0.74758,-1.88026,-1.66649,0.365289,1.74151,-0.592507, ,0.000103981,0.00180648,-0.00249665,-0.000548971,0.000131308,0.000491239,
,92,1606844117,109289751, ,0.747582,-1.88023,-1.66653,0.36528,1.74152,-0.5925, ,0.00037503,9.74715e-05,0.00277305,0.000597496,-0.00054324,0.00030253,
,93,1606844117,125192527, ,0.747588,-1.88023,-1.66648,0.36529,1.74151,-0.592495, ,-0.000257475,8.59051e-06,-0.00150793,0.000911006,0.0021245,-0.000592555,
,94,1606844117,141095303, ,0.747584,-1.88023,-1.6665,0.365304,1.74154,-0.592504, ,0.000318454,0.00101826,0.00131462,-0.000465544,0.00047099,0.000432235,
,95,1606844117,156998079, ,0.747589,-1.88021,-1.66648,0.365297,1.74155,-0.592497, ,0.000276183,-0.000575317,-0.00201882,-0.00330549,-0.000801784,-0.00135142,
,96,1606844117,172900855, ,0.747593,-1.88022,-1.66652,0.365244,1.74154,-0.592519, ,-0.00109165,-0.00059129,0.00285733,0.0017124,-0.00188526,0.00070653,
,97,1606844117,188803631, ,0.747576,-1.88023,-1.66647,0.365271,1.74151,-0.592508, ,0.000362858,-0.000371218,-0.00193215,0.00336466,0.00116939,0.00105409,
,98,1606844117,204706407, ,0.747582,-1.88024,-1.6665,0.365325,1.74152,-0.592491, ,-0.00206055,0.00273081,0.000392741,-0.00341091,-2.56447e-05,0.000181404,
,99,1606844117,220609183, ,0.747549,-1.88019,-1.6665,0.365271,1.74152,-0.592488, ,0.00243392,-0.000519211,0.00195362,0.000592488,-0.0020705,0.000201887,
,100,1606844117,236511959, ,0.747588,-1.8802,-1.66646,0.36528,1.74149,-0.592485, ,-0.000624917,-0.000239181,-0.00318124,0.00194434,0.00171078,-0.00330061,
,101,1606844117,252414735, ,0.747578,-1.8802,-1.66651,0.365311,1.74152,-0.592537, ,0.00119682,-0.00192044,0.00102683,-0.00238425,-0.00097338,0.00441681,
,102,1606844117,268317511, ,0.747597,-1.88023,-1.6665,0.365273,1.7415,-0.592467, ,0.000963446,-0.0012363,0.000389678,-0.000574166,0.00202901,-0.00141655,
,103,1606844117,284220287, ,0.747612,-1.88025,-1.66649,0.365264,1.74153,-0.592489, ,-0.00248021,0.00319714,-0.00166842,-0.000243978,-0.000757265,0.00199783,
,104,1606844117,300123063, ,0.747573,-1.8802,-1.66652,0.36526,1.74152,-0.592458, ,5.45383e-05,-0.000708042,0.000947324,-0.000113263,-0.000340417,-0.00330159,
,105,1606844117,316025839, ,0.747573,-1.88022,-1.6665,0.365258,1.74152,-0.59251, ,0.00060287,-0.000432736,0.00104454,0.00131436,0.000637287,-0.00114461,
,106,1606844117,331928615, ,0.747583,-1.88022,-1.66649,0.365279,1.74153,-0.592528, ,0.000188076,-0.00277206,0.00038054,0.000697165,0.000607174,0.00155927,
,107,1606844117,347831391, ,0.747586,-1.88027,-1.66648,0.36529,1.74154,-0.592504, ,-0.00160698,0.00549483,0.000596048,-0.000601195,0.000191954,0.00108817,
,108,1606844117,363734167, ,0.74756,-1.88018,-1.66647,0.365281,1.74154,-0.592486, ,0.00226671,-0.00289406,-0.000541708,0.000903646,-0.00199534,-0.000631443,
,109,1606844117,379636943, ,0.747596,-1.88022,-1.66648,0.365295,1.74151,-0.592496, ,0.000142836,-0.00102979,-0.00130553,-0.000220397,0.000746334,0.00199679,
,110,1606844117,395539719, ,0.747599,-1.88024,-1.6665,0.365292,1.74152,-0.592465, ,-0.00149064,-0.00181703,7.61712e-05,-0.00225169,-0.00131263,-0.000741339,
,111,1606844117,411442495, ,0.747575,-1.88027,-1.6665,0.365256,1.7415,-0.592476, ,0.00226234,0.00376701,0.000621665,2.82214e-05,7.12359e-05,-0.00367058,
,112,1606844117,427345271, ,0.747611,-1.88021,-1.66649,0.365256,1.7415,-0.592535, ,-0.000746808,-3.17576e-05,-7.47416e-06,0.00149581,0.00124161,0.0044351,
,113,1606844117,443248047, ,0.747599,-1.88021,-1.66649,0.36528,1.74152,-0.592464, ,-8.17758e-06,-0.0025295,3.49509e-05,-7.44689e-05,-1.21279e-05,-0.00230598,
,114,1606844117,459150823, ,0.747599,-1.88025,-1.66649,0.365279,1.74152,-0.592501, ,-3.14088e-06,0.0027795,0.000402343,0.000176691,-0.0011041,0.000820073,
,115,1606844117,475053599, ,0.747599,-1.88021,-1.66648,0.365282,1.7415,-0.592488, ,-0.0015422,-0.0028089,0.000249034,0.000493329,0.000913983,0.000132532,
,116,1606844117,490956375, ,0.747574,-1.88025,-1.66648,0.365289,1.74152,-0.592486, ,0.000811916,0.00332723,-0.000218473,0.000866246,-0.000299098,0.0013888,
,117,1606844117,506859151, ,0.747587,-1.8802,-1.66648,0.365303,1.74151,-0.592464, ,-0.00214479,-0.000735285,0.000147228,-0.0026437,0.000521224,-0.00441699,
,118,1606844117,522761927, ,0.747553,-1.88021,-1.66648,0.365261,1.74152,-0.592534, ,0.000643311,0.000249587,0.000483044,-0.00212459,-4.13085e-05,0.00190879,
,119,1606844117,538664703, ,0.747563,-1.88021,-1.66647,0.365227,1.74152,-0.592504, ,0.00241983,-0.00142176,-0.000478272,0.00365467,-0.000782175,0.00100627,
,120,1606844117,554567479, ,0.747602,-1.88023,-1.66648,0.365286,1.74151,-0.592488, ,-0.00348664,0.000597985,-0.000946057,-0.00269153,-0.00095354,-0.00236965,
,121,1606844117,570470255, ,0.747547,-1.88022,-1.6665,0.365243,1.74149,-0.592525, ,0.00187621,-0.00073481,0.000502782,-0.000234185,0.0027015,0.00163106,
,122,1606844117,586373031, ,0.747576,-1.88023,-1.66649,0.365239,1.74153,-0.592499, ,4.05634e-05,0.000325697,0.000514502,0.00196452,-0.00092419,0.00172025,
,123,1606844117,602275807, ,0.747577,-1.88023,-1.66648,0.36527,1.74152,-0.592472, ,0.00129549,-0.00125488,-0.000716469,0.00152242,-0.000174666,-0.00176133,
,124,1606844117,618178583, ,0.747598,-1.88025,-1.66649,0.365294,1.74152,-0.5925, ,0.000395165,0.00195873,0.00037707,-0.00298602,0.00184945,0.00229318,
,125,1606844117,634081359, ,0.747604,-1.88021,-1.66648,0.365247,1.74155,-0.592463, ,-0.00248341,0.000399583,-0.0010789,0.00435202,-0.0019778,-0.0039233,
,126,1606844117,649984135, ,0.747564,-1.88021,-1.6665,0.365316,1.74152,-0.592526, ,0.00288859,0.000941533,-0.000345347,-0.00446345,-0.000209702,0.00196791,
,127,1606844117,665886911, ,0.74761,-1.88019,-1.66651,0.365245,1.74151,-0.592495, ,-0.00161586,-0.000989364,0.000465661,0.00183506,0.000390876,-0.00148991,
,128,1606844117,681789687, ,0.747585,-1.88021,-1.6665,0.365274,1.74152,-0.592518, ,0.000335114,-0.0037364,-0.000404214,-0.00282303,-0.000557054,0.00201202,
,129,1606844117,697692463, ,0.74759,-1.88027,-1.66651,0.365229,1.74151,-0.592486, ,0.00089279,0.00391981,0.0016329,0.000604945,7.8537e-06,-0.000294284,
,130,1606844117,713595239, ,0.747604,-1.88021,-1.66648,0.365239,1.74151,-0.592491, ,-0.00163073,-0.00275609,-0.000808621,0.0026173,-0.000395066,0.00189156,
,131,1606844117,729498015, ,0.747578,-1.88025,-1.66649,0.365281,1.7415,-0.592461, ,-0.000540912,0.00306493,0.000404611,-0.00157937,5.60051e-05,-0.00524298,
,132,1606844117,745400791, ,0.74757,-1.8802,-1.66649,0.365256,1.7415,-0.592544, ,0.00157135,-0.00251859,-0.000566739,0.00152746,0.00182247,0.00183311,
,133,1606844117,761303567, ,0.747595,-1.88024,-1.6665,0.36528,1.74153,-0.592515, ,-0.000857541,0.000996066,0.000529587,-0.00231192,8.85201e-05,0.00145616,
,134,1606844117,777206343, ,0.747581,-1.88023,-1.66649,0.365243,1.74153,-0.592492, ,-0.0013452,0.00174975,-0.00151948,0.00226808,-0.000889811,-0.00166339,
,135,1606844117,793109119, ,0.74756,-1.8802,-1.66651,0.365279,1.74152,-0.592518, ,0.00100964,-0.00108599,0.000571973,-0.000530774,-0.00143615,0.00357279,
,136,1606844117,809011895, ,0.747576,-1.88021,-1.6665,0.365271,1.7415,-0.592462, ,0.00199423,-0.000512755,0.000357678,-0.0018483,0.00138802,-0.0025974,
,137,1606844117,824914671, ,0.747607,-1.88022,-1.6665,0.365241,1.74152,-0.592503, ,-0.00285007,0.00026613,0.000443081,0.00514816,0.000105625,0.00256778,
,138,1606844117,840817447, ,0.747562,-1.88022,-1.66649,0.365323,1.74152,-0.592462, ,0.00114071,-0.00116508,-0.000232865,-0.00366974,-0.000556032,-0.00115735,
,139,1606844117,856720223, ,0.74758,-1.88024,-1.66649,0.365265,1.74151,-0.59248, ,0.000231147,-0.000510484,-0.00210515,0.000140717,8.97346e-05,-0.00234806,
,140,1606844117,872622999, ,0.747584,-1.88025,-1.66653,0.365267,1.74151,-0.592518, ,0.000438065,-0.0012393,0.000737553,-0.000611135,0.000133096,0.000350313,
,141,1606844117,888525775, ,0.747591,-1.88026,-1.66651,0.365257,1.74152,-0.592512, ,-0.00152508,0.00435859,0.00114115,-2.82957e-05,0.00080936,-0.000430575,
,142,1606844117,904428551, ,0.747567,-1.8802,-1.6665,0.365257,1.74153,-0.592519, ,0.00236276,-0.00293752,0.00075329,0.0013535,-0.000938109,-0.000670853,
,143,1606844117,920331327, ,0.747604,-1.88024,-1.66648,0.365278,1.74151,-0.59253, ,0.000403409,0.00245029,0.00142832,0.000930632,0.00159123,0.00322899,
,144,1606844117,936234103, ,0.747611,-1.8802,-1.66646,0.365293,1.74154,-0.592478, ,-0.00163403,-0.00267246,-0.00157673,-0.000773491,-0.000458786,-0.00201798,
,145,1606844117,952136879, ,0.747585,-1.88025,-1.66649,0.365281,1.74153,-0.59251, ,-0.00161676,-0.000541484,-0.000253847,-0.00123221,-0.000730958,0.000140527,
,146,1606844117,968039655, ,0.747559,-1.88025,-1.66649,0.365261,1.74152,-0.592508, ,0.00262217,0.00213501,0.00132439,-0.00113281,0.0031588,-0.000763487,
,147,1606844117,983942431, ,0.747601,-1.88022,-1.66647,0.365243,1.74157,-0.59252, ,-0.0016353,0.00128947,-0.00181891,-0.00156002,-0.00386542,-9.68047e-05,
,148,1606844117,999845207, ,0.747575,-1.8802,-1.6665,0.365219,1.74151,-0.592522, ,0.000745327,-0.00310664,0.00117246,0.00463212,0.00193442,0.000649289,
,149,1606844118,15747983, ,0.747586,-1.88025,-1.66648,0.365292,1.74154,-0.592512, ,-8.36875e-06,-0.000647676,-0.000607641,0.00224014,-0.00126098,0.00072212,
,150,1606844118,31650759, ,0.747586,-1.88026,-1.66649,0.365328,1.74152,-0.5925, ,-0.000827818,0.00316066,-0.000664959,-0.00450886,1.70279e-05,-0.00226359,
,151,1606844118,47553535, ,0.747573,-1.88021,-1.6665,0.365256,1.74152,-0.592536, ,-0.000611636,-1.65666e-05,0.00116755,-0.00079799,0.000520918,0.00177278,
,152,1606844118,63456311, ,0.747563,-1.88021,-1.66648,0.365243,1.74153,-0.592508, ,0.00216518,-0.003116,-0.00231399,0.00233055,7.13159e-05,-0.00018124,
,153,1606844118,79359087, ,0.747598,-1.88026,-1.66652,0.365281,1.74153,-0.592511, ,-0.00154109,0.00111591,0.00103285,-0.000171336,-0.00200914,0.0012754,
,154,1606844118,95261863, ,0.747573,-1.88024,-1.6665,0.365278,1.7415,-0.59249, ,0.000592972,0.00410143,0.00067357,-0.00333613,0.000101407,0.00113666,
,155,1606844118,111164639, ,0.747583,-1.88018,-1.66649,0.365225,1.7415,-0.592472, ,0.000330494,-0.00339332,3.44511e-05,0.0016353,0.000829697,-0.00286757,
,156,1606844118,127067415, ,0.747588,-1.88023,-1.66649,0.365251,1.74151,-0.592518, ,-0.00202749,-0.000911898,-0.000576355,0.000612507,0.00175405,0.00297396,
,157,1606844118,142970191, ,0.747556,-1.88024,-1.6665,0.36526,1.74154,-0.592471, ,0.000399509,0.00204185,-0.00137678,-0.000392674,-0.00262829,-0.00231074,
,158,1606844118,158872967, ,0.747562,-1.88021,-1.66652,0.365254,1.7415,-0.592507, ,-7.36426e-05,-0.00225156,0.00200767,0.000401687,0.00135599,0.00261369,
,159,1606844118,174775743, ,0.747561,-1.88025,-1.66649,0.365261,1.74152,-0.592466, ,0.00109376,0.00231488,-0.000213648,-0.00145736,-0.000135972,-0.00164873,
,160,1606844118,190678519, ,0.747578,-1.88021,-1.66649,0.365237,1.74152,-0.592492, ,0.00168565,-0.00200836,0.000412885,0.00158405,-0.000333881,0.000276821,
,161,1606844118,206581295, ,0.747605,-1.88024,-1.66649,0.365263,1.74151,-0.592488, ,-0.00124745,0.00267628,0.000498443,0.00012464,0.000459933,-0.00117604,
,162,1606844118,222484071, ,0.747585,-1.8802,-1.66648,0.365265,1.74152,-0.592506, ,0.000874551,-0.00317988,-0.000130174,0.00103647,0.00247291,0.00164788,
,163,1606844118,238386847, ,0.747599,-1.88025,-1.66648,0.365281,1.74156,-0.59248, ,-0.000266149,-0.000247425,-0.000561694,-0.000704882,-0.0036819,-0.00105041,
,164,1606844118,254289623, ,0.747595,-1.88026,-1.66649,0.36527,1.7415,-0.592497, ,0.00130412,0.00134708,0.000713349,-0.00171104,-0.000246586,-0.000618961,
,165,1606844118,270192399, ,0.747616,-1.88023,-1.66648,0.365243,1.7415,-0.592507, ,-0.000170996,-0.000744911,-0.000440304,-0.000496608,0.00130252,0.00110147,
,166,1606844118,286095175, ,0.747613,-1.88025,-1.66649,0.365235,1.74152,-0.592489, ,-0.00238091,0.00182281,-0.00157679,0.00327948,0.000502271,0.00200132,
,167,1606844118,301997951, ,0.747575,-1.88022,-1.66651,0.365287,1.74153,-0.592457, ,0.000345986,-0.0016205,0.000105921,-0.000225445,-0.000801954,-0.00279075,
,168,1606844118,317900727, ,0.747581,-1.88024,-1.66651,0.365283,1.74151,-0.592502, ,0.000828745,0.00281829,0.00305409,-0.0010861,0.000359347,-0.00221172,
,169,1606844118,333803503, ,0.747594,-1.8802,-1.66646,0.365266,1.74152,-0.592537, ,-0.00185758,-0.00167986,-0.00211806,0.000919218,0.000443006,0.00104782,
,170,1606844118,349706279, ,0.747564,-1.88022,-1.66649,0.365281,1.74153,-0.59252, ,0.000896678,-0.00133411,-0.000118655,-0.00203866,-0.00175527,0.000178852,
,171,1606844118,365609055, ,0.747579,-1.88025,-1.6665,0.365248,1.7415,-0.592517, ,0.000281258,0.00158116,0.000302419,0.000322991,0.00221317,-9.03444e-05,
,172,1606844118,381511831, ,0.747583,-1.88022,-1.66649,0.365253,1.74153,-0.592519, ,9.38126e-05,-0.00019286,-0.000946659,0.00246009,-0.00047042,0.00214292,
,173,1606844118,397414607, ,0.747584,-1.88022,-1.66651,0.365293,1.74153,-0.592485, ,0.00131626,-0.00219228,0.000850608,-0.000755853,-0.00069143,-0.00135006,
,174,1606844118,413317383, ,0.747605,-1.88026,-1.66649,0.365281,1.74151,-0.592506, ,-0.00221161,0.00149536,0.00144392,-0.000321825,-0.00191247,0.000629215,
,175,1606844118,429220159, ,0.74757,-1.88023,-1.66647,0.365275,1.74148,-0.592496, ,0.000987442,0.000766888,-0.00243657,-0.00209627,0.00435846,-0.00185212,
,176,1606844118,445122935, ,0.747586,-1.88022,-1.66651,0.365242,1.74155,-0.592526, ,-0.000706301,-0.000478451,-0.000330561,0.00265583,-0.00333551,0.00206635,
,177,1606844118,461025711, ,0.747575,-1.88023,-1.66651,0.365284,1.7415,-0.592493, ,0.000441484,0.000585269,0.00131066,0.00124008,0.00339668,-0.00186538,
,178,1606844118,476928487, ,0.747582,-1.88022,-1.66649,0.365304,1.74155,-0.592523, ,0.000946307,0.000557123,-0.000368908,-0.00248283,0.000487649,0.00345889,
,179,1606844118,492831263, ,0.747597,-1.88021,-1.6665,0.365265,1.74156,-0.592468, ,-0.00075838,-0.000471332,-0.000826736,0.00099441,-0.00520028,-0.00226805,
,180,1606844118,508734039, ,0.747585,-1.88022,-1.66651,0.36528,1.74148,-0.592504, ,0.000583293,-0.00218581,0.00265217,-0.000455081,0.0018333,-0.000811826,
,181,1606844118,524636815, ,0.747594,-1.88025,-1.66647,0.365273,1.74151,-0.592517, ,-0.0012542,0.00176209,-0.00112884,-0.000750535,-0.00038861,0.000996702,
,182,1606844118,540539591, ,0.747574,-1.88023,-1.66649,0.365261,1.7415,-0.592501, ,0.000764346,-0.000847459,-3.79238e-05,0.00148885,-0.000197386,0.000432348,
,183,1606844118,556442367, ,0.747586,-1.88024,-1.66649,0.365285,1.7415,-0.592494, ,6.97459e-05,-0.000110004,-0.000561641,-0.00123741,0.00133261,-0.00249953,
,184,1606844118,572345143, ,0.747587,-1.88024,-1.6665,0.365265,1.74152,-0.592534, ,-0.00011675,0.000147945,-0.00149877,-0.000529694,6.52361e-05,0.00288943,
,185,1606844118,588247919, ,0.747585,-1.88024,-1.66652,0.365257,1.74152,-0.592488, ,-0.00151265,-0.000787583,0.00131307,0.000729431,-0.000695384,-0.000773123,
,186,1606844118,604150695, ,0.747561,-1.88025,-1.6665,0.365268,1.74151,-0.5925, ,0.0023591,0.00260804,0.000656186,-0.00146913,0.000629744,-0.000701632,
,187,1606844118,620053471, ,0.747599,-1.88021,-1.66649,0.365245,1.74152,-0.592511, ,-0.00160951,-4.05989e-06,-0.000597199,0.00143505,0.000599405,0.00375328,
,188,1606844118,635956247, ,0.747573,-1.88021,-1.6665,0.365268,1.74153,-0.592451, ,0.000857956,-0.000660216,0.00119058,0.00215039,0.000579859,-0.00384338,
,189,1606844118,651859023, ,0.747587,-1.88022,-1.66648,0.365302,1.74154,-0.592512, ,0.000588066,5.48358e-05,-0.000809256,-0.00342154,-0.00249091,0.000942058,
,190,1606844118,667761799, ,0.747596,-1.88022,-1.66649,0.365248,1.7415,-0.592498, ,-0.00138216,-0.0013719,-0.000242527,0.00138398,0.000117571,0.00124252,
,191,1606844118,683664575, ,0.747574,-1.88024,-1.6665,0.36527,1.7415,-0.592478, ,0.0025146,0.00147302,-0.000256128,0.000515206,0.000591982,-0.00311569,
,192,1606844118,699567351, ,0.747614,-1.88022,-1.6665,0.365278,1.74151,-0.592527, ,-0.00279162,-0.000390044,0.00139325,-0.000687155,0.000101163,0.00105013,
,193,1606844118,715470127, ,0.74757,-1.88022,-1.66648,0.365267,1.74151,-0.592511, ,0.00182347,-0.00125454,-0.00305307,0.000187112,0.000825541,-0.0003349,
,194,1606844118,731372903, ,0.747599,-1.88024,-1.66653,0.36527,1.74153,-0.592516, ,0.00129485,0.00214752,0.000481024,-0.000841318,-0.00122971,0.00305396,
,195,1606844118,747275679, ,0.74762,-1.88021,-1.66652,0.365256,1.74151,-0.592467, ,-0.0017156,-0.00192667,-0.0003591,0.0029927,0.000653961,-0.00310242,
,196,1606844118,763178455, ,0.747592,-1.88024,-1.66653,0.365304,1.74152,-0.592517, ,-0.00120651,0.00174398,0.00393606,-0.000228514,0.000768486,0.0020164,
,197,1606844118,779081231, ,0.747573,-1.88021,-1.66646,0.3653,1.74153,-0.592485, ,0.00031192,0.000225546,-0.00236711,-0.00286616,-6.45642e-06,-0.00313668,
,198,1606844118,794984007, ,0.747578,-1.88021,-1.6665,0.365255,1.74153,-0.592535, ,-0.0010386,0.000606139,0.00119616,0.000461964,-0.000818177,0.000998505,
,199,1606844118,810886783, ,0.747562,-1.8802,-1.66648,0.365262,1.74152,-0.592519, ,0.00245492,6.84396e-05,-0.000901852,0.00332211,0.000511889,0.00301475,
,200,1606844118,826789559, ,0.747601,-1.8802,-1.6665,0.365315,1.74152,-0.592471, ,-0.00152832,-0.0024339,0.00171538,-0.00360898,-0.0014373,-0.000612978,
,201,1606844118,842692335, ,0.747576,-1.88024,-1.66647,0.365258,1.7415,-0.59248, ,0.00154791,0.000610795,-0.00142563,0.00188252,0.00314379,-0.00366601,
,202,1606844118,858595111, ,0.747601,-1.88023,-1.66649,0.365288,1.74155,-0.592539, ,0.000356684,-0.00271334,-0.000516471,0.000218282,-0.00374534,0.00339186,
,203,1606844118,874497887, ,0.747607,-1.88027,-1.6665,0.365291,1.74149,-0.592485, ,-0.00113641,0.00349721,0.000996827,5.61861e-05,0.00322661,-0.00212055,
,204,1606844118,890400663, ,0.747588,-1.88022,-1.66648,0.365292,1.74154,-0.592519, ,-0.00172716,0.000701835,-0.000758738,9.44244e-07,-0.00225743,0.00156508,
,205,1606844118,906303439, ,0.747561,-1.8802,-1.6665,0.365292,1.74151,-0.592494, ,0.00181649,0.000184051,-0.000727058,-0.00181556,-0.000922677,-0.00186409,
,206,1606844118,922206215, ,0.74759,-1.8802,-1.66651,0.365263,1.74149,-0.592523, ,0.000273951,-0.000937261,0.00101586,0.00125357,0.00147475,0.001042,
,207,1606844118,938108991, ,0.747594,-1.88022,-1.66649,0.365283,1.74152,-0.592507, ,-0.000284835,2.3706e-05,-0.000504753,-0.00306248,-0.000526479,0.000317046,
,208,1606844118,954011767, ,0.74759,-1.88022,-1.6665,0.365234,1.74151,-0.592502, ,0.00194978,-0.000569354,0.00182402,0.00329153,0.00105468,-9.16652e-06,
,209,1606844118,969914543, ,0.747621,-1.88022,-1.66647,0.365287,1.74152,-0.592502, ,-0.00169035,0.00040418,-4.50336e-05,0.00108459,-0.00119565,0.00108788,
,210,1606844118,985817319, ,0.747594,-1.88022,-1.66647,0.365304,1.7415,-0.592484, ,0.000530433,0.00128262,-0.000476748,-0.00300541,0.000922189,4.96563e-05,
,211,1606844119,1720095, ,0.747602,-1.8802,-1.66648,0.365256,1.74152,-0.592484, ,-0.00159683,-0.000514797,0.000577114,0.00190423,0.00159582,-0.00144434,
,212,1606844119,17622871, ,0.747577,-1.88021,-1.66647,0.365286,1.74154,-0.592507, ,0.00133589,0.00064139,0.0021588,0.00144077,-0.00104266,0.000867508,
,213,1606844119,33525647, ,0.747598,-1.8802,-1.66644,0.365309,1.74153,-0.592493, ,-0.000338243,0.000246923,-0.000884645,-0.000873142,0.000670028,-0.00388883,
,214,1606844119,49428423, ,0.747593,-1.88019,-1.66645,0.365295,1.74154,-0.592555, ,0.000984693,9.68078e-05,0.00181408,0.000665078,-0.000549235,0.00633136,
,215,1606844119,65331199, ,0.747608,-1.88019,-1.66642,0.365306,1.74153,-0.592454, ,-0.00193628,0.00229773,-0.00119099,-0.00258801,-0.0018391,-0.00368519,
,216,1606844119,81233975, ,0.747578,-1.88015,-1.66644,0.365265,1.7415,-0.592513, ,-0.00040689,-0.000946768,0.000513366,0.00343973,0.000590711,0.00154464,
,217,1606844119,97136751, ,0.747571,-1.88017,-1.66643,0.36532,1.74151,-0.592488, ,0.00011533,-0.000170272,0.00154091,-0.000409226,0.00140467,0.00149187,
,218,1606844119,113039527, ,0.747573,-1.88017,-1.66641,0.365313,1.74153,-0.592464, ,0.000920171,0.00528513,0.000462705,0.00129359,-0.00326772,0.000448268,
,219,1606844119,128942303, ,0.747588,-1.88009,-1.6664,0.365334,1.74148,-0.592457, ,-0.00173135,0.00323062,-0.000649914,-0.00363998,0.00285069,-0.00365485,
,220,1606844119,144845079, ,0.74756,-1.88004,-1.66641,0.365276,1.74153,-0.592515, ,-2.39075e-05,0.0013444,0.00211192,0.000928077,0.000306957,0.00266051,
,221,1606844119,160747855, ,0.74756,-1.88001,-1.66638,0.36529,1.74153,-0.592473, ,0.0016833,0.00558749,0.00296482,0.00243751,-0.000783899,-0.00204859,
,222,1606844119,176650631, ,0.747586,-1.87993,-1.66633,0.365329,1.74152,-0.592506, ,-0.00156567,0.00474908,0.00305814,0.00133293,-0.00101822,0.0011365,
,223,1606844119,192553407, ,0.747562,-1.87985,-1.66628,0.36535,1.7415,-0.592488, ,0.00152597,0.0101054,0.00443773,-0.00080771,-0.00136296,-3.72397e-05,
,224,1606844119,208456183, ,0.747586,-1.87969,-1.66621,0.365338,1.74148,-0.592488, ,0.000810528,0.00436228,0.00373462,-0.00448379,0.00128124,-0.000756275,
,225,1606844119,224358959, ,0.747599,-1.87962,-1.66615,0.365266,1.7415,-0.5925, ,6.37552e-05,0.0113401,0.00568727,-0.00610199,0.00120908,-0.000786048,
,226,1606844119,240261735, ,0.7476,-1.87944,-1.66606,0.365169,1.74152,-0.592513, ,-1.46223e-05,0.00306161,0.00610991,-0.00227064,-0.000626643,0.000643283,
,227,1606844119,256164511, ,0.7476,-1.87939,-1.66596,0.365133,1.74151,-0.592502, ,-0.000886916,0.0111757,0.00633686,-0.00446897,-5.15606e-05,0.00337409,
,228,1606844119,272067287, ,0.747585,-1.87921,-1.66586,0.365062,1.74151,-0.592449, ,0.00178069,0.00690016,0.00869465,-0.0118585,9.76712e-05,-0.00385653,
,229,1606844119,287970063, ,0.747614,-1.8791,-1.66572,0.364873,1.74151,-0.59251, ,0.00055504,0.00991437,0.00771555,-0.00379939,-0.000885104,0.000944428,
,230,1606844119,303872839, ,0.747623,-1.87895,-1.6656,0.364813,1.7415,-0.592495, ,-0.000231429,0.0114217,0.00800839,-0.00478382,-0.000900656,0.00185973,
,231,1606844119,319775615, ,0.747619,-1.87876,-1.66547,0.364737,1.74148,-0.592466, ,-0.000210512,0.0105598,0.00947663,-0.00803736,-0.000740431,-0.00187514,
,232,1606844119,335678391, ,0.747616,-1.8786,-1.66532,0.364609,1.74147,-0.592495, ,0.00107231,0.013826,0.00769899,-0.00742102,0.00159859,-0.000486152,
,233,1606844119,351581167, ,0.747633,-1.87838,-1.6652,0.364491,1.7415,-0.592503, ,-0.000384279,0.010243,0.00964207,-0.008496,-0.00259227,-0.00242124,
,234,1606844119,367483943, ,0.747626,-1.87821,-1.66505,0.364356,1.74145,-0.592542, ,-0.000307067,0.0145659,0.00814316,-0.0113174,-0.00296802,0.00226032,
,235,1606844119,383386719, ,0.747622,-1.87798,-1.66492,0.364176,1.74141,-0.592506, ,0.00310697,0.01311,0.00678942,-0.0123836,-0.0032238,-0.00253187,
,236,1606844119,399289495, ,0.747671,-1.87777,-1.66481,0.363979,1.74136,-0.592546, ,0.00209577,0.0155493,0.00885069,-0.0104788,-0.00101157,0.0038669,
,237,1606844119,415192271, ,0.747704,-1.87753,-1.66467,0.363813,1.74134,-0.592484, ,0.00606751,0.0132309,0.00457998,-0.0174671,-0.00551586,-0.00172836,
,238,1606844119,431095047, ,0.747801,-1.87732,-1.6646,0.363535,1.74125,-0.592512, ,0.00679636,0.015401,0.00720218,-0.00937237,-0.00614947,0.00106448,
,239,1606844119,446997823, ,0.747909,-1.87707,-1.66448,0.363386,1.74115,-0.592495, ,0.00505115,0.0158058,0.00226164,-0.014654,-0.00832407,-0.000634031,
,240,1606844119,462900599, ,0.747989,-1.87682,-1.66445,0.363153,1.74102,-0.592505, ,0.0081708,0.0180166,0.00438014,-0.0180654,-0.00581024,0.00106959,
,241,1606844119,478803375, ,0.748119,-1.87653,-1.66438,0.362865,1.74093,-0.592488, ,0.00789831,0.0181222,0.00332046,-0.0162651,-0.00747104,-0.00150164,
,242,1606844119,494706151, ,0.748245,-1.87625,-1.66432,0.362607,1.74081,-0.592512, ,0.00770051,0.0206037,-0.000962278,-0.0176713,-0.00583555,0.00220199,
,243,1606844119,510608927, ,0.748367,-1.87592,-1.66434,0.362326,1.74072,-0.592477, ,0.00855644,0.0180958,-0.0008502,-0.0192854,-0.00824077,-0.000117241,
,244,1606844119,526511703, ,0.748503,-1.87563,-1.66435,0.362019,1.74059,-0.592479, ,0.00769674,0.0219152,0.000266787,-0.0178768,-0.00911471,-0.00118703,
,245,1606844119,542414479, ,0.748626,-1.87528,-1.66435,0.361735,1.74044,-0.592498, ,0.00983646,0.0177669,-0.00242899,-0.0182455,-0.00544395,0.00043747,
,246,1606844119,558317255, ,0.748782,-1.875,-1.66439,0.361445,1.74036,-0.592491, ,0.0106348,0.0242186,-0.000989685,-0.0228804,-0.0109506,-0.000823847,
,247,1606844119,574220031, ,0.748951,-1.87461,-1.6644,0.361081,1.74018,-0.592504, ,0.00946558,0.0208534,-0.00211977,-0.0191013,-0.0107874,0.000679367,
,248,1606844119,590122807, ,0.749102,-1.87428,-1.66444,0.360777,1.74001,-0.592493, ,0.0103787,0.0244529,-0.00356939,-0.0213992,-0.00790709,-9.01218e-05,
,249,1606844119,606025583, ,0.749267,-1.87389,-1.66449,0.360437,1.73988,-0.592494, ,0.00938306,0.025028,-0.00641659,-0.0217146,-0.00881101,-0.000458441,
,250,1606844119,621928359, ,0.749416,-1.87349,-1.66459,0.360091,1.73974,-0.592502, ,0.0078406,0.023315,-0.00488349,-0.0246449,-0.0121068,0.00290296,
,251,1606844119,637831135, ,0.749541,-1.87312,-1.66467,0.359699,1.73955,-0.592456, ,0.0103569,0.0223176,-0.00301398,-0.0196184,-0.00885584,-0.0035802,
,252,1606844119,653733911, ,0.749705,-1.87277,-1.66472,0.359387,1.73941,-0.592512, ,0.00900092,0.026362,-0.00425017,-0.0260617,-0.0135155,0.000368664,
,253,1606844119,669636687, ,0.749849,-1.87235,-1.66479,0.358973,1.7392,-0.592507, ,0.00964048,0.0317762,-0.00390816,-0.0228399,-0.00910873,0.000251807,
,254,1606844119,685539463, ,0.750002,-1.87184,-1.66485,0.35861,1.73905,-0.592503, ,0.0113414,0.0279374,-0.00137755,-0.0300617,-0.0105681,0.000821883,
,255,1606844119,701442239, ,0.750182,-1.8714,-1.66487,0.358132,1.73888,-0.59249, ,0.0112058,0.0288077,-0.00321477,-0.0287659,-0.0116767,-0.00130148,
,256,1606844119,717345015, ,0.75036,-1.87094,-1.66492,0.357674,1.7387,-0.59251, ,0.00992328,0.0334136,-0.00257362,-0.0217497,-0.0109707,0.00213486,
,257,1606844119,733247791, ,0.750518,-1.87041,-1.66496,0.357328,1.73852,-0.592476, ,0.0101688,0.0321825,0.000298347,-0.0315271,-0.012378,0.000119204,
,258,1606844119,749150567, ,0.75068,-1.8699,-1.66496,0.356827,1.73833,-0.592474, ,0.0107262,0.0350793,-0.00125226,-0.027945,-0.0120894,-0.00262765,
,259,1606844119,765053343, ,0.750851,-1.86934,-1.66498,0.356383,1.73813,-0.592516, ,0.0140872,0.0289922,-0.00129583,-0.0328025,-0.0148116,0.00121395,
,260,1606844119,780956119, ,0.751075,-1.86888,-1.665,0.355861,1.7379,-0.592497, ,0.0113788,0.0354744,0.00122476,-0.0329599,-0.0138648,0.00202679,
,261,1606844119,796858895, ,0.751256,-1.86832,-1.66498,0.355337,1.73768,-0.592465, ,0.0119744,0.0393499,0.00315759,-0.0313466,-0.0117933,-0.000651735,
,262,1606844119,812761671, ,0.751446,-1.86769,-1.66493,0.354838,1.73749,-0.592475, ,0.0128114,0.0311521,0.00243564,-0.0292697,-0.0124754,-0.000824564,
,263,1606844119,828664447, ,0.75165,-1.86719,-1.66489,0.354373,1.73729,-0.592488, ,0.0105019,0.0349808,0.00310054,-0.0367526,-0.0150096,0.000749306,
,264,1606844119,844567223, ,0.751817,-1.86664,-1.66484,0.353788,1.73705,-0.592476, ,0.0126686,0.0381591,0.0050507,-0.0322421,-0.0110688,0.00159301,
,265,1606844119,860469999, ,0.752018,-1.86603,-1.66476,0.353276,1.73688,-0.592451, ,0.0159791,0.039216,0.00607632,-0.0357512,-0.0122162,-0.000706608,
,266,1606844119,876372775, ,0.752272,-1.86541,-1.66467,0.352707,1.73668,-0.592462, ,0.0117626,0.0376052,0.00593346,-0.0338987,-0.0144926,-0.00259496,
,267,1606844119,892275551, ,0.752459,-1.86481,-1.66457,0.352168,1.73645,-0.592503, ,0.0138589,0.0400959,0.0056493,-0.0418879,-0.0157628,0.00233658,
,268,1606844119,908178327, ,0.75268,-1.86417,-1.66448,0.351502,1.7362,-0.592466, ,0.0105284,0.0406766,0.00840877,-0.0377334,-0.00885723,0.000170485,
,269,1606844119,924081103, ,0.752847,-1.86353,-1.66435,0.350902,1.73606,-0.592463, ,0.0168638,0.0420655,0.00549585,-0.0376441,-0.0162879,-0.0027284,
,270,1606844119,939983879, ,0.753115,-1.86286,-1.66426,0.350303,1.7358,-0.592507, ,0.0157639,0.0399813,0.00966987,-0.0361485,-0.0144564,0.00290375,
,271,1606844119,955886655, ,0.753366,-1.86222,-1.66411,0.349728,1.73557,-0.592461, ,0.0126651,0.044462,0.0067679,-0.0421638,-0.013768,-0.00162775,
,272,1606844119,971789431, ,0.753567,-1.86151,-1.664,0.349058,1.73535,-0.592487, ,0.015576,0.0434953,0.0100862,-0.0425534,-0.0193892,0.000344826,
,273,1606844119,987692207, ,0.753815,-1.86082,-1.66384,0.348381,1.73504,-0.592481, ,0.0152993,0.0437106,0.00843173,-0.0408631,-0.0154813,0.000888276,
,274,1606844120,3594983, ,0.754058,-1.86013,-1.6637,0.347731,1.7348,-0.592467, ,0.0167619,0.0465495,0.008445,-0.041742,-0.0174921,0.00128907,
,275,1606844120,19497759, ,0.754325,-1.85939,-1.66357,0.347067,1.73452,-0.592446, ,0.0145152,0.0433133,0.0069285,-0.0440666,-0.0169031,-0.000987757,
,276,1606844120,35400535, ,0.754556,-1.8587,-1.66346,0.346367,1.73425,-0.592462, ,0.0165596,0.0467978,0.00788613,-0.0429281,-0.015545,-0.000120557,
,277,1606844120,51303311, ,0.754819,-1.85795,-1.66333,0.345684,1.734,-0.592464, ,0.0155197,0.0456403,0.00800439,-0.0456349,-0.0159187,0.0017075,
,278,1606844120,67206087, ,0.755066,-1.85723,-1.66321,0.344958,1.73375,-0.592437, ,0.0151921,0.05176,0.00816396,-0.0458103,-0.0189368,-0.00215217,
,279,1606844120,83108863, ,0.755308,-1.8564,-1.66308,0.34423,1.73345,-0.592471, ,0.0183564,0.0460379,0.0093867,-0.0434373,-0.0183347,0.00279066,
,280,1606844120,99011639, ,0.755599,-1.85567,-1.66293,0.343539,1.73316,-0.592427, ,0.016627,0.0515681,0.00666062,-0.048513,-0.0178892,-0.000954491,
,281,1606844120,114914415, ,0.755864,-1.85485,-1.66282,0.342767,1.73287,-0.592442, ,0.0206051,0.050305,0.00916508,-0.0435246,-0.0176621,0.00184478,
,282,1606844120,130817191, ,0.756192,-1.85405,-1.66268,0.342075,1.73259,-0.592413, ,0.0152226,0.050898,0.00593312,-0.0491588,-0.0178226,0.00228378,
,283,1606844120,146719967, ,0.756434,-1.85324,-1.66258,0.341293,1.73231,-0.592376, ,0.0182828,0.0525875,0.0084228,-0.0525519,-0.0186286,0.00551556,
,284,1606844120,162622743, ,0.756724,-1.85241,-1.66245,0.340458,1.73201,-0.592289, ,0.0181131,0.0520005,0.00835784,-0.0478552,-0.0194309,0.00291138,
,285,1606844120,178525519, ,0.757012,-1.85158,-1.66231,0.339697,1.7317,-0.592242, ,0.0209428,0.0522647,0.00804762,-0.0569683,-0.015157,0.0042829,
,286,1606844120,194428295, ,0.757346,-1.85075,-1.66219,0.338791,1.73146,-0.592174, ,0.0209006,0.0536977,0.00985618,-0.0500224,-0.0218518,0.00627519,
,287,1606844120,210331071, ,0.757678,-1.84989,-1.66203,0.337995,1.73112,-0.592074, ,0.020394,0.0541311,0.00798837,-0.0490609,-0.0201134,0.00558324,
,288,1606844120,226233847, ,0.758002,-1.84903,-1.6619,0.337215,1.7308,-0.591986, ,0.0194372,0.0565364,0.0127871,-0.053722,-0.0209755,0.0029174,
,289,1606844120,242136623, ,0.758311,-1.84813,-1.6617,0.336361,1.73046,-0.591939, ,0.022096,0.0550263,0.0102503,-0.0549584,-0.0183717,0.00868242,
,290,1606844120,258039399, ,0.758663,-1.84726,-1.66154,0.335487,1.73017,-0.591801, ,0.0218012,0.0587293,0.0121054,-0.0556372,-0.0192762,0.00312513,
,291,1606844120,273942175, ,0.759009,-1.84633,-1.66134,0.334602,1.72986,-0.591751, ,0.0233752,0.0570349,0.0112645,-0.055723,-0.0254217,0.00565566,
,292,1606844120,289844951, ,0.759381,-1.84542,-1.66116,0.333716,1.72946,-0.591662, ,0.0201714,0.0587644,0.0125862,-0.0545571,-0.0191909,0.00625444,
,293,1606844120,305747727, ,0.759702,-1.84448,-1.66096,0.332848,1.72915,-0.591562, ,0.0244197,0.0582003,0.0109311,-0.0588878,-0.022427,0.00604708,
,294,1606844120,321650503, ,0.76009,-1.84356,-1.66079,0.331912,1.7288,-0.591466, ,0.0216287,0.0601466,0.0125278,-0.0562647,-0.0215221,0.00692293,
,295,1606844120,337553279, ,0.760434,-1.8426,-1.66059,0.331017,1.72846,-0.591356, ,0.0227839,0.059466,0.0129299,-0.0607003,-0.0251217,0.00143045,
,296,1606844120,353456055, ,0.760797,-1.84166,-1.66039,0.330052,1.72806,-0.591333, ,0.0262045,0.065989,0.0137844,-0.0597878,-0.0222946,0.00733276,
,297,1606844120,369358831, ,0.761213,-1.84061,-1.66017,0.329101,1.7277,-0.591216, ,0.0231675,0.063304,0.0143418,-0.0598293,-0.0255275,0.00248133,
,298,1606844120,385261607, ,0.761582,-1.8396,-1.65994,0.328149,1.7273,-0.591177, ,0.0241004,0.0656112,0.0150393,-0.0600791,-0.0217445,0.00366582,
,299,1606844120,401164383, ,0.761965,-1.83856,-1.6597,0.327194,1.72695,-0.591119, ,0.0231491,0.0630884,0.0181361,-0.0605393,-0.0244404,0.0105328,
,300,1606844120,417067159, ,0.762333,-1.83755,-1.65941,0.326231,1.72656,-0.590951, ,0.0232022,0.0662326,0.0156043,-0.0636529,-0.0268437,0.00311166,
,301,1606844120,432969935, ,0.762702,-1.8365,-1.65916,0.325219,1.72613,-0.590902, ,0.0238152,0.0692054,0.0148762,-0.067784,-0.0237583,0.0042293,
,302,1606844120,448872711, ,0.763081,-1.8354,-1.65893,0.324141,1.72576,-0.590834, ,0.0277677,0.0700618,0.0205623,-0.0624291,-0.0272602,0.00758849,
,303,1606844120,464775487, ,0.763522,-1.83429,-1.6586,0.323148,1.72532,-0.590714, ,0.0225436,0.0627506,0.0183267,-0.0662077,-0.0245341,0.00451497,
,304,1606844120,480678263, ,0.763881,-1.83329,-1.65831,0.322095,1.72493,-0.590642, ,0.0233139,0.0701231,0.0194062,-0.0682799,-0.0274085,0.00466841,
,305,1606844120,496581039, ,0.764252,-1.83217,-1.658,0.321009,1.7245,-0.590568, ,0.0267644,0.0718981,0.0210611,-0.0624052,-0.0225473,0.00585391,
,306,1606844120,512483815, ,0.764677,-1.83103,-1.65766,0.320017,1.72414,-0.590475, ,0.023593,0.0739282,0.0205702,-0.0702344,-0.0293078,0.00442703,
,307,1606844120,528386591, ,0.765052,-1.82985,-1.65734,0.3189,1.72367,-0.590404, ,0.0224318,0.0740695,0.0214898,-0.0692215,-0.022859,0.00696666,
,308,1606844120,544289367, ,0.765409,-1.82868,-1.657,0.317799,1.72331,-0.590293, ,0.0261896,0.0712883,0.0214105,-0.0695309,-0.0307754,0.00559651,
,309,1606844120,560192143, ,0.765826,-1.82754,-1.65666,0.316694,1.72282,-0.590204, ,0.0248684,0.0734301,0.0233772,-0.0712882,-0.0321988,0.00671813,
,310,1606844120,576094919, ,0.766221,-1.82637,-1.65628,0.31556,1.72231,-0.590098, ,0.0216447,0.0723856,0.0222222,-0.0719255,-0.0285617,0.00792967,
,311,1606844120,591997695, ,0.766565,-1.82522,-1.65593,0.314416,1.72185,-0.589971, ,0.0274498,0.0733385,0.022344,-0.067538,-0.0304477,0.00665216,
,312,1606844120,607900471, ,0.767002,-1.82406,-1.65557,0.313342,1.72137,-0.589866, ,0.0250761,0.0765222,0.0237905,-0.0713705,-0.0290225,0.0091373,
,313,1606844120,623803247, ,0.767401,-1.82284,-1.6552,0.312207,1.72091,-0.58972, ,0.0255816,0.078371,0.0248743,-0.0743013,-0.0317573,0.00609518,
,314,1606844120,639706023, ,0.767807,-1.82159,-1.6548,0.311025,1.7204,-0.589623, ,0.0253796,0.0732718,0.0253067,-0.0695813,-0.0317821,0.00620859,
,315,1606844120,655608799, ,0.768211,-1.82043,-1.6544,0.309919,1.7199,-0.589525, ,0.0255642,0.0785607,0.0262653,-0.0761469,-0.0301332,0.00577342,
,316,1606844120,671511575, ,0.768618,-1.81918,-1.65398,0.308708,1.71942,-0.589433, ,0.0263032,0.0763165,0.023789,-0.0743155,-0.0312881,0.00490204,
,317,1606844120,687414351, ,0.769036,-1.81797,-1.6536,0.307526,1.71892,-0.589355, ,0.0235786,0.0788977,0.0274554,-0.0780997,-0.0292043,0.00941474,
,318,1606844120,703317127, ,0.769411,-1.81671,-1.65317,0.306284,1.71846,-0.589205, ,0.0259455,0.0777371,0.0275094,-0.0755921,-0.0333863,0.00490513,
,319,1606844120,719219903, ,0.769824,-1.81547,-1.65273,0.305082,1.71792,-0.589127, ,0.027064,0.0823336,0.0266818,-0.0803256,-0.0285709,0.0072185,
,320,1606844120,735122679, ,0.770254,-1.81417,-1.6523,0.303805,1.71747,-0.589012, ,0.0261731,0.0785734,0.0287031,-0.0783975,-0.0316454,0.00730766,
,321,1606844120,751025455, ,0.77067,-1.81292,-1.65185,0.302558,1.71697,-0.588896, ,0.0263551,0.0833945,0.0299467,-0.0774873,-0.0312766,0.00529688,
,322,1606844120,766928231, ,0.771089,-1.81159,-1.65137,0.301326,1.71647,-0.588812, ,0.0243199,0.079895,0.0319749,-0.0804446,-0.0297651,0.0067462,
,323,1606844120,782831007, ,0.771476,-1.81032,-1.65086,0.300046,1.716,-0.588705, ,0.0225298,0.0857348,0.0297592,-0.0775125,-0.0255379,0.00577447,
,324,1606844120,798733783, ,0.771834,-1.80896,-1.65039,0.298814,1.71559,-0.588613, ,0.0245019,0.0832454,0.030776,-0.0843608,-0.0294152,0.00594597,
,325,1606844120,814636559, ,0.772224,-1.80763,-1.6499,0.297472,1.71512,-0.588518, ,0.0263958,0.0852426,0.0329722,-0.0836189,-0.0286249,0.00918807,
,326,1606844120,830539335, ,0.772644,-1.80628,-1.64938,0.296142,1.71467,-0.588372, ,0.0236692,0.0867557,0.0336814,-0.0845465,-0.0287448,0.00507148,
,327,1606844120,846442111, ,0.77302,-1.8049,-1.64884,0.294798,1.71421,-0.588292, ,0.027773,0.0884383,0.0342193,-0.0855136,-0.0281828,0.00498954,
,328,1606844120,862344887, ,0.773462,-1.80349,-1.6483,0.293438,1.71376,-0.588212, ,0.0249255,0.0883901,0.0340486,-0.0858492,-0.0295414,0.00841369,
,329,1606844120,878247663, ,0.773858,-1.80208,-1.64775,0.292073,1.71329,-0.588078, ,0.0251225,0.0856092,0.0342586,-0.0853631,-0.0269092,0.00623277,
,330,1606844120,894150439, ,0.774258,-1.80072,-1.64721,0.290715,1.71286,-0.587979, ,0.0250009,0.0888182,0.0365089,-0.090286,-0.0327296,0.00526212,
,331,1606844120,910053215, ,0.774655,-1.79931,-1.64663,0.289279,1.71234,-0.587896, ,0.0233197,0.0904264,0.0384305,-0.0861942,-0.0279763,0.00696708,
,332,1606844120,925955991, ,0.775026,-1.79787,-1.64602,0.287909,1.7119,-0.587785, ,0.0238174,0.0883437,0.0386458,-0.0884695,-0.0302306,0.00437543,
,333,1606844120,941858767, ,0.775405,-1.79647,-1.6454,0.286502,1.71142,-0.587715, ,0.0254593,0.0884553,0.0399806,-0.091132,-0.0262594,0.00619668,
,334,1606844120,957761543, ,0.77581,-1.79506,-1.64477,0.285052,1.711,-0.587617, ,0.0231718,0.089711,0.038716,-0.090043,-0.02609,0.00662328,
,335,1606844120,973664319, ,0.776178,-1.79363,-1.64415,0.283621,1.71059,-0.587511, ,0.0261554,0.0913676,0.0418268,-0.087815,-0.028064,0.00449151,
,336,1606844120,989567095, ,0.776594,-1.79218,-1.64349,0.282224,1.71014,-0.58744, ,0.0217203,0.0867117,0.0437367,-0.0877275,-0.0256782,0.00673004,
,337,1606844121,5469871, ,0.77694,-1.7908,-1.64279,0.280829,1.70973,-0.587333, ,0.0253509,0.089326,0.0411977,-0.0915645,-0.0274535,0.00526619,
,338,1606844121,21372647, ,0.777343,-1.78938,-1.64214,0.279373,1.70929,-0.587249, ,0.0274622,0.0898091,0.0432784,-0.0912138,-0.0262459,0.00745468,
,339,1606844121,37275423, ,0.777779,-1.78795,-1.64145,0.277922,1.70888,-0.587131, ,0.0233871,0.0882446,0.0405886,-0.0916432,-0.0275018,0.00553143,
,340,1606844121,53178199, ,0.778151,-1.78655,-1.6408,0.276465,1.70844,-0.587043, ,0.0223336,0.0926998,0.0452725,-0.0983494,-0.0289124,0.00431268,
,341,1606844121,69080975, ,0.778507,-1.78508,-1.64008,0.274901,1.70798,-0.586974, ,0.0244574,0.0851866,0.0467029,-0.091491,-0.0241638,0.00436343,
,342,1606844121,84983751, ,0.778895,-1.78372,-1.63934,0.273446,1.7076,-0.586905, ,0.0230784,0.0897189,0.047411,-0.102766,-0.0248338,0.00744925,
,343,1606844121,100886527, ,0.779262,-1.78229,-1.63859,0.271812,1.7072,-0.586786, ,0.0244341,0.0901805,0.0443464,-0.0936572,-0.0271643,0.00747458,
,344,1606844121,116789303, ,0.779651,-1.78086,-1.63788,0.270322,1.70677,-0.586667, ,0.0223546,0.0899016,0.0486096,-0.0958945,-0.0266706,0.00567713,
,345,1606844121,132692079, ,0.780007,-1.77943,-1.63711,0.268797,1.70634,-0.586577, ,0.0207241,0.0889005,0.045818,-0.101128,-0.0252821,0.00313571,
,346,1606844121,148594855, ,0.780336,-1.77802,-1.63638,0.267189,1.70594,-0.586527, ,0.022717,0.0896317,0.0480298,-0.0964653,-0.0239491,0.00835017,
,347,1606844121,164497631, ,0.780697,-1.77659,-1.63561,0.265655,1.70556,-0.586394, ,0.0244313,0.0912854,0.0500285,-0.10064,-0.0264795,0.00438868,
,348,1606844121,180400407, ,0.781086,-1.77514,-1.63482,0.264054,1.70514,-0.586325, ,0.0211512,0.0911044,0.0513618,-0.102566,-0.0206225,0.00405699,
,349,1606844121,196303183, ,0.781422,-1.77369,-1.634,0.262423,1.70481,-0.58626, ,0.0225421,0.0858504,0.050532,-0.100989,-0.0251312,0.00559423,
,350,1606844121,212205959, ,0.781781,-1.77233,-1.6332,0.260817,1.70441,-0.586171, ,0.0220865,0.0894544,0.0506862,-0.105717,-0.0228578,0.00333457,
,351,1606844121,228108735, ,0.782132,-1.7709,-1.63239,0.259136,1.70405,-0.586118, ,0.019475,0.0936201,0.0556667,-0.103413,-0.0228419,0.00401228,
,352,1606844121,244011511, ,0.782442,-1.76941,-1.63151,0.257492,1.70369,-0.586054, ,0.0236485,0.0903504,0.0511433,-0.104242,-0.0223167,0.00548682,
,353,1606844121,259914287, ,0.782818,-1.76798,-1.63069,0.255834,1.70333,-0.585967, ,0.0239253,0.0904914,0.0517195,-0.104817,-0.0226246,0.00460475,
,354,1606844121,275817063, ,0.783198,-1.76654,-1.62987,0.254167,1.70297,-0.585894, ,0.0191534,0.090849,0.0556905,-0.104606,-0.0204976,0.00306401,
,355,1606844121,291719839, ,0.783503,-1.76509,-1.62899,0.252503,1.70264,-0.585845, ,0.0245951,0.0905399,0.0546769,-0.10585,-0.0211936,0.00400767,
,356,1606844121,307622615, ,0.783894,-1.76365,-1.62812,0.25082,1.70231,-0.585781, ,0.0189116,0.0915672,0.0570206,-0.103206,-0.0180465,0.00399288,
,357,1606844121,323525391, ,0.784195,-1.7622,-1.62721,0.249179,1.70202,-0.585718, ,0.0195968,0.0885461,0.055438,-0.103178,-0.0215802,0.00377003,
,358,1606844121,339428167, ,0.784506,-1.76079,-1.62633,0.247538,1.70168,-0.585658, ,0.0216399,0.0928875,0.0587132,-0.10571,-0.018964,0.0051551,
,359,1606844121,355330943, ,0.784851,-1.75931,-1.62539,0.245857,1.70138,-0.585576, ,0.0208403,0.0861196,0.0574439,-0.105948,-0.0181947,0.00362771,
,360,1606844121,371233719, ,0.785182,-1.75794,-1.62448,0.244172,1.70109,-0.585518, ,0.0212684,0.0961164,0.0591088,-0.101261,-0.0162666,0.00528429,
,361,1606844121,387136495, ,0.78552,-1.75641,-1.62354,0.242562,1.70083,-0.585434, ,0.0184883,0.0863467,0.0556213,-0.106153,-0.0167315,0.0062979,
,362,1606844121,403039271, ,0.785814,-1.75504,-1.62266,0.240874,1.70056,-0.585334, ,0.0177462,0.0918395,0.0592492,-0.102443,-0.0154805,0.00270957,
,363,1606844121,418942047, ,0.786096,-1.75358,-1.62171,0.239245,1.70032,-0.585291, ,0.0203868,0.0856292,0.060805,-0.0975273,-0.0124082,0.00752338,
,364,1606844121,434844823, ,0.786421,-1.75222,-1.62075,0.237694,1.70012,-0.585171, ,0.0175133,0.0867277,0.0594476,-0.103956,-0.0172679,0.00550005,
,365,1606844121,450747599, ,0.786699,-1.75084,-1.6198,0.23604,1.69984,-0.585084, ,0.0188325,0.08908,0.0616108,-0.100778,-0.0181859,0.00348795,
,366,1606844121,466650375, ,0.786999,-1.74942,-1.61882,0.234438,1.69955,-0.585028, ,0.0216453,0.0865229,0.0607513,-0.106281,-0.0169554,0.00684041,
,367,1606844121,482553151, ,0.787343,-1.74805,-1.61786,0.232748,1.69929,-0.58492, ,0.0187895,0.0834476,0.0603777,-0.10519,-0.0121033,0.00610499,
,368,1606844121,498455927, ,0.787642,-1.74672,-1.6169,0.231075,1.69909,-0.584822, ,0.0155801,0.0859271,0.0615698,-0.105681,-0.0159379,0.00731378,
,369,1606844121,514358703, ,0.787889,-1.74535,-1.61592,0.229394,1.69884,-0.584706, ,0.0186923,0.0862041,0.0625128,-0.10682,-0.0162729,0.00453407,
,370,1606844121,530261479, ,0.788187,-1.74398,-1.61492,0.227695,1.69858,-0.584634, ,0.0179678,0.0897364,0.0612745,-0.107408,-0.0158344,0.00481537,
,371,1606844121,546164255, ,0.788472,-1.74256,-1.61395,0.225987,1.69833,-0.584557, ,0.018625,0.0883074,0.0616513,-0.105823,-0.0147334,0.0063084,
,372,1606844121,562067031, ,0.788769,-1.74115,-1.61297,0.224304,1.69809,-0.584457, ,0.020178,0.0806528,0.0588431,-0.106024,-0.0135805,0.00450176,
,373,1606844121,577969807, ,0.789089,-1.73987,-1.61203,0.222618,1.69788,-0.584386, ,0.0179923,0.0843154,0.0593137,-0.105421,-0.0149921,0.00679748,
,374,1606844121,593872583, ,0.789376,-1.73853,-1.61109,0.220942,1.69764,-0.584277, ,0.0170872,0.0874268,0.0574387,-0.104017,-0.0150052,0.00668416,
,375,1606844121,609775359, ,0.789647,-1.73714,-1.61018,0.219288,1.6974,-0.584171, ,0.0171453,0.0824676,0.0563387,-0.100066,-0.0131886,0.00446815,
,376,1606844121,625678135, ,0.78992,-1.73583,-1.60928,0.217696,1.69719,-0.5841, ,0.0204201,0.0881654,0.0543835,-0.0980194,-0.0168503,0.00913866,
,377,1606844121,641580911, ,0.790245,-1.73442,-1.60841,0.216138,1.69692,-0.583955, ,0.0169531,0.0792052,0.0562124,-0.101567,-0.0144061,0.00670383,
,378,1606844121,657483687, ,0.790514,-1.73316,-1.60752,0.214522,1.69669,-0.583848, ,0.019473,0.0862716,0.0559546,-0.100786,-0.0139,0.00668017,
,379,1606844121,673386463, ,0.790824,-1.73179,-1.60663,0.21292,1.69647,-0.583742, ,0.0163392,0.0807336,0.0548787,-0.0988031,-0.0117323,0.00657607,
,380,1606844121,689289239, ,0.791084,-1.73051,-1.60576,0.211348,1.69629,-0.583637, ,0.020832,0.0779401,0.0567571,-0.0946925,-0.0178744,0.00426016,
,381,1606844121,705192015, ,0.791415,-1.72927,-1.60486,0.209843,1.696,-0.58357, ,0.0165193,0.082552,0.0535853,-0.0997785,-0.0161883,0.00378527,
,382,1606844121,721094791, ,0.791678,-1.72796,-1.604,0.208256,1.69575,-0.583509, ,0.0196066,0.0815976,0.0554455,-0.0934819,-0.0110137,0.0112012,
,383,1606844121,736997567, ,0.79199,-1.72666,-1.60312,0.206769,1.69557,-0.583331, ,0.017586,0.0782841,0.0548667,-0.0928335,-0.0139627,0.00341239,
,384,1606844121,752900343, ,0.792269,-1.72541,-1.60225,0.205293,1.69535,-0.583277, ,0.0181317,0.0791749,0.0538218,-0.100671,-0.0143356,0.00571847,
,385,1606844121,768803119, ,0.792558,-1.72415,-1.60139,0.203692,1.69512,-0.583186, ,0.0177641,0.0770629,0.0552187,-0.0981426,-0.0119068,0.00763416,
,386,1606844121,784705895, ,0.79284,-1.72293,-1.60051,0.202131,1.69493,-0.583065, ,0.0179869,0.0780925,0.0570973,-0.0965408,-0.0140561,0.00787664,
,387,1606844121,800608671, ,0.793126,-1.72169,-1.59961,0.200596,1.69471,-0.582939, ,0.0178208,0.082502,0.0532408,-0.102653,-0.00990749,0.00606608,
,388,1606844121,816511447, ,0.79341,-1.72038,-1.59876,0.198963,1.69455,-0.582843, ,0.0154425,0.077453,0.0550991,-0.0979874,-0.011079,0.0040055,
,389,1606844121,832414223, ,0.793655,-1.71914,-1.59788,0.197405,1.69437,-0.582779, ,0.015903,0.0802334,0.053956,-0.101109,-0.0136924,0.00797417,
,390,1606844121,848316999, ,0.793908,-1.71787,-1.59703,0.195797,1.69416,-0.582652, ,0.0148428,0.0777007,0.0576197,-0.098349,-0.0140894,0.00499707,
,391,1606844121,864219775, ,0.794144,-1.71663,-1.59611,0.194233,1.69393,-0.582573, ,0.0157272,0.0756658,0.053646,-0.0967287,-0.0133309,0.00688353,
,392,1606844121,880122551, ,0.794394,-1.71543,-1.59526,0.192695,1.69372,-0.582464, ,0.0145701,0.0804442,0.055881,-0.100854,-0.0132726,0.00854151,
,393,1606844121,896025327, ,0.794626,-1.71415,-1.59437,0.191091,1.69351,-0.582328, ,0.0150609,0.0785181,0.0543038,-0.096005,-0.0138398,0.00611134,
,394,1606844121,911928103, ,0.794865,-1.7129,-1.5935,0.189564,1.69329,-0.582231, ,0.0148518,0.0780604,0.055163,-0.096217,-0.00977629,0.00721994,
,395,1606844121,927830879, ,0.795102,-1.71166,-1.59263,0.188034,1.69313,-0.582116, ,0.0120715,0.0783216,0.0517514,-0.0901167,-0.0105181,0.00757724,
,396,1606844121,943733655, ,0.795294,-1.71041,-1.5918,0.186601,1.69297,-0.581995, ,0.0112207,0.0781582,0.0538649,-0.093702,-0.00902794,0.00802218,
,397,1606844121,959636431, ,0.795472,-1.70917,-1.59095,0.185111,1.69282,-0.581868, ,0.010458,0.082023,0.05063,-0.087328,-0.0105214,0.00704318,
,398,1606844121,975539207, ,0.795638,-1.70787,-1.59014,0.183722,1.69265,-0.581756, ,0.0119121,0.0763195,0.0551518,-0.0930167,-0.00859714,0.0122536,
,399,1606844121,991441983, ,0.795828,-1.70665,-1.58927,0.182243,1.69252,-0.581561, ,0.00757559,0.0745073,0.0530869,-0.0921202,-0.00644598,0.00753448,
,400,1606844122,7344759, ,0.795948,-1.70547,-1.58842,0.180778,1.69242,-0.581441, ,0.00896633,0.0738188,0.0549952,-0.0859485,-0.00800778,0.00681842,
,401,1606844122,23247535, ,0.796091,-1.70429,-1.58755,0.179411,1.69229,-0.581332, ,0.00935808,0.0788575,0.0549281,-0.0916469,-0.00314093,0.00956133,
,402,1606844122,39150311, ,0.79624,-1.70304,-1.58667,0.177954,1.69224,-0.58118, ,0.00680432,0.0742473,0.0548414,-0.085102,-0.0036593,0.00811808,
,403,1606844122,55053087, ,0.796348,-1.70186,-1.5858,0.1766,1.69218,-0.581051, ,0.00548116,0.0754731,0.0533259,-0.0893995,-0.00861972,0.00702281,
,404,1606844122,70955863, ,0.796435,-1.70066,-1.58495,0.175179,1.69204,-0.58094, ,0.00697508,0.0718845,0.053976,-0.0806411,-0.00317876,0.0126273,
,405,1606844122,86858639, ,0.796546,-1.69952,-1.58409,0.173896,1.69199,-0.580739, ,0.00363861,0.0704898,0.0534201,-0.0878102,0.0011269,0.00712966,
,406,1606844122,102761415, ,0.796604,-1.69839,-1.58324,0.1725,1.69201,-0.580625, ,0.00299091,0.067917,0.0541882,-0.0852543,-2.338e-05,0.0107154,
,407,1606844122,118664191, ,0.796651,-1.69731,-1.58238,0.171144,1.69201,-0.580455, ,0.000609351,0.0718834,0.0525265,-0.0881075,-0.000690173,0.00924242,
,408,1606844122,134566967, ,0.796661,-1.69617,-1.58155,0.169743,1.692,-0.580308, ,0.00262626,0.0681254,0.0510003,-0.0809608,3.59409e-05,0.00822413,
,409,1606844122,150469743, ,0.796703,-1.69509,-1.58074,0.168455,1.692,-0.580177, ,0.000906652,0.0666074,0.0487218,-0.0852498,0.00123452,0.0112248,
,410,1606844122,166372519, ,0.796717,-1.69403,-1.57996,0.1671,1.69202,-0.579999, ,-5.35171e-05,0.0719268,0.0462365,-0.0813428,-0.000562657,0.0112956,
,411,1606844122,182275295, ,0.796716,-1.69289,-1.57923,0.165806,1.69201,-0.579819, ,-0.000771769,0.064914,0.048101,-0.083036,0.00184766,0.00673359,
,412,1606844122,198178071, ,0.796704,-1.69185,-1.57846,0.164486,1.69204,-0.579712, ,2.32376e-05,0.064382,0.0480855,-0.0815247,-0.00249435,0.010519,
,413,1606844122,214080847, ,0.796704,-1.69083,-1.5777,0.163189,1.692,-0.579545, ,-0.00136138,0.0635448,0.0463476,-0.0805607,0.00247899,0.00826228,
,414,1606844122,229983623, ,0.796683,-1.68982,-1.57696,0.161908,1.69204,-0.579413, ,0.000304473,0.061938,0.0449041,-0.078582,0.000618332,0.0133267,
,415,1606844122,245886399, ,0.796688,-1.68883,-1.57625,0.160658,1.69205,-0.579201, ,0.00169196,0.0663213,0.0430436,-0.0778185,0.00455009,0.010823,
,416,1606844122,261789175, ,0.796715,-1.68778,-1.57556,0.159421,1.69212,-0.579029, ,-0.000324289,0.0657158,0.0449591,-0.0800084,-0.00105797,0.00911792,
,417,1606844122,277691951, ,0.796709,-1.68673,-1.57485,0.158149,1.6921,-0.578884, ,-0.00419443,0.0583768,0.0438367,-0.0762162,0.00154905,0.0077746,
,418,1606844122,293594727, ,0.796643,-1.68581,-1.57415,0.156936,1.69213,-0.578761, ,-0.000771576,0.0618486,0.0424133,-0.0753984,0.00235646,0.0140806,
,419,1606844122,309497503, ,0.79663,-1.68482,-1.57347,0.155737,1.69217,-0.578537, ,-0.000801162,0.0607084,0.0426385,-0.0770702,0.00357176,0.0110273,
,420,1606844122,325400279, ,0.796618,-1.68386,-1.5728,0.154512,1.69222,-0.578361, ,-0.00231141,0.0607885,0.041067,-0.0743683,0.00325983,0.0118624,
,421,1606844122,341303055, ,0.796581,-1.68289,-1.57214,0.153329,1.69228,-0.578173, ,-0.0028481,0.056404,0.0398258,-0.0725012,0.0084656,0.00624091,
,422,1606844122,357205831, ,0.796536,-1.68199,-1.57151,0.152176,1.69241,-0.578074, ,-0.00184121,0.0632894,0.0404152,-0.0739346,0.00602023,0.0128817,
,423,1606844122,373108607, ,0.796506,-1.68099,-1.57087,0.151,1.69251,-0.577869, ,-0.00876637,0.0562702,0.0400583,-0.0712757,0.00440437,0.00745516,
,424,1606844122,389011383, ,0.796367,-1.68009,-1.57023,0.149867,1.69258,-0.57775, ,-0.00633391,0.061523,0.0384079,-0.0716518,0.00612209,0.010936,
,425,1606844122,404914159, ,0.796266,-1.67911,-1.56962,0.148727,1.69267,-0.577576, ,-0.00656938,0.0573826,0.0403322,-0.0685225,0.00988266,0.0129341,
,426,1606844122,420816935, ,0.796162,-1.6782,-1.56898,0.147638,1.69283,-0.577371, ,-0.00436334,0.0561668,0.0382277,-0.0727711,0.00819724,0.00851559,
,427,1606844122,436719711, ,0.796092,-1.67731,-1.56837,0.146481,1.69296,-0.577235, ,-0.0084704,0.0575612,0.0350384,-0.0648305,0.0118472,0.00958247,
,428,1606844122,452622487, ,0.795958,-1.67639,-1.56781,0.14545,1.69315,-0.577083, ,-0.00863756,0.0555258,0.0371383,-0.0681343,0.00971608,0.0120515,
,429,1606844122,468525263, ,0.79582,-1.67551,-1.56722,0.144366,1.6933,-0.576891, ,-0.0096664,0.0553303,0.0356998,-0.0652273,0.0125895,0.0112273,
,430,1606844122,484428039, ,0.795667,-1.67463,-1.56665,0.143329,1.6935,-0.576713, ,-0.00984676,0.0556525,0.0353117,-0.0645158,0.0101122,0.0119262,
,431,1606844122,500330815, ,0.79551,-1.67374,-1.56609,0.142303,1.69366,-0.576523, ,-0.0138364,0.0511646,0.0335863,-0.071554,0.0144414,0.0113739,
,432,1606844122,516233591, ,0.79529,-1.67293,-1.56556,0.141165,1.69389,-0.576342, ,-0.0106572,0.0540586,0.0349755,-0.0612417,0.0130073,0.00741522,
,433,1606844122,532136367, ,0.79512,-1.67207,-1.565,0.140191,1.6941,-0.576224, ,-0.0128832,0.0526055,0.032467,-0.0663125,0.0139609,0.0152797,
,434,1606844122,548039143, ,0.794916,-1.67123,-1.56449,0.139136,1.69432,-0.575981, ,-0.0141746,0.053105,0.03576,-0.0620595,0.0153015,0.0111253,
,435,1606844122,563941919, ,0.79469,-1.67039,-1.56392,0.138149,1.69457,-0.575804, ,-0.0124862,0.0489424,0.0308969,-0.0617942,0.0178895,0.0111793,
,436,1606844122,579844695, ,0.794492,-1.66961,-1.56343,0.137167,1.69485,-0.575626, ,-0.0156203,0.0486319,0.0352569,-0.0635262,0.0173665,0.0139959,
,437,1606844122,595747471, ,0.794243,-1.66884,-1.56287,0.136156,1.69513,-0.575404, ,-0.0181836,0.0501133,0.0313463,-0.0604327,0.019486,0.0105742,
,438,1606844122,611650247, ,0.793954,-1.66804,-1.56237,0.135195,1.69544,-0.575236, ,-0.0167515,0.0470139,0.0289231,-0.0598863,0.0201692,0.00932727,
,439,1606844122,627553023, ,0.793688,-1.66729,-1.56191,0.134243,1.69576,-0.575087, ,-0.0182455,0.0465131,0.0280421,-0.0595735,0.0209938,0.0113563,
,440,1606844122,643455799, ,0.793398,-1.66655,-1.56146,0.133296,1.69609,-0.574907, ,-0.0172438,0.0473163,0.0291633,-0.0617764,0.0204294,0.00997924,
,441,1606844122,659358575, ,0.793123,-1.6658,-1.561,0.132313,1.69642,-0.574748, ,-0.0201169,0.0435248,0.028124,-0.0585622,0.0244365,0.0109125,
,442,1606844122,675261351, ,0.792803,-1.66511,-1.56055,0.131382,1.69681,-0.574574, ,-0.0193245,0.0458023,0.028013,-0.0534595,0.0199829,0.0145219,
,443,1606844122,691164127, ,0.792496,-1.66438,-1.5601,0.130532,1.69712,-0.574344, ,-0.0209594,0.0405964,0.0256235,-0.0581656,0.02512,0.00958374,
,444,1606844122,707066903, ,0.792163,-1.66373,-1.5597,0.129607,1.69752,-0.574191, ,-0.0268091,0.0548786,0.0327343,-0.0702444,0.0257221,0.0177327,
,445,1606844122,722969679, ,0.791736,-1.66286,-1.55918,0.12849,1.69793,-0.573909, ,-0.0230819,0.0400035,0.0279388,-0.0537093,0.0254845,0.00747498,
,446,1606844122,738872455, ,0.791369,-1.66223,-1.55873,0.127636,1.69834,-0.57379, ,-0.02313,0.0436192,0.0249996,-0.0566414,0.0269468,0.00909568,
,447,1606844122,754775231, ,0.791002,-1.66153,-1.55834,0.126735,1.69877,-0.573646, ,-0.0247365,0.0394165,0.0269075,-0.0521779,0.0269604,0.0125629,
,448,1606844122,770678007, ,0.790608,-1.66091,-1.55791,0.125905,1.69919,-0.573446, ,-0.0254837,0.0368262,0.0268698,-0.0502082,0.0255324,0.0104366,
,449,1606844122,786580783, ,0.790203,-1.66032,-1.55748,0.125107,1.6996,-0.57328, ,-0.0254502,0.0387238,0.0281095,-0.0495134,0.0306756,0.0143645,
,450,1606844122,802483559, ,0.789798,-1.6597,-1.55703,0.124319,1.70009,-0.573051, ,-0.0252635,0.0401525,0.027992,-0.0488385,0.0254502,0.00947702,
,451,1606844122,818386335, ,0.789396,-1.65907,-1.55659,0.123543,1.70049,-0.572901, ,-0.0270706,0.0376764,0.0261472,-0.0507391,0.0306812,0.00985052,
,452,1606844122,834289111, ,0.788966,-1.65847,-1.55617,0.122736,1.70098,-0.572744, ,-0.028291,0.0376405,0.0283205,-0.045374,0.0302135,0.0112762,
,453,1606844122,850191887, ,0.788516,-1.65787,-1.55572,0.122014,1.70146,-0.572565, ,-0.0301784,0.0343042,0.0242249,-0.0520926,0.0297184,0.0117039,
,454,1606844122,866094663, ,0.788036,-1.65732,-1.55534,0.121186,1.70193,-0.572379, ,-0.0301346,0.0340942,0.0275085,-0.0465001,0.0311664,0.00903218,
,455,1606844122,881997439, ,0.787557,-1.65678,-1.5549,0.120446,1.70243,-0.572235, ,-0.0302396,0.0345843,0.0269694,-0.0463632,0.0348726,0.00989365,
,456,1606844122,897900215, ,0.787076,-1.65623,-1.55447,0.119709,1.70298,-0.572078, ,-0.0323248,0.0332201,0.0254676,-0.0485952,0.0306895,0.0118771,
,457,1606844122,913802991, ,0.786562,-1.6557,-1.55406,0.118936,1.70347,-0.571889, ,-0.030947,0.0310464,0.025619,-0.0442735,0.0321261,0.00787465,
,458,1606844122,929705767, ,0.78607,-1.65521,-1.55366,0.118232,1.70398,-0.571764, ,-0.0324578,0.0296289,0.0276398,-0.0401425,0.0312971,0.0150366,
,459,1606844122,945608543, ,0.785554,-1.65474,-1.55322,0.117594,1.70448,-0.571524, ,-0.0315717,0.0337749,0.0275527,-0.0475041,0.0350654,0.0106233,
,460,1606844122,961511319, ,0.785051,-1.6542,-1.55278,0.116838,1.70504,-0.571355, ,-0.0346248,0.0288403,0.0252731,-0.0431224,0.0319029,0.0115208,
,461,1606844122,977414095, ,0.784501,-1.65374,-1.55238,0.116152,1.70555,-0.571172, ,-0.0369805,0.0283438,0.0284419,-0.0414072,0.0355282,0.0108041,
,462,1606844122,993316871, ,0.783913,-1.65329,-1.55193,0.115494,1.70611,-0.571, ,-0.0351992,0.0273123,0.0247159,-0.0396271,0.0351839,0.00950021,
,463,1606844123,9219647, ,0.783353,-1.65286,-1.55153,0.114864,1.70667,-0.570849, ,-0.0368045,0.0275184,0.0302197,-0.0392516,0.0370241,0.0129874,
,464,1606844123,25122423, ,0.782768,-1.65242,-1.55105,0.11424,1.70726,-0.570643, ,-0.0361798,0.0309003,0.0254281,-0.037625,0.0347156,0.0111999,
,465,1606844123,41025199, ,0.782192,-1.65193,-1.55065,0.113641,1.70781,-0.570465, ,-0.035897,0.0230736,0.029891,-0.0437597,0.0318106,0.0110279,
,466,1606844123,56927975, ,0.781621,-1.65156,-1.55017,0.112945,1.70832,-0.570289, ,-0.0397327,0.0255286,0.0291273,-0.0363585,0.0381193,0.00860476,
,467,1606844123,72830751, ,0.78099,-1.65115,-1.54971,0.112367,1.70892,-0.570152, ,-0.0374529,0.0258619,0.0264202,-0.0342648,0.034904,0.0141255,
,468,1606844123,88733527, ,0.780394,-1.65074,-1.54929,0.111822,1.70948,-0.569928, ,-0.0395842,0.0240796,0.0298765,-0.0391326,0.0375955,0.0111714,
,469,1606844123,104636303, ,0.779765,-1.65036,-1.54881,0.1112,1.71008,-0.56975, ,-0.0412725,0.0196938,0.0265086,-0.0360248,0.0357357,0.0110586,
,470,1606844123,120539079, ,0.779108,-1.65005,-1.54839,0.110627,1.71064,-0.569574, ,-0.0398251,0.0259349,0.0282283,-0.0356162,0.0382425,0.00982779,
,471,1606844123,136441855, ,0.778475,-1.64963,-1.54794,0.110061,1.71125,-0.569418, ,-0.0380989,0.0210879,0.0287352,-0.0356798,0.035735,0.0135161,
,472,1606844123,152344631, ,0.777869,-1.6493,-1.54749,0.109493,1.71182,-0.569203, ,-0.0399987,0.0199562,0.0295921,-0.0358183,0.0446519,0.0125365,
,473,1606844123,168247407, ,0.777233,-1.64898,-1.54702,0.108924,1.71253,-0.569004, ,-0.0425958,0.0190783,0.0282161,-0.0327403,0.0343562,0.0106216,
,474,1606844123,184150183, ,0.776555,-1.64868,-1.54657,0.108403,1.71308,-0.568835, ,-0.0388503,0.0163687,0.0300288,-0.0381127,0.0364917,0.0126413,
,475,1606844123,200052959, ,0.775938,-1.64842,-1.54609,0.107797,1.71366,-0.568634, ,-0.0432137,0.0216326,0.0283401,-0.0335247,0.0391934,0.0137009,
,476,1606844123,215955735, ,0.77525,-1.64807,-1.54564,0.107264,1.71428,-0.568416, ,-0.0376135,0.0162842,0.0290603,-0.0347567,0.0347905,0.0128068,
,477,1606844123,231858511, ,0.774652,-1.64781,-1.54518,0.106711,1.71483,-0.568212, ,-0.0431497,0.0201335,0.0297852,-0.0317982,0.0367435,0.0108882,
,478,1606844123,247761287, ,0.773966,-1.64749,-1.5447,0.106205,1.71542,-0.568039, ,-0.0389742,0.0122916,0.0312341,-0.0358642,0.0355115,0.0127997,
,479,1606844123,263664063, ,0.773346,-1.6473,-1.54421,0.105635,1.71598,-0.567836, ,-0.0422978,0.0136828,0.0279062,-0.0358622,0.0388752,0.0100682,
,480,1606844123,279566839, ,0.772674,-1.64708,-1.54376,0.105065,1.7166,-0.567675, ,-0.0414615,0.0183886,0.0310463,-0.0334937,0.0372305,0.0154836,
,481,1606844123,295469615, ,0.772014,-1.64679,-1.54327,0.104532,1.71719,-0.567429, ,-0.04123,0.0148842,0.027436,-0.0353723,0.0385966,0.00735348,
,482,1606844123,311372391, ,0.771359,-1.64655,-1.54283,0.103969,1.71781,-0.567312, ,-0.0385817,0.0117803,0.0310171,-0.0359448,0.0363676,0.0133238,
,483,1606844123,327275167, ,0.770745,-1.64637,-1.54234,0.103398,1.71839,-0.5671, ,-0.0412719,0.011244,0.0286793,-0.0315532,0.0317718,0.0123206,
,484,1606844123,343177943, ,0.770089,-1.64619,-1.54188,0.102896,1.71889,-0.566904, ,-0.0410902,0.0131106,0.0287133,-0.0336704,0.0380566,0.0112572,
,485,1606844123,359080719, ,0.769435,-1.64598,-1.54143,0.102361,1.7195,-0.566725, ,-0.0379228,0.00930946,0.0275482,-0.0343565,0.0343242,0.00744706,
,486,1606844123,374983495, ,0.768832,-1.64583,-1.54099,0.101814,1.72004,-0.566607, ,-0.0405103,0.0100036,0.0280864,-0.0374238,0.0337637,0.0127283,
,487,1606844123,390886271, ,0.768188,-1.64567,-1.54054,0.101219,1.72058,-0.566405, ,-0.0387267,0.00990338,0.0299788,-0.0323839,0.0381145,0.00891264,
,488,1606844123,406789047, ,0.767572,-1.64551,-1.54006,0.100704,1.72118,-0.566263, ,-0.0387858,0.0109014,0.0262026,-0.0350631,0.0323857,0.0143185,
,489,1606844123,422691823, ,0.766955,-1.64534,-1.53965,0.100147,1.7217,-0.566035, ,-0.0389379,0.00797928,0.0298515,-0.0327363,0.0331338,0.00664359,
,490,1606844123,438594599, ,0.766336,-1.64521,-1.53917,0.0996259,1.72223,-0.565929, ,-0.0391281,0.00910314,0.0306866,-0.0333918,0.0375839,0.00973665,
,491,1606844123,454497375, ,0.765714,-1.64507,-1.53869,0.0990949,1.72282,-0.565775, ,-0.0387279,0.00856758,0.0318139,-0.0361944,0.0331789,0.0142012,
,492,1606844123,470400151, ,0.765098,-1.64493,-1.53818,0.0985193,1.72335,-0.565549, ,-0.038624,0.0096023,0.0321392,-0.0339454,0.0359328,0.00603713,
,493,1606844123,486302927, ,0.764484,-1.64478,-1.53767,0.0979795,1.72392,-0.565453, ,-0.0370658,0.00891387,0.0331835,-0.0341658,0.0379098,0.0088608,
,494,1606844123,502205703, ,0.763894,-1.64464,-1.53714,0.0974361,1.72453,-0.565312, ,-0.0403895,0.0061839,0.0313283,-0.0329722,0.0442254,0.0137223,
,495,1606844123,518108479, ,0.763252,-1.64454,-1.53664,0.0969118,1.72523,-0.565094, ,-0.040723,0.00870389,0.0330418,-0.0309722,0.0360584,0.0135913,
,496,1606844123,534011255, ,0.762604,-1.6444,-1.53612,0.0964193,1.7258,-0.564878, ,-0.0413051,0.00916738,0.0344194,-0.0339962,0.0392777,0.00871312,
,497,1606844123,549914031, ,0.761947,-1.64425,-1.53557,0.0958786,1.72643,-0.564739, ,-0.0446048,0.00517466,0.0362818,-0.0347781,0.0413697,0.00951251,
,498,1606844123,565816807, ,0.761238,-1.64417,-1.53499,0.0953256,1.72709,-0.564588, ,-0.0399579,0.00573859,0.0324604,-0.0321312,0.044013,0.0121335,
,499,1606844123,581719583, ,0.760603,-1.64408,-1.53448,0.0948146,1.72779,-0.564395, ,-0.042617,0.00667872,0.0366796,-0.033009,0.0411502,0.00735643,
,500,1606844123,597622359, ,0.759925,-1.64398,-1.53389,0.0942896,1.72844,-0.564278, ,-0.0413946,0.00581147,0.0349093,-0.0365826,0.0423822,0.00974763,
,501,1606844123,613525135, ,0.759267,-1.64388,-1.53334,0.0937079,1.72911,-0.564123, ,-0.0444232,0.00639304,0.0365068,-0.0325322,0.0437012,0.0148416,
,502,1606844123,629427911, ,0.75856,-1.64378,-1.53276,0.0931905,1.72981,-0.563887, ,-0.0437171,0.00472472,0.036966,-0.0335145,0.0447884,0.0106955,
,503,1606844123,645330687, ,0.757865,-1.64371,-1.53217,0.0926576,1.73052,-0.563717, ,-0.0482148,-0.000560277,0.0403722,-0.033564,0.0433292,0.00921408,
,504,1606844123,661233463, ,0.757098,-1.64371,-1.53153,0.0921238,1.73121,-0.56357, ,-0.0472192,0.00602815,0.0383661,-0.0336604,0.0476464,0.0134214,
,505,1606844123,677136239, ,0.756347,-1.64362,-1.53092,0.0915885,1.73197,-0.563357, ,-0.0448251,-0.00234138,0.0395944,-0.0369611,0.045263,0.00891086,
,506,1606844123,693039015, ,0.755635,-1.64366,-1.53029,0.0910007,1.73269,-0.563215, ,-0.0491868,0.00318645,0.0421769,-0.0353339,0.0501951,0.0125779,
,507,1606844123,708941791, ,0.754852,-1.64361,-1.52962,0.0904388,1.73349,-0.563015, ,-0.0469653,-0.00733579,0.0407284,-0.0393306,0.0468865,0.0107183,
,508,1606844123,724844567, ,0.754105,-1.64372,-1.52897,0.0898133,1.73423,-0.562844, ,-0.0482904,0.00159563,0.0404337,-0.0347256,0.0506813,0.0123461,
,509,1606844123,740747343, ,0.753337,-1.6437,-1.52833,0.0892611,1.73504,-0.562648, ,-0.0524618,0.000729861,0.0459657,-0.0386255,0.0498827,0.00953914,
,510,1606844123,756650119, ,0.752503,-1.64369,-1.5276,0.0886469,1.73583,-0.562496, ,-0.0503484,-0.00360966,0.0423807,-0.0416052,0.051784,0.00955984,
,511,1606844123,772552895, ,0.751703,-1.64374,-1.52692,0.0879852,1.73665,-0.562344, ,-0.0510964,-0.00306134,0.0445113,-0.039411,0.0482364,0.0126099,
,512,1606844123,788455671, ,0.75089,-1.64379,-1.52621,0.0873585,1.73742,-0.562144, ,-0.0535984,-0.00568086,0.0423944,-0.0403714,0.0556377,0.00920889,
,513,1606844123,804358447, ,0.750038,-1.64388,-1.52554,0.0867165,1.73831,-0.561997, ,-0.056074,-0.000105133,0.0490883,-0.040994,0.0520331,0.010237,
,514,1606844123,820261223, ,0.749146,-1.64388,-1.52476,0.0860645,1.73913,-0.561835, ,-0.0526296,-0.00896109,0.0443762,-0.0372741,0.056058,0.0121847,
,515,1606844123,836163999, ,0.748309,-1.64403,-1.52405,0.0854718,1.74003,-0.561641, ,-0.0551678,-0.00539593,0.0495561,-0.0455795,0.0559121,0.00873572,
,516,1606844123,852066775, ,0.747432,-1.64411,-1.52327,0.0847469,1.74091,-0.561502, ,-0.0559152,-0.00675742,0.0478341,-0.0434774,0.052395,0.0109559,
,517,1606844123,867969551, ,0.746542,-1.64422,-1.5225,0.0840555,1.74175,-0.561328, ,-0.0561176,-0.0083293,0.048145,-0.0416359,0.0585593,0.0118108,
,518,1606844123,883872327, ,0.74565,-1.64435,-1.52174,0.0833934,1.74268,-0.56114, ,-0.0603674,-0.00593796,0.0503799,-0.0411337,0.0565775,0.00973646,
,519,1606844123,899775103, ,0.74469,-1.64445,-1.52094,0.0827393,1.74358,-0.560985, ,-0.0575442,-0.00973861,0.0489788,-0.0415085,0.0605154,0.0110207,
,520,1606844123,915677879, ,0.743775,-1.6446,-1.52016,0.0820792,1.74454,-0.56081, ,-0.061417,-0.00581217,0.0530858,-0.0415356,0.0571262,0.00762838,
,521,1606844123,931580655, ,0.742798,-1.64469,-1.51931,0.0814186,1.74545,-0.560688, ,-0.0576584,-0.0105083,0.0550863,-0.0388103,0.0610453,0.0106152,
,522,1606844123,947483431, ,0.741881,-1.64486,-1.51844,0.0808014,1.74642,-0.56052, ,-0.0616037,-0.0100592,0.0511254,-0.0434852,0.0619927,0.00811301,
,523,1606844123,963386207, ,0.740902,-1.64502,-1.51763,0.0801099,1.74741,-0.560391, ,-0.0636951,-0.0100285,0.0556348,-0.0442574,0.0605637,0.0111645,
,524,1606844123,979288983, ,0.739889,-1.64518,-1.51674,0.0794061,1.74837,-0.560213, ,-0.0622554,-0.0113888,0.0555545,-0.0457818,0.0643809,0.00909838,
,525,1606844123,995191759, ,0.738899,-1.64536,-1.51586,0.078678,1.74939,-0.560068, ,-0.0645791,-0.0117099,0.0537057,-0.043323,0.0642936,0.0126104,
,526,1606844124,11094535, ,0.737872,-1.64555,-1.515,0.0779891,1.75042,-0.559868, ,-0.0633997,-0.0140515,0.0579719,-0.0451791,0.061841,0.00694,
,527,1606844124,26997311, ,0.736863,-1.64577,-1.51408,0.0772706,1.7514,-0.559757, ,-0.0648839,-0.0159151,0.0579579,-0.0468198,0.0599205,0.0116368,
,528,1606844124,42900087, ,0.735831,-1.64602,-1.51316,0.076526,1.75235,-0.559572, ,-0.0647844,-0.0157113,0.0579338,-0.0439846,0.0679651,0.00384075,
,529,1606844124,58802863, ,0.734801,-1.64627,-1.51224,0.0758266,1.75343,-0.559511, ,-0.066419,-0.0192033,0.0595738,-0.047385,0.0671402,0.0126338,
,530,1606844124,74705639, ,0.733745,-1.64658,-1.51129,0.075073,1.7545,-0.55931, ,-0.0674823,-0.0164024,0.0611698,-0.0442295,0.0614723,0.0104417,
,531,1606844124,90608415, ,0.732672,-1.64684,-1.51032,0.0743696,1.75548,-0.559144, ,-0.066852,-0.0191313,0.0589968,-0.0508453,0.0717126,0.0103002,
,532,1606844124,106511191, ,0.731609,-1.64714,-1.50938,0.073561,1.75662,-0.558981, ,-0.0682022,-0.0166294,0.0639261,-0.0483866,0.0629123,0.00973571,
,533,1606844124,122413967, ,0.730524,-1.64741,-1.50836,0.0727916,1.75762,-0.558826, ,-0.0713089,-0.0196348,0.0608281,-0.0449131,0.0748077,0.00873829,
,534,1606844124,138316743, ,0.72939,-1.64772,-1.5074,0.0720773,1.75881,-0.558687, ,-0.0699816,-0.0217123,0.0646648,-0.0448562,0.0719647,0.0109121,
,535,1606844124,154219519, ,0.728277,-1.64807,-1.50637,0.071364,1.75995,-0.558513, ,-0.069837,-0.0217949,0.0627393,-0.0482279,0.0681057,0.0092322,
,536,1606844124,170122295, ,0.727167,-1.64841,-1.50537,0.070597,1.76104,-0.558366, ,-0.0702859,-0.0215243,0.0637147,-0.0486298,0.0749996,0.0149934,
,537,1606844124,186025071, ,0.726049,-1.64875,-1.50436,0.0698237,1.76223,-0.558128, ,-0.0716407,-0.0228779,0.0651451,-0.0408402,0.0725123,0.00972701,
,538,1606844124,201927847, ,0.72491,-1.64912,-1.50332,0.0691742,1.76338,-0.557973, ,-0.0731763,-0.0265763,0.0661346,-0.0486056,0.0740727,0.0107108,
,539,1606844124,217830623, ,0.723746,-1.64954,-1.50227,0.0684012,1.76456,-0.557803, ,-0.0744115,-0.0241567,0.0681255,-0.0439251,0.0732915,0.011217,
,540,1606844124,233733399, ,0.722563,-1.64993,-1.50119,0.0677027,1.76573,-0.557625, ,-0.0735658,-0.0250163,0.0661728,-0.0449902,0.0730186,0.0107649,
,541,1606844124,249636175, ,0.721393,-1.65032,-1.50013,0.0669872,1.76689,-0.557453, ,-0.0773515,-0.0244098,0.0699207,-0.0459144,0.0792642,0.0105722,
,542,1606844124,265538951, ,0.720163,-1.65071,-1.49902,0.0662571,1.76815,-0.557285, ,-0.0772686,-0.0324583,0.067688,-0.0418285,0.0736308,0.0107402,
,543,1606844124,281441727, ,0.718934,-1.65123,-1.49794,0.0655919,1.76932,-0.557115, ,-0.0762881,-0.0250816,0.0724489,-0.0416762,0.0778282,0.0102175,
,544,1606844124,297344503, ,0.717721,-1.65163,-1.49679,0.0649291,1.77056,-0.556952, ,-0.0808674,-0.0291794,0.0695227,-0.0433668,0.0782971,0.0092042,
,545,1606844124,313247279, ,0.716435,-1.65209,-1.49569,0.0642395,1.7718,-0.556806, ,-0.0790415,-0.0294021,0.0690055,-0.0410161,0.0778631,0.00781461,
,546,1606844124,329150055, ,0.715178,-1.65256,-1.49459,0.0635872,1.77304,-0.556681, ,-0.0810083,-0.0300452,0.0724047,-0.0400996,0.079437,0.0134838,
,547,1606844124,345052831, ,0.713889,-1.65304,-1.49344,0.0629495,1.7743,-0.556467, ,-0.0797341,-0.0319291,0.0706316,-0.0443907,0.0780419,0.00791892,
,548,1606844124,360955607, ,0.712621,-1.65354,-1.49231,0.0622436,1.77554,-0.556341, ,-0.0804074,-0.0304551,0.0725621,-0.0363899,0.0851293,0.00948445,
,549,1606844124,376858383, ,0.711343,-1.65403,-1.49116,0.0616649,1.7769,-0.55619, ,-0.0829206,-0.0324945,0.0761586,-0.0369089,0.0811579,0.0139009,
,550,1606844124,392761159, ,0.710024,-1.65454,-1.48995,0.0610779,1.77819,-0.555969, ,-0.084851,-0.0330805,0.0757034,-0.0400409,0.0803743,0.0109045,
,551,1606844124,408663935, ,0.708675,-1.65507,-1.48875,0.0604412,1.77947,-0.555796, ,-0.0843065,-0.0328294,0.0766507,-0.0369455,0.0864828,0.0109082,
,552,1606844124,424566711, ,0.707334,-1.65559,-1.48753,0.0598536,1.78084,-0.555622, ,-0.0832605,-0.0381304,0.0771059,-0.0372891,0.0834452,0.0114515,
,553,1606844124,440469487, ,0.70601,-1.6562,-1.4863,0.0592606,1.78217,-0.55544, ,-0.0894701,-0.0337474,0.0748245,-0.0353652,0.0850106,0.0126259,
,554,1606844124,456372263, ,0.704587,-1.65674,-1.48511,0.0586982,1.78352,-0.555239, ,-0.0844711,-0.0366257,0.0792337,-0.0388081,0.0843621,0.00903185,
,555,1606844124,472275039, ,0.703244,-1.65732,-1.48385,0.0580811,1.78486,-0.555096, ,-0.0852281,-0.0384932,0.0784135,-0.0366436,0.0853961,0.011628,
,556,1606844124,488177815, ,0.701888,-1.65793,-1.4826,0.0574983,1.78622,-0.554911, ,-0.0888796,-0.0374752,0.0780419,-0.0369133,0.0881736,0.0120316,
,557,1606844124,504080591, ,0.700475,-1.65853,-1.48136,0.0569113,1.78762,-0.554719, ,-0.0881587,-0.0400523,0.081778,-0.0365157,0.0879978,0.0133274,
,558,1606844124,519983367, ,0.699073,-1.65916,-1.48006,0.0563306,1.78902,-0.554508, ,-0.0905677,-0.0398642,0.0787515,-0.0382758,0.0908128,0.0113729,
,559,1606844124,535886143, ,0.697633,-1.6598,-1.47881,0.0557219,1.79047,-0.554327, ,-0.0896575,-0.0408025,0.0811958,-0.0349607,0.0891353,0.0112451,
,560,1606844124,551788919, ,0.696207,-1.66045,-1.47752,0.0551659,1.79188,-0.554148, ,-0.0889774,-0.0418152,0.0837126,-0.0344629,0.09057,0.010422,
,561,1606844124,567691695, ,0.694792,-1.66111,-1.47619,0.0546179,1.79332,-0.553982, ,-0.0926819,-0.0437138,0.0805897,-0.0359561,0.0924205,0.0112599,
,562,1606844124,583594471, ,0.693318,-1.66181,-1.47491,0.0540461,1.79479,-0.553803, ,-0.0912005,-0.0418953,0.0837877,-0.0336431,0.0905659,0.0134491,
,563,1606844124,599497247, ,0.691868,-1.66247,-1.47357,0.0535111,1.79623,-0.553589, ,-0.0933336,-0.0448719,0.0837256,-0.0388062,0.0960665,0.0127608,
,564,1606844124,615400023, ,0.690383,-1.66319,-1.47224,0.0528939,1.79776,-0.553386, ,-0.0943988,-0.0476387,0.082892,-0.0351518,0.0929005,0.0150983,
,565,1606844124,631302799, ,0.688882,-1.66394,-1.47092,0.0523349,1.79924,-0.553146, ,-0.0938336,-0.0421989,0.0867875,-0.0331162,0.0934482,0.0105985,
,566,1606844124,647205575, ,0.68739,-1.66461,-1.46954,0.0518083,1.80072,-0.552978, ,-0.0956693,-0.0487156,0.086652,-0.0357343,0.0948684,0.0128297,
,567,1606844124,663108351, ,0.685868,-1.66539,-1.46817,0.05124,1.80223,-0.552774, ,-0.0976135,-0.0490645,0.0848693,-0.0345699,0.0955026,0.0131946,
,568,1606844124,679011127, ,0.684316,-1.66617,-1.46682,0.0506902,1.80375,-0.552564, ,-0.0953394,-0.0481632,0.0849631,-0.0328422,0.0959702,0.0119133,
,569,1606844124,694913903, ,0.6828,-1.66694,-1.46546,0.050168,1.80528,-0.552374, ,-0.0983998,-0.0476456,0.08845,-0.0337963,0.0994597,0.0120049,
,570,1606844124,710816679, ,0.681235,-1.66769,-1.46406,0.0496305,1.80686,-0.552183, ,-0.100184,-0.0484783,0.085695,-0.0361885,0.0978268,0.0154418,
,571,1606844124,726719455, ,0.679642,-1.66846,-1.4627,0.049055,1.80842,-0.551938, ,-0.0998884,-0.0548962,0.0854973,-0.0350472,0.100373,0.0116976,
,572,1606844124,742622231, ,0.678053,-1.66934,-1.46134,0.0484977,1.81001,-0.551752, ,-0.0997285,-0.0510926,0.0885526,-0.0360183,0.103924,0.0107539,
,573,1606844124,758525007, ,0.676467,-1.67015,-1.45993,0.0479249,1.81166,-0.551581, ,-0.104928,-0.0544687,0.0872167,-0.0382429,0.101113,0.0152969,
,574,1606844124,774427783, ,0.674799,-1.67102,-1.45854,0.0473167,1.81327,-0.551337, ,-0.105415,-0.051193,0.0937966,-0.033307,0.101389,0.0125837,
,575,1606844124,790330559, ,0.673122,-1.67183,-1.45705,0.046787,1.81488,-0.551137, ,-0.100918,-0.051886,0.0868271,-0.0380837,0.103621,0.012901,
,576,1606844124,806233335, ,0.671518,-1.67266,-1.45567,0.0461814,1.81653,-0.550932, ,-0.104319,-0.0549423,0.0929801,-0.037221,0.100962,0.0150496,
,577,1606844124,822136111, ,0.669859,-1.67353,-1.45419,0.0455895,1.81814,-0.550693, ,-0.102771,-0.0574705,0.0909415,-0.0332713,0.103911,0.0147743,
,578,1606844124,838038887, ,0.668224,-1.67444,-1.45274,0.0450604,1.81979,-0.550458, ,-0.107518,-0.0532937,0.0923559,-0.0395176,0.107068,0.0150334,
,579,1606844124,853941663, ,0.666514,-1.67529,-1.45127,0.0444319,1.82149,-0.550219, ,-0.106531,-0.0601101,0.0929985,-0.0344574,0.104786,0.0185193,
,580,1606844124,869844439, ,0.66482,-1.67625,-1.4498,0.043884,1.82316,-0.549924, ,-0.10472,-0.0550069,0.0895616,-0.0397515,0.106517,0.0137225,
,581,1606844124,885747215, ,0.663155,-1.67712,-1.44837,0.0432518,1.82485,-0.549706, ,-0.10689,-0.0593705,0.0945297,-0.0377462,0.107595,0.0130833,
,582,1606844124,901649991, ,0.661455,-1.67807,-1.44687,0.0426515,1.82656,-0.549498, ,-0.108377,-0.0565594,0.0966987,-0.0355549,0.108391,0.0187153,
,583,1606844124,917552767, ,0.659732,-1.67896,-1.44533,0.0420861,1.82829,-0.5492, ,-0.104857,-0.062249,0.0987147,-0.0381767,0.108125,0.017458,
,584,1606844124,933455543, ,0.658064,-1.67995,-1.44376,0.041479,1.83001,-0.548923, ,-0.110675,-0.0580347,0.0962815,-0.0388454,0.112091,0.0184758,
,585,1606844124,949358319, ,0.656304,-1.68088,-1.44223,0.0408612,1.83179,-0.548629, ,-0.107322,-0.058926,0.0995337,-0.0373563,0.107594,0.0169068,
,586,1606844124,965261095, ,0.654597,-1.68181,-1.44065,0.0402672,1.8335,-0.54836, ,-0.111456,-0.0634315,0.0970175,-0.035674,0.11209,0.0187953,
,587,1606844124,981163871, ,0.652825,-1.68282,-1.4391,0.0396999,1.83528,-0.548061, ,-0.115102,-0.0612902,0.0975544,-0.040866,0.1096,0.0176736,
,588,1606844124,997066647, ,0.650994,-1.6838,-1.43755,0.03905,1.83703,-0.54778, ,-0.116179,-0.0626018,0.103174,-0.0398675,0.114301,0.0166313,
,589,1606844125,12969423, ,0.649147,-1.68479,-1.43591,0.038416,1.83884,-0.547516, ,-0.11149,-0.0651461,0.098036,-0.0356543,0.115299,0.0163305,
,590,1606844125,28872199, ,0.647374,-1.68583,-1.43435,0.037849,1.84068,-0.547256, ,-0.115861,-0.0653209,0.0997941,-0.035738,0.115953,0.013674,
,591,1606844125,44774975, ,0.645531,-1.68687,-1.43277,0.0372806,1.84252,-0.547039, ,-0.116455,-0.06683,0.101805,-0.0349767,0.115034,0.0178266,
,592,1606844125,60677751, ,0.643679,-1.68793,-1.43115,0.0367244,1.84435,-0.546755, ,-0.119531,-0.0626921,0.0996266,-0.0380739,0.116747,0.0176968,
,593,1606844125,76580527, ,0.641778,-1.68893,-1.42956,0.0361189,1.84621,-0.546474, ,-0.118032,-0.0681741,0.0995662,-0.0357242,0.113528,0.0175167,
,594,1606844125,92483303, ,0.639901,-1.69001,-1.42798,0.0355508,1.84801,-0.546195, ,-0.115243,-0.0645925,0.101083,-0.0375388,0.117125,0.0160929,
,595,1606844125,108386079, ,0.638069,-1.69104,-1.42637,0.0349539,1.84988,-0.545939, ,-0.122006,-0.0704123,0.101948,-0.035996,0.11642,0.0130561,
,596,1606844125,124288855, ,0.636129,-1.69216,-1.42475,0.0343814,1.85173,-0.545731, ,-0.121156,-0.0688276,0.103043,-0.0343597,0.122856,0.0185176,
,597,1606844125,140191631, ,0.634202,-1.69325,-1.42311,0.033835,1.85368,-0.545437, ,-0.115217,-0.068004,0.103116,-0.0344483,0.119371,0.0173286,
,598,1606844125,156094407, ,0.63237,-1.69434,-1.42147,0.0332872,1.85558,-0.545161, ,-0.12206,-0.0718663,0.103032,-0.0320815,0.121776,0.0164785,
,599,1606844125,171997183, ,0.630428,-1.69548,-1.41983,0.032777,1.85752,-0.544899, ,-0.122114,-0.072476,0.102447,-0.0328797,0.122362,0.0208402,
,600,1606844125,187899959, ,0.628486,-1.69663,-1.4182,0.0322541,1.85946,-0.544568, ,-0.121119,-0.0742068,0.102851,-0.0338222,0.122533,0.014204,
,601,1606844125,203802735, ,0.62656,-1.69781,-1.41657,0.0317162,1.86141,-0.544342, ,-0.122872,-0.0733888,0.105078,-0.033567,0.124889,0.0179808,
,602,1606844125,219705511, ,0.624606,-1.69898,-1.4149,0.0311824,1.8634,-0.544056, ,-0.12565,-0.0758854,0.107392,-0.0314204,0.121635,0.0173402,
,603,1606844125,235608287, ,0.622608,-1.70018,-1.41319,0.0306828,1.86533,-0.54378, ,-0.12489,-0.078565,0.105687,-0.0273597,0.12745,0.016368,
,604,1606844125,251511063, ,0.620622,-1.70143,-1.41151,0.0302477,1.86736,-0.54352, ,-0.126052,-0.079233,0.106655,-0.032686,0.127748,0.0175543,
,605,1606844125,267413839, ,0.618618,-1.70269,-1.40981,0.0297279,1.86939,-0.543241, ,-0.126894,-0.0754458,0.108726,-0.0323485,0.121875,0.0173502,
,606,1606844125,283316615, ,0.6166,-1.70389,-1.40808,0.0292134,1.87133,-0.542965, ,-0.128141,-0.0804599,0.108009,-0.0298961,0.12904,0.0174499,
,607,1606844125,299219391, ,0.614562,-1.70517,-1.40637,0.028738,1.87338,-0.542687, ,-0.127283,-0.0759521,0.110776,-0.027718,0.12997,0.0181952,
,608,1606844125,315122167, ,0.612538,-1.70638,-1.4046,0.0282972,1.87545,-0.542398, ,-0.133112,-0.0827832,0.110239,-0.0302625,0.128204,0.0148359,
,609,1606844125,331024943, ,0.610421,-1.7077,-1.40285,0.027816,1.87749,-0.542162, ,-0.128416,-0.0788129,0.10817,-0.0269603,0.129799,0.0161157,
,610,1606844125,346927719, ,0.608379,-1.70895,-1.40113,0.0273872,1.87955,-0.541906, ,-0.130456,-0.0847521,0.107482,-0.0280783,0.125064,0.0199909,
,611,1606844125,362830495, ,0.606304,-1.7103,-1.39942,0.0269407,1.88154,-0.541588, ,-0.130383,-0.0809814,0.112052,-0.0309279,0.130218,0.0169203,
,612,1606844125,378733271, ,0.604231,-1.71159,-1.39764,0.0264489,1.88361,-0.541319, ,-0.133585,-0.0822187,0.113427,-0.0250047,0.129294,0.0163142,
,613,1606844125,394636047, ,0.602106,-1.71289,-1.39584,0.0260512,1.88567,-0.541059, ,-0.133168,-0.0838565,0.110561,-0.0303253,0.134101,0.0165191,
,614,1606844125,410538823, ,0.599988,-1.71423,-1.39408,0.025569,1.8878,-0.540797, ,-0.134689,-0.0815432,0.116105,-0.0239804,0.132528,0.017991,
,615,1606844125,426441599, ,0.597846,-1.71552,-1.39223,0.0251876,1.88991,-0.540511, ,-0.133628,-0.0853214,0.111613,-0.0255125,0.132854,0.0176566,
,616,1606844125,442344375, ,0.595721,-1.71688,-1.39046,0.0247819,1.89202,-0.54023, ,-0.135202,-0.0800804,0.113549,-0.0285615,0.138805,0.0155457,
,617,1606844125,458247151, ,0.593571,-1.71816,-1.38865,0.0243277,1.89423,-0.539983, ,-0.135822,-0.0851543,0.113241,-0.0260239,0.133965,0.0187324,
,618,1606844125,474149927, ,0.591411,-1.71951,-1.38685,0.0239138,1.89636,-0.539685, ,-0.135516,-0.0843455,0.113275,-0.0227456,0.137306,0.0154383,
,619,1606844125,490052703, ,0.589256,-1.72085,-1.38505,0.0235521,1.89854,-0.539439, ,-0.138542,-0.087104,0.116095,-0.0263579,0.134046,0.0133207,
,620,1606844125,505955479, ,0.587053,-1.72224,-1.3832,0.0231329,1.90067,-0.539227, ,-0.137396,-0.0844208,0.115892,-0.024668,0.136947,0.0174093,
,621,1606844125,521858255, ,0.584868,-1.72358,-1.38136,0.0227406,1.90285,-0.538951, ,-0.141942,-0.0881454,0.114035,-0.0231384,0.139779,0.015162,
,622,1606844125,537761031, ,0.582611,-1.72498,-1.37955,0.0223727,1.90507,-0.538709, ,-0.141749,-0.0882984,0.113566,-0.0234734,0.135901,0.0165478,
,623,1606844125,553663807, ,0.580357,-1.72638,-1.37774,0.0219994,1.90723,-0.538446, ,-0.141818,-0.0921953,0.118289,-0.0245216,0.138583,0.0190032,
,624,1606844125,569566583, ,0.578101,-1.72785,-1.37586,0.0216094,1.90944,-0.538144, ,-0.139104,-0.0924276,0.115132,-0.0247897,0.134704,0.0136263,
,625,1606844125,585469359, ,0.575889,-1.72932,-1.37403,0.0212152,1.91158,-0.537927, ,-0.145272,-0.0909358,0.118869,-0.0217736,0.139544,0.0184114,
,626,1606844125,601372135, ,0.573579,-1.73077,-1.37214,0.0208689,1.9138,-0.537635, ,-0.144087,-0.0942558,0.118783,-0.0228126,0.140166,0.0164047,
,627,1606844125,617274911, ,0.571288,-1.73227,-1.37025,0.0205062,1.91603,-0.537374, ,-0.145084,-0.0945736,0.115149,-0.017295,0.144693,0.0201304,
,628,1606844125,633177687, ,0.56898,-1.73377,-1.36842,0.0202311,1.91833,-0.537054, ,-0.140812,-0.0970138,0.115048,-0.0221878,0.139531,0.017192,
,629,1606844125,649080463, ,0.566741,-1.73531,-1.36659,0.0198783,1.92055,-0.53678, ,-0.14562,-0.0970286,0.120631,-0.0214912,0.143241,0.0170947,
,630,1606844125,664983239, ,0.564425,-1.73686,-1.36467,0.0195365,1.92283,-0.536508, ,-0.144948,-0.0957998,0.117839,-0.0193413,0.147671,0.0187833,
,631,1606844125,680886015, ,0.56212,-1.73838,-1.36279,0.0192289,1.92517,-0.53621, ,-0.144418,-0.0940398,0.120615,-0.0221829,0.143349,0.0148443,
,632,1606844125,696788791, ,0.559824,-1.73987,-1.36088,0.0188762,1.92745,-0.535974, ,-0.145446,-0.100139,0.120515,-0.0215856,0.14485,0.0144366,
,633,1606844125,712691567, ,0.557511,-1.74147,-1.35896,0.0185329,1.92976,-0.535744, ,-0.148438,-0.0934975,0.118703,-0.0212218,0.14316,0.0205401,
,634,1606844125,728594343, ,0.55515,-1.74295,-1.35707,0.0181954,1.93203,-0.535417, ,-0.14768,-0.0961699,0.118727,-0.0209339,0.148037,0.0167127,
,635,1606844125,744497119, ,0.552801,-1.74448,-1.35518,0.0178625,1.93439,-0.535152, ,-0.1469,-0.0986489,0.117372,-0.016362,0.147433,0.0133903,
,636,1606844125,760399895, ,0.550465,-1.74605,-1.35332,0.0176023,1.93673,-0.534939, ,-0.150693,-0.0962777,0.119922,-0.0246945,0.147363,0.0164623,
,637,1606844125,776302671, ,0.548069,-1.74758,-1.35141,0.0172096,1.93908,-0.534677, ,-0.151353,-0.0972937,0.118791,-0.0193327,0.143709,0.0181032,
,638,1606844125,792205447, ,0.545662,-1.74913,-1.34952,0.0169021,1.94136,-0.534389, ,-0.150783,-0.0980743,0.118601,-0.0196588,0.143824,0.0139707,
,639,1606844125,808108223, ,0.543264,-1.75069,-1.34764,0.0165895,1.94365,-0.534167, ,-0.150327,-0.0947803,0.11788,-0.0185507,0.150449,0.0210065,
,640,1606844125,824010999, ,0.540873,-1.7522,-1.34576,0.0162945,1.94604,-0.533833, ,-0.149972,-0.101107,0.119603,-0.0239271,0.144804,0.011468,
,641,1606844125,839913775, ,0.538489,-1.7538,-1.34386,0.015914,1.94834,-0.53365, ,-0.147599,-0.0984773,0.114375,-0.015244,0.147347,0.0123896,
,642,1606844125,855816551, ,0.536141,-1.75537,-1.34204,0.0156716,1.95069,-0.533453, ,-0.14958,-0.100474,0.117627,-0.0185252,0.14997,0.0155271,
,643,1606844125,871719327, ,0.533763,-1.75697,-1.34017,0.015377,1.95307,-0.533206, ,-0.152641,-0.101453,0.116317,-0.0209582,0.150716,0.0142479,
,644,1606844125,887622103, ,0.531335,-1.75858,-1.33832,0.0150437,1.95547,-0.53298, ,-0.150284,-0.097255,0.114035,-0.0169405,0.14822,0.0161578,
,645,1606844125,903524879, ,0.528945,-1.76013,-1.33651,0.0147743,1.95783,-0.532723, ,-0.152652,-0.0991951,0.119797,-0.0187409,0.15165,0.0128102,
,646,1606844125,919427655, ,0.526518,-1.76171,-1.3346,0.0144762,1.96024,-0.532519, ,-0.155935,-0.0973058,0.113709,-0.0136849,0.148481,0.0153606,
,647,1606844125,935330431, ,0.524038,-1.76325,-1.33279,0.0142586,1.9626,-0.532275, ,-0.154489,-0.10183,0.118552,-0.0188596,0.15053,0.012278,
,648,1606844125,951233207, ,0.521581,-1.76487,-1.33091,0.0139587,1.96499,-0.53208, ,-0.156276,-0.0963882,0.117852,-0.0160923,0.148639,0.014424,
,649,1606844125,967135983, ,0.519096,-1.76641,-1.32903,0.0137028,1.96736,-0.53185, ,-0.155434,-0.09824,0.113677,-0.0160392,0.151723,0.0181493,
,650,1606844125,983038759, ,0.516624,-1.76797,-1.32723,0.0134477,1.96977,-0.531562, ,-0.154713,-0.0976155,0.114408,-0.0177135,0.145216,0.0111392,
,651,1606844125,998941535, ,0.514164,-1.76952,-1.32541,0.013166,1.97208,-0.531384, ,-0.149125,-0.0958873,0.114472,-0.0163322,0.144982,0.0153472,
,652,1606844126,14844311, ,0.511792,-1.77105,-1.32359,0.0129063,1.97438,-0.53114, ,-0.149398,-0.0974054,0.115418,-0.0165603,0.143781,0.0132418,
,653,1606844126,30747087, ,0.509416,-1.77259,-1.32175,0.0126429,1.97667,-0.53093, ,-0.149784,-0.0990571,0.116438,-0.0159599,0.142444,0.0143891,
,654,1606844126,46649863, ,0.507034,-1.77417,-1.3199,0.0123891,1.97894,-0.530701, ,-0.147509,-0.0936596,0.112615,-0.0157089,0.147029,0.0109518,
,655,1606844126,62552639, ,0.504688,-1.77566,-1.31811,0.0121393,1.98127,-0.530527, ,-0.147949,-0.0927154,0.116848,-0.0146007,0.146257,0.0114472,
,656,1606844126,78455415, ,0.502336,-1.77713,-1.31625,0.0119071,1.9836,-0.530345, ,-0.151968,-0.097801,0.11533,-0.0164481,0.145185,0.0116951,
,657,1606844126,94358191, ,0.499919,-1.77869,-1.31442,0.0116455,1.98591,-0.530159, ,-0.149481,-0.0926659,0.113826,-0.0142045,0.14951,0.0143122,
,658,1606844126,110260967, ,0.497542,-1.78016,-1.31261,0.0114197,1.98829,-0.529931, ,-0.148024,-0.0953848,0.113336,-0.0158784,0.146082,0.0134583,
,659,1606844126,126163743, ,0.495188,-1.78168,-1.3108,0.0111671,1.99061,-0.529717, ,-0.151068,-0.0940914,0.114816,-0.0147688,0.1458,0.00926833,
,660,1606844126,142066519, ,0.492785,-1.78318,-1.30898,0.0109323,1.99293,-0.52957, ,-0.149989,-0.0912095,0.109581,-0.0173848,0.143712,0.0131041,
,661,1606844126,157969295, ,0.4904,-1.78463,-1.30723,0.0106558,1.99521,-0.529361, ,-0.147666,-0.0953907,0.111289,-0.0112825,0.144735,0.0144773,
,662,1606844126,173872071, ,0.488052,-1.78614,-1.30546,0.0104764,1.99752,-0.529131, ,-0.147028,-0.0988197,0.107343,-0.0154375,0.143225,0.0065247,
,663,1606844126,189774847, ,0.485714,-1.78771,-1.30376,0.0102309,1.99979,-0.529027, ,-0.145018,-0.0928783,0.111719,-0.0142264,0.141128,0.012767,
,664,1606844126,205677623, ,0.483408,-1.78919,-1.30198,0.0100047,2.00204,-0.528824, ,-0.148204,-0.0951469,0.109778,-0.0153151,0.138197,0.0103013,
,665,1606844126,221580399, ,0.481051,-1.7907,-1.30024,0.0097611,2.00424,-0.528661, ,-0.144364,-0.0958602,0.110904,-0.0112758,0.139563,0.0106403,
,666,1606844126,237483175, ,0.478755,-1.79223,-1.29847,0.00958179,2.00645,-0.528491, ,-0.139262,-0.0922037,0.106269,-0.0134242,0.139221,0.00930286,
