davideferrari95/admittance_controller/debug/scaled_trajectory_debug.csv
frame_id,seq,sec,nsec,     ,pos_joint1,pos_joint2,pos_joint2,pos_joint4,pos_joint5,pos_joint6,     ,vel_joint1,vel_joint2,vel_joint3,vel_joint4,vel_joint5,vel_joint6

,0,1608561425,226101788, ,0.624476,-1.85921,-1.25244,-1.65515,1.65942,-0.20402, ,-2.17985e-06,-0.000138607,0.000722075,0.00105613,-0.00127624,-0.000536495,
,1,1608561425,241952452, ,0.624476,-1.85921,-1.25243,-1.65513,1.6594,-0.204029, ,-0.00158323,0.00400331,-0.000926198,-0.0018667,0.00229264,0.000453265,
,2,1608561425,257803116, ,0.624451,-1.85915,-1.25244,-1.65516,1.65944,-0.204021, ,0.00104661,-0.00114854,0.000270278,7.69689e-06,-0.0014273,-0.000487098,
,3,1608561425,273653780, ,0.624467,-1.85917,-1.25244,-1.65516,1.65941,-0.204029, ,0.000393558,-0.000415952,-0.00201954,-0.000646829,0.00142132,0.000404327,
,4,1608561425,289504444, ,0.624474,-1.85917,-1.25247,-1.65517,1.65944,-0.204023, ,0.00120761,0.00223131,0.00113462,0.00143642,-6.02733e-05,6.64005e-05,
,5,1608561425,305355108, ,0.624493,-1.85914,-1.25245,-1.65515,1.65944,-0.204022, ,-2.7433e-06,-0.00230493,-0.000269923,-5.02714e-05,-0.00140551,0.00195769,
,6,1608561425,321205772, ,0.624493,-1.85917,-1.25246,-1.65515,1.65941,-0.203991, ,-0.00141507,-0.00293612,0.000777061,-0.00130889,-0.00054461,-0.000326135,
,7,1608561425,337056436, ,0.62447,-1.85922,-1.25244,-1.65517,1.6594,-0.203996, ,0.000855555,0.0012184,-0.000761286,-0.000967861,-0.000240523,-0.00271919,
,8,1608561425,352907100, ,0.624484,-1.8592,-1.25246,-1.65519,1.6594,-0.204039, ,0.000173015,0.00199686,0.00163158,0.000993361,0.000703409,0.00215541,
,9,1608561425,368757764, ,0.624487,-1.85917,-1.25243,-1.65517,1.65941,-0.204005, ,-0.000927209,2.6483e-05,-0.000331817,-0.000280918,0.00253889,-0.000926236,
,10,1608561425,384608428, ,0.624472,-1.85917,-1.25244,-1.65518,1.65945,-0.204019, ,-0.000485676,-0.000778404,0.000546715,-0.000589698,-0.00261985,0.00140252,
,11,1608561425,400459092, ,0.624464,-1.85918,-1.25243,-1.65519,1.65941,-0.203997, ,-0.000711477,0.00140077,-0.000773771,0.000955782,0.000618178,-0.000624504,
,12,1608561425,416309756, ,0.624453,-1.85916,-1.25244,-1.65517,1.65942,-0.204007, ,0.00146057,0.000825054,5.28011e-05,0.00199682,-0.000627923,-0.00301373,
,13,1608561425,432160420, ,0.624476,-1.85915,-1.25244,-1.65514,1.65941,-0.204055, ,-0.000902889,-0.00362766,0.00012857,-0.00112971,0.000753406,0.00198826,
,14,1608561425,448011084, ,0.624462,-1.8592,-1.25244,-1.65516,1.65942,-0.204023, ,0.00227775,0.00371869,0.00109562,0.00179746,-0.0010717,0.000726723,
,15,1608561425,463861748, ,0.624498,-1.85915,-1.25242,-1.65513,1.65941,-0.204012, ,-0.00134852,-0.00253147,-0.00235149,-0.00299877,-0.000584619,-0.00205217,
,16,1608561425,479712412, ,0.624477,-1.85919,-1.25246,-1.65518,1.6594,-0.204044, ,0.000909683,-0.00243013,-0.000389209,0.0006165,0.00186488,0.000325379,
,17,1608561425,495563076, ,0.624491,-1.85922,-1.25246,-1.65517,1.65943,-0.204039, ,-0.00161565,0.00314007,0.00217492,-0.000755596,-0.00027434,0.00139565,
,18,1608561425,511413740, ,0.624465,-1.85917,-1.25243,-1.65518,1.65942,-0.204017, ,0.000638351,0.000259618,-0.000171066,0.00107592,0.00243968,-0.000954431,
,19,1608561425,527264404, ,0.624475,-1.85917,-1.25243,-1.65516,1.65946,-0.204032, ,0.00179642,0.000566644,-0.00112335,-0.00116218,-0.000410822,0.000440129,
,20,1608561425,543115068, ,0.624504,-1.85916,-1.25245,-1.65518,1.65945,-0.204025, ,0.00028067,-0.000486193,0.000744439,0.00174778,-0.000124756,-0.00212193,
,21,1608561425,558965732, ,0.624508,-1.85917,-1.25244,-1.65515,1.65945,-0.204059, ,-0.00266495,-0.00136575,-2.7343e-06,-0.00169055,0.000378478,0.00193743,
,22,1608561425,574816396, ,0.624466,-1.85919,-1.25244,-1.65518,1.65946,-0.204028, ,-0.000719051,-0.00144457,-6.20705e-06,0.00175353,-0.00404866,0.00185621,
,23,1608561425,590667060, ,0.624455,-1.85921,-1.25244,-1.65515,1.65939,-0.203999, ,-0.000112032,0.00148263,-0.00141402,-0.00314371,0.00422964,0.000924614,
,24,1608561425,606517724, ,0.624453,-1.85919,-1.25246,-1.6552,1.65946,-0.203984, ,0.000924124,0.000948666,0.00189069,0.000986673,-0.00113514,-0.0014755,
,25,1608561425,622368388, ,0.624468,-1.85917,-1.25243,-1.65518,1.65944,-0.204007, ,0.0010087,1.38287e-05,0.000261616,0.00119109,-0.00207836,-0.000551516,
,26,1608561425,638219052, ,0.624484,-1.85917,-1.25243,-1.65517,1.65941,-0.204016, ,-5.70552e-05,0.000321912,0.000556921,-0.000984026,0.0024388,-0.00147638,
,27,1608561425,654069716, ,0.624483,-1.85917,-1.25242,-1.65518,1.65945,-0.20404, ,7.92632e-05,-0.00167616,-0.00197462,-0.000828168,-0.00257564,0.00265408,
,28,1608561425,669920380, ,0.624484,-1.8592,-1.25245,-1.65519,1.65941,-0.203997, ,0.00138579,0.00139309,0.00134932,0.00348833,0.000131905,-0.000480703,
,29,1608561425,685771044, ,0.624506,-1.85917,-1.25243,-1.65514,1.65941,-0.204005, ,-0.00147275,0.000212915,-0.000633627,-0.000465135,0.000262069,-0.000388174,
,30,1608561425,701621708, ,0.624483,-1.85917,-1.25244,-1.65515,1.65941,-0.204011, ,-0.000680801,-0.00265485,1.96681e-05,-0.000838898,0.00259381,-0.001697,
,31,1608561425,717472372, ,0.624472,-1.85921,-1.25244,-1.65516,1.65945,-0.204038, ,-0.000466279,0.00213341,0.000552712,-0.0014845,-0.00405304,0.00050816,
,32,1608561425,733323036, ,0.624464,-1.85918,-1.25243,-1.65518,1.65939,-0.20403, ,0.00203858,-0.00129373,-0.000375446,0.00177368,0.00185689,0.00089643,
,33,1608561425,749173700, ,0.624497,-1.8592,-1.25243,-1.65515,1.65942,-0.204016, ,-0.00230962,0.00209334,-0.00276021,-0.00161264,-0.00151359,0.000686167,
,34,1608561425,765024364, ,0.62446,-1.85917,-1.25248,-1.65518,1.6594,-0.204005, ,0.00203713,-0.00016059,0.00300489,0.00189274,0.000859735,-0.00152352,
,35,1608561425,780875028, ,0.624492,-1.85917,-1.25243,-1.65515,1.65941,-0.204029, ,0.000476883,-0.00322528,-0.001892,-0.00122685,0.00194913,0.00209076,
,36,1608561425,796725692, ,0.6245,-1.85922,-1.25246,-1.65517,1.65944,-0.203996, ,0.00053717,7.02536e-05,-0.000124272,0.00124178,-0.00196967,-0.00210569,
,37,1608561425,812576356, ,0.624508,-1.85922,-1.25246,-1.65515,1.65941,-0.204029, ,-0.00130373,0.00204854,0.00164921,0.00138548,0.000621404,0.000580189,
,38,1608561425,828427020, ,0.624488,-1.85919,-1.25244,-1.65513,1.65942,-0.20402, ,-0.000327582,-0.000397195,0.000156146,-0.00250884,-0.000221686,0.000860478,
,39,1608561425,844277684, ,0.624483,-1.85919,-1.25243,-1.65517,1.65942,-0.204007, ,0.000419864,0.00177047,0.000177949,-0.000212189,0.00150194,-0.000530699,
,40,1608561425,860128348, ,0.624489,-1.85916,-1.25243,-1.65517,1.65944,-0.204015, ,0.000848549,-0.000901426,-0.00268808,-0.000630375,-0.000567162,-0.00187934,
,41,1608561425,875979012, ,0.624503,-1.85918,-1.25247,-1.65518,1.65943,-0.204045, ,-2.40781e-05,0.000622634,0.00225476,0.00118952,-0.00250336,0.00139649,
,42,1608561425,891829676, ,0.624502,-1.85917,-1.25244,-1.65516,1.65939,-0.204023, ,-0.00175951,-0.0020531,-0.00111764,-0.00105362,0.00168636,0.00169037,
,43,1608561425,907680340, ,0.624474,-1.8592,-1.25246,-1.65518,1.65942,-0.203996, ,-0.00046833,0.000245024,0.000235352,0.00120654,0.00160968,-0.00237816,
,44,1608561425,923531004, ,0.624467,-1.8592,-1.25245,-1.65516,1.65944,-0.204033, ,0.000808501,0.00301171,-0.000597138,-0.000780561,0.00085164,0.000104058,
,45,1608561425,939381668, ,0.62448,-1.85915,-1.25246,-1.65517,1.65946,-0.204032, ,0.00121036,-0.0019586,0.00179478,-0.000295488,-0.000216336,-0.00230313,
,46,1608561425,955232332, ,0.624499,-1.85918,-1.25243,-1.65518,1.65945,-0.204068, ,-0.00081128,5.19414e-05,-0.000805756,-0.000260025,-0.00334701,-0.000645519,
,47,1608561425,971082996, ,0.624486,-1.85918,-1.25245,-1.65518,1.6594,-0.204079, ,0.000113798,0.000646452,-0.000936489,0.00198065,0.00129456,0.0030023,
,48,1608561425,986933660, ,0.624488,-1.85917,-1.25246,-1.65515,1.65942,-0.204031, ,0.000865841,-0.000690905,8.14655e-05,-5.75052e-05,-0.000447255,-0.00168288,
,49,1608561426,2784324, ,0.624502,-1.85918,-1.25246,-1.65515,1.65941,-0.204058, ,-0.000867135,-0.00185116,0.00114042,-0.000214903,1.16333e-05,-0.00124012,
,50,1608561426,18634988, ,0.624488,-1.85921,-1.25244,-1.65515,1.65941,-0.204077, ,-0.000126208,0.000704718,2.17888e-05,-0.00451391,0.000578579,0.00468465,
,51,1608561426,34485652, ,0.624486,-1.8592,-1.25244,-1.65523,1.65942,-0.204003, ,0.000974134,0.00208644,-0.00244082,0.00548149,0.00139474,-0.00155312,
,52,1608561426,50336316, ,0.624501,-1.85917,-1.25248,-1.65514,1.65944,-0.204028, ,-0.00311487,0.000476538,0.00395147,-0.00248188,-0.00113559,-0.000800937,
,53,1608561426,66186980, ,0.624452,-1.85916,-1.25242,-1.65518,1.65943,-0.20404, ,0.00149555,-0.00115467,-0.00407401,0.001032,0.000646018,-0.0018002,
,54,1608561426,82037644, ,0.624476,-1.85918,-1.25248,-1.65516,1.65944,-0.204069, ,0.0011897,-0.00143231,0.00257053,-0.00034698,0.000654349,0.000943782,
,55,1608561426,97888308, ,0.624495,-1.8592,-1.25244,-1.65517,1.65945,-0.204054, ,-0.000635027,0.00161484,0.000610525,0.00153619,-0.00284223,0.0013413,
,56,1608561426,113738972, ,0.624485,-1.85917,-1.25243,-1.65514,1.6594,-0.204033, ,0.00013173,0.00208353,-0.000312259,0.000159617,0.00029097,0.000512506,
,57,1608561426,129589636, ,0.624487,-1.85914,-1.25244,-1.65514,1.65941,-0.204025, ,0.00297933,-0.00178898,-0.00176087,-0.00199833,0.00115257,-0.000342601,
,58,1608561426,145440300, ,0.624534,-1.85917,-1.25246,-1.65517,1.65942,-0.20403, ,-0.00292869,-0.00147518,0.00145785,-0.000367521,-0.000120418,-0.000124086,
,59,1608561426,161290964, ,0.624487,-1.85919,-1.25244,-1.65518,1.65942,-0.204032, ,-0.00141389,0.0014245,-0.00187639,0.00240437,0.00171023,-0.000755727,
,60,1608561426,177141628, ,0.624465,-1.85917,-1.25247,-1.65514,1.65945,-0.204044, ,-0.000658558,-0.00135768,0.00200192,2.22698e-05,0.000605431,0.00240081,
,61,1608561426,192992292, ,0.624455,-1.85919,-1.25244,-1.65514,1.65946,-0.204006, ,0.00211285,0.000789219,0.000209873,-0.0014995,-0.00372251,0.000997747,
,62,1608561426,208842956, ,0.624488,-1.85918,-1.25243,-1.65516,1.6594,-0.20399, ,-0.000536083,0.00020732,-0.00148212,0.00118593,0.00129318,-0.00220444,
,63,1608561426,224693620, ,0.62448,-1.85918,-1.25246,-1.65514,1.65942,-0.204025, ,0.00011206,0.000361701,0.00111096,0.000214131,-0.000524517,0.00268209,
,64,1608561426,240544284, ,0.624481,-1.85917,-1.25244,-1.65514,1.65941,-0.203983, ,-0.000910868,0.00133973,-0.00126496,-0.000666371,0.00124156,-0.00324061,
,65,1608561426,256394948, ,0.624467,-1.85915,-1.25246,-1.65515,1.65943,-0.204034, ,0.00112398,-0.00170305,0.000308092,0.00130965,-0.00199729,0.000173358,
,66,1608561426,272245612, ,0.624485,-1.85918,-1.25246,-1.65513,1.6594,-0.204031, ,-0.00141874,-0.000126896,-0.000698728,-0.00202646,0.00197752,0.00253624,
,67,1608561426,288096276, ,0.624462,-1.85918,-1.25247,-1.65516,1.65943,-0.203991, ,0.00243285,-9.9234e-05,0.000732937,-0.000211626,0.000973344,-0.00180765,
,68,1608561426,303946940, ,0.624501,-1.85918,-1.25246,-1.65517,1.65945,-0.20402, ,-0.00212193,0.00195979,0.00113231,0.00182857,0.000443917,0.000572388,
,69,1608561426,319797604, ,0.624467,-1.85915,-1.25244,-1.65514,1.65945,-0.204011, ,-0.000208371,-0.00148243,-0.00137298,-0.000291232,-0.0025641,0.000253927,
,70,1608561426,335648268, ,0.624464,-1.85917,-1.25246,-1.65514,1.65941,-0.204006, ,0.00133136,0.000153951,0.0012247,-0.00045345,-0.000670838,0.00051079,
,71,1608561426,351498932, ,0.624485,-1.85917,-1.25244,-1.65515,1.6594,-0.203998, ,0.000190696,0.000590031,-0.00126796,-0.00130627,0.00231384,-0.0028791,
,72,1608561426,367349596, ,0.624488,-1.85916,-1.25246,-1.65517,1.65944,-0.204044, ,-0.000899164,-0.00403919,0.00184835,0.00139574,-0.00107537,0.00227723,
,73,1608561426,383200260, ,0.624474,-1.85922,-1.25243,-1.65515,1.65942,-0.204008, ,0.00111736,0.00337977,-0.000394644,0.0020679,-0.000156909,-0.000784089,
,74,1608561426,399050924, ,0.624491,-1.85917,-1.25244,-1.65512,1.65942,-0.20402, ,-0.000284828,-0.000598377,0.000535413,-0.00106516,0.00145464,-0.000940892,
,75,1608561426,414901588, ,0.624487,-1.85918,-1.25243,-1.65513,1.65944,-0.204035, ,-0.0025478,0.00121082,-0.00336985,-0.00219078,-0.000620601,0.00407514,
,76,1608561426,430752252, ,0.624447,-1.85916,-1.25248,-1.65517,1.65943,-0.203971, ,0.0023422,-0.00179402,0.0038797,-0.00122372,-0.000318791,-0.00428613,
,77,1608561426,446602916, ,0.624484,-1.85919,-1.25242,-1.65519,1.65943,-0.204039, ,-0.00136697,0.00129459,-0.00220013,0.00117452,8.47743e-06,0.00097813,
,78,1608561426,462453580, ,0.624462,-1.85917,-1.25246,-1.65517,1.65943,-0.204023, ,0.00161104,0.00150081,0.00201324,0.00188741,0.00174998,-0.00118904,
,79,1608561426,478304244, ,0.624488,-1.85914,-1.25242,-1.65514,1.65946,-0.204042, ,-0.000399152,-0.00040076,-0.00264467,-0.00159656,-0.00152287,0.000800544,
,80,1608561426,494154908, ,0.624481,-1.85915,-1.25247,-1.65516,1.65943,-0.204029, ,0.000322601,-0.0018657,0.00193443,0.00267288,-0.00196216,-0.000515451,
,81,1608561426,510005572, ,0.624486,-1.85918,-1.25243,-1.65512,1.6594,-0.204037, ,-0.000893543,-0.000542798,-0.00084471,-0.00162796,0.0035606,1.63444e-05,
,82,1608561426,525856236, ,0.624472,-1.85919,-1.25245,-1.65515,1.65946,-0.204037, ,-0.000397372,0.00386535,-0.000638157,0.000922513,-0.00224043,0.00026118,
,83,1608561426,541706900, ,0.624466,-1.85913,-1.25246,-1.65513,1.65942,-0.204033, ,0.00139781,-0.00201,0.0017713,0.000735808,0.00238181,-0.000691516,
,84,1608561426,557557564, ,0.624488,-1.85916,-1.25243,-1.65512,1.65946,-0.204044, ,-0.00204429,-0.000170611,-3.31276e-05,-0.00130154,-0.00265196,0.000812467,
,85,1608561426,573408228, ,0.624456,-1.85916,-1.25243,-1.65514,1.65942,-0.204031, ,0.00176486,0.00248401,-0.00260198,0.000485587,0.00122828,-0.00010697,
,86,1608561426,589258892, ,0.624484,-1.85912,-1.25247,-1.65513,1.65944,-0.204033, ,0.000877914,-0.00286603,0.000547547,-0.000533675,-0.00289311,-0.00103322,
,87,1608561426,605109556, ,0.624498,-1.85917,-1.25246,-1.65514,1.65939,-0.204049, ,0.000557803,0.000168595,8.38333e-05,-0.00340667,0.00145101,0.00166484,
,88,1608561426,620960220, ,0.624506,-1.85917,-1.25246,-1.6552,1.65941,-0.204023, ,-0.00257353,0.00119993,0.000889142,0.00416826,9.57571e-05,-0.0025011,
,89,1608561426,636810884, ,0.624466,-1.85915,-1.25245,-1.65513,1.65942,-0.204062, ,0.000707711,-0.00117499,0.000896679,-0.00106755,0.00208064,0.00437485,
,90,1608561426,652661548, ,0.624477,-1.85917,-1.25243,-1.65515,1.65945,-0.203993, ,0.00206119,-0.00255228,0.000249176,0.000889951,-0.000409385,-0.00342261,
,91,1608561426,668512212, ,0.624509,-1.85921,-1.25243,-1.65513,1.65944,-0.204047, ,-0.0044842,0.00176326,-7.22327e-05,-0.00227225,0.000169037,0.00386261,
,92,1608561426,684362876, ,0.624438,-1.85918,-1.25243,-1.65517,1.65945,-0.203986, ,0.00177318,-0.00192869,-0.00042287,0.000922418,-0.00267044,-8.39113e-05,
,93,1608561426,700213540, ,0.624466,-1.85921,-1.25244,-1.65515,1.6594,-0.203987, ,-0.00117848,-0.000847504,0.00120624,0.000952752,0.00124331,0.000221075,
,94,1608561426,716064204, ,0.624448,-1.85922,-1.25242,-1.65514,1.65942,-0.203984, ,0.00176751,0.00399535,-0.00328903,-0.00315329,-0.000335968,-0.00246661,
,95,1608561426,731914868, ,0.624476,-1.85916,-1.25247,-1.65519,1.65942,-0.204023, ,-0.00219451,-7.26255e-05,0.000656061,0.00116158,0.00143203,0.00101478,
,96,1608561426,747765532, ,0.624441,-1.85916,-1.25246,-1.65517,1.65944,-0.204007, ,0.000449565,0.000170009,0.00168693,-0.000864974,-0.00182806,-0.00394178,
,97,1608561426,763616196, ,0.624448,-1.85916,-1.25243,-1.65518,1.65941,-0.204069, ,0.0019681,-0.00121875,-0.000596367,0.00259205,0.00223861,0.00406799,
,98,1608561426,779466860, ,0.624479,-1.85918,-1.25244,-1.65514,1.65945,-0.204005, ,0.000754643,-0.00189996,0.00060571,-0.00200122,-0.000845396,-0.00299453,
,99,1608561426,795317524, ,0.624491,-1.85921,-1.25243,-1.65517,1.65943,-0.204052, ,0.000360106,0.00269535,-0.00220391,0.000796029,-0.00253366,0.00458941,
,100,1608561426,811168188, ,0.624497,-1.85916,-1.25247,-1.65516,1.65939,-0.20398, ,-0.00200604,0.000141537,0.00085967,0.00165529,0.00185763,-0.00230894,
,101,1608561426,827018852, ,0.624465,-1.85916,-1.25245,-1.65514,1.65942,-0.204016, ,0.000816186,-0.00200904,-0.00132533,-0.00256636,0.00201038,0.000734908,
,102,1608561426,842869516, ,0.624478,-1.85919,-1.25248,-1.65518,1.65945,-0.204005, ,-4.28096e-05,0.00023158,0.00140234,-0.00193063,-0.000690856,-0.00140569,
,103,1608561426,858720180, ,0.624477,-1.85919,-1.25245,-1.65521,1.65944,-0.204027, ,-0.000116672,0.00107326,0.000797204,0.00367347,-0.001915,-0.000824314,
,104,1608561426,874570844, ,0.624476,-1.85917,-1.25244,-1.65515,1.65941,-0.20404, ,0.00166442,0.000110219,-0.00123944,-0.0014179,0.000473363,0.00110513,
,105,1608561426,890421508, ,0.624502,-1.85917,-1.25246,-1.65517,1.65942,-0.204022, ,-0.00182512,-0.000997667,0.00142211,0.00133668,-0.000273931,0.000639766,
,106,1608561426,906272172, ,0.624473,-1.85919,-1.25244,-1.65515,1.65942,-0.204012, ,0.000945464,-0.000104057,-0.00143271,0.00070548,-0.000895671,-0.000596101,
,107,1608561426,922122836, ,0.624488,-1.85919,-1.25246,-1.65514,1.6594,-0.204022, ,-0.00145637,-8.45821e-05,0.0025439,-0.000716531,0.00240502,-0.00209175,
,108,1608561426,937973500, ,0.624465,-1.85919,-1.25242,-1.65515,1.65944,-0.204055, ,0.000579278,0.00234985,-0.00122749,-0.00192898,-0.00131642,0.00187411,
,109,1608561426,953824164, ,0.624474,-1.85915,-1.25244,-1.65518,1.65942,-0.204025, ,0.00116226,-0.00105517,-0.00267906,0.00302045,-0.000901599,-0.00163462,
,110,1608561426,969674828, ,0.624493,-1.85917,-1.25248,-1.65513,1.6594,-0.204051, ,-0.00169922,-0.000326915,-8.59134e-05,-0.00160987,0.00306358,0.00212957,
,111,1608561426,985525492, ,0.624466,-1.85917,-1.25248,-1.65516,1.65945,-0.204017, ,0.0018192,0.000425703,0.00108138,0.000345508,-0.00158102,-0.00155301,
,112,1608561427,1376156, ,0.624494,-1.85917,-1.25247,-1.65515,1.65943,-0.204042, ,0.00111945,-0.00277828,0.0018779,-0.000813199,-0.000262577,-0.000773631,
,113,1608561427,17226820, ,0.624512,-1.85921,-1.25244,-1.65517,1.65942,-0.204054, ,-0.00256278,0.0019585,-0.00162174,0.00296479,0.000824176,0.00268645,
,114,1608561427,33077484, ,0.624472,-1.85918,-1.25246,-1.65512,1.65944,-0.204012, ,-0.000686532,0.000850672,0.0014838,-0.00464287,0.000476731,-0.000235611,
,115,1608561427,48928148, ,0.624461,-1.85917,-1.25244,-1.65519,1.65944,-0.204015, ,0.000426569,-0.000494164,0.000330931,0.00221311,-0.000462047,-0.00188561,
,116,1608561427,64778812, ,0.624467,-1.85918,-1.25243,-1.65516,1.65944,-0.204045, ,0.000712703,-0.000168295,-0.000957434,-0.00276965,-0.00153476,0.00112644,
,117,1608561427,80629476, ,0.624479,-1.85918,-1.25245,-1.6552,1.65941,-0.204027, ,-0.00232417,0.000505272,-0.000889449,0.00336223,0.000533361,0.00028761,
,118,1608561427,96480140, ,0.624442,-1.85917,-1.25246,-1.65515,1.65942,-0.204023, ,0.00355065,-0.00268223,0.00264547,-0.00133748,2.10046e-05,-0.000460111,
,119,1608561427,112330804, ,0.624498,-1.85921,-1.25242,-1.65517,1.65942,-0.20403, ,0.000931196,0.000161194,-0.00311122,-0.000698879,-0.000126868,-5.21018e-05,
,120,1608561427,128181468, ,0.624513,-1.85921,-1.25247,-1.65518,1.65942,-0.204031, ,0.0004345,0.00384824,0.00261723,0.00047199,-0.000514212,-0.00165922,
,121,1608561427,144032132, ,0.62452,-1.85915,-1.25243,-1.65517,1.65941,-0.204057, ,-0.00151785,-0.00437178,-0.00238827,0.000249169,-0.000213955,0.000344502,
,122,1608561427,159882796, ,0.624496,-1.85922,-1.25247,-1.65517,1.65941,-0.204052, ,-0.000536069,0.00288261,-0.000512437,-0.00154549,0.00185927,0.00476497,
,123,1608561427,175733460, ,0.624487,-1.85917,-1.25247,-1.65519,1.65944,-0.203976, ,0.000704578,-0.000274163,0.00358495,0.000275896,-0.00161711,-0.00232156,
,124,1608561427,191584124, ,0.624498,-1.85918,-1.25242,-1.65519,1.65941,-0.204013, ,-0.00171638,-0.00213974,-0.000558763,0.0023488,0.00255929,-0.000460027,
,125,1608561427,207434788, ,0.624471,-1.85921,-1.25243,-1.65515,1.65945,-0.20402, ,-0.00106492,0.00169492,-0.000621476,-0.00111232,-0.00133516,-0.00182776,
,126,1608561427,223285452, ,0.624454,-1.85918,-1.25244,-1.65517,1.65943,-0.204049, ,0.00345974,-0.00127191,-0.000574547,0.00163386,0.00127136,-0.000245765,
,127,1608561427,239136116, ,0.624509,-1.8592,-1.25245,-1.65514,1.65945,-0.204053, ,-0.00191446,0.00103466,0.0014933,-0.000392209,-0.00224568,-0.000299934,
,128,1608561427,254986780, ,0.624479,-1.85919,-1.25242,-1.65515,1.65942,-0.204058, ,0.000895784,-0.000234836,-0.000992293,-0.00121286,0.00193826,0.0047007,
,129,1608561427,270837444, ,0.624493,-1.85919,-1.25244,-1.65517,1.65945,-0.203984, ,-0.000919643,0.00164623,0.000590234,0.000668192,0.000542647,-0.00202034,
,130,1608561427,286688108, ,0.624479,-1.85917,-1.25243,-1.65516,1.65946,-0.204016, ,0.00070789,-0.000350622,-0.000744744,0.000975794,-0.00117188,0.00126427,
,131,1608561427,302538772, ,0.62449,-1.85917,-1.25244,-1.65514,1.65944,-0.203996, ,-0.000113492,-0.00057999,0.00126256,-0.000467852,-0.00232952,-0.0030585,
,132,1608561427,318389436, ,0.624488,-1.85918,-1.25242,-1.65515,1.6594,-0.204044, ,-0.00203791,0.000490586,7.87986e-06,-0.00190609,0.00331287,0.000770135,
,133,1608561427,334240100, ,0.624456,-1.85917,-1.25242,-1.65518,1.65945,-0.204032, ,0.00101076,-0.00292947,-0.00398481,0.00257683,-0.000440792,-0.000651049,
,134,1608561427,350090764, ,0.624472,-1.85922,-1.25248,-1.65514,1.65945,-0.204042, ,0.000490933,0.000682885,0.00302888,-0.00301875,-0.00209835,0.000276982,
,135,1608561427,365941428, ,0.624479,-1.85921,-1.25244,-1.65519,1.65941,-0.204038, ,0.00108997,0.00280596,0.00019334,0.00112555,0.00171818,0.000410841,
,136,1608561427,381792092, ,0.624497,-1.85916,-1.25243,-1.65517,1.65944,-0.204031, ,-0.0019889,-0.0015436,-0.000393359,-0.0010274,-0.000896214,0.00148716,
,137,1608561427,397642756, ,0.624465,-1.85919,-1.25244,-1.65519,1.65943,-0.204008, ,0.00106676,0.000437626,-0.00114696,0.00240772,-0.000162741,-0.00246911,
,138,1608561427,413493420, ,0.624482,-1.85918,-1.25246,-1.65515,1.65942,-0.204047, ,-0.000545439,0.000288564,-0.000694113,-0.000456985,0.000304297,0.00246713,
,139,1608561427,429344084, ,0.624473,-1.85918,-1.25247,-1.65515,1.65943,-0.204008, ,0.00183649,-0.000663133,0.00122163,-0.00216447,-0.00158082,-0.000971846,
,140,1608561427,445194748, ,0.624503,-1.85919,-1.25245,-1.65519,1.6594,-0.204023, ,-0.00174548,-0.0019255,-0.00114966,0.00257451,-0.00043652,-0.000240871,
,141,1608561427,461045412, ,0.624475,-1.85922,-1.25247,-1.65515,1.6594,-0.204027, ,0.00116954,0.000368486,0.000124863,-2.34354e-05,0.000348854,0.00124509,
,142,1608561427,476896076, ,0.624493,-1.85921,-1.25246,-1.65515,1.6594,-0.204007, ,-0.00112415,0.00339327,0.000148516,-0.00175759,-3.59455e-05,0.00203476,
,143,1608561427,492746740, ,0.624476,-1.85916,-1.25246,-1.65518,1.6594,-0.203975, ,0.00153534,-0.00393034,0.000116154,0.000415109,0.00122332,-0.00284775,
,144,1608561427,508597404, ,0.6245,-1.85922,-1.25246,-1.65517,1.65942,-0.20402, ,-0.00208926,0.00180166,5.39675e-05,8.25073e-05,0.0018036,-0.00175629,
,145,1608561427,524448068, ,0.624467,-1.85919,-1.25246,-1.65517,1.65945,-0.204048, ,0.00125814,0.000488847,0.00147053,8.66106e-05,-0.00209312,0.0021524,
,146,1608561427,540298732, ,0.624487,-1.85918,-1.25244,-1.65517,1.65942,-0.204014, ,0.000898815,-0.000423181,-0.00193853,-0.000367725,0.0012015,-0.00286814,
,147,1608561427,556149396, ,0.624501,-1.85919,-1.25247,-1.65517,1.65943,-0.204059, ,-0.0019883,-0.000994158,0.00091174,0.00227706,-0.00102323,0.000626657,
,148,1608561427,572000060, ,0.62447,-1.85921,-1.25245,-1.65514,1.65942,-0.204049, ,0.0012168,-0.000958801,0.000306435,-0.000937003,2.87546e-05,0.00143833,
,149,1608561427,587850724, ,0.624489,-1.85922,-1.25245,-1.65515,1.65942,-0.204026, ,0.000633929,0.00239972,-0.00115144,-0.000996775,0.000514466,0.000344874,
,150,1608561427,603701388, ,0.624499,-1.85918,-1.25247,-1.65517,1.65943,-0.204021, ,-4.87261e-05,0.000465923,0.00132817,-0.000267717,-0.000848577,-0.000711732,
,151,1608561427,619552052, ,0.624498,-1.85918,-1.25244,-1.65517,1.65941,-0.204032, ,0.000798312,-0.000645387,-6.36845e-05,-0.000339164,0.00107187,-0.00124748,
,152,1608561427,635402716, ,0.624511,-1.85919,-1.25245,-1.65518,1.65943,-0.204052, ,-0.00289785,-9.68511e-05,-0.00138918,0.0017386,-0.00257613,0.00212347,
,153,1608561427,651253380, ,0.624465,-1.85919,-1.25247,-1.65515,1.65939,-0.204018, ,0.00314423,0.00367863,-0.000469919,-0.00198754,0.00150666,-0.00102774,
,154,1608561427,667104044, ,0.624515,-1.85913,-1.25247,-1.65518,1.65941,-0.204035, ,-0.0008562,-0.00188168,0.00219666,0.00210094,0.00269422,0.000303514,
,155,1608561427,682954708, ,0.624501,-1.85916,-1.25244,-1.65515,1.65946,-0.20403, ,0.000757368,-0.0019299,5.19023e-06,-0.000126326,-0.00291314,0.00144265,
,156,1608561427,698805372, ,0.624513,-1.85919,-1.25244,-1.65515,1.65941,-0.204007, ,-0.00235806,0.00200373,0.000502802,-0.00173544,0.00174713,-0.00227865,
,157,1608561427,714656036, ,0.624476,-1.85916,-1.25243,-1.65518,1.65944,-0.204043, ,0.000798744,-0.0004551,0.000986019,-0.000310534,-0.00126182,-0.00143652,
,158,1608561427,730506700, ,0.624488,-1.85917,-1.25242,-1.65518,1.65942,-0.204066, ,-0.000368304,-0.0020213,-0.00454342,0.000540147,-0.000261092,0.00381908,
,159,1608561427,746357364, ,0.624483,-1.8592,-1.25249,-1.65517,1.65941,-0.204005, ,0.00167859,0.000660814,0.00164673,0.00216138,0.00220196,-0.0024854,
,160,1608561427,762208028, ,0.624509,-1.85919,-1.25246,-1.65514,1.65945,-0.204045, ,-0.00158179,0.00032308,0.000645879,-0.00136474,-0.00252649,0.000642854,
,161,1608561427,778058692, ,0.624484,-1.85918,-1.25245,-1.65516,1.65941,-0.204035, ,-0.000873218,-0.00193071,0.00147313,0.00105049,0.00142438,0.000632288,
,162,1608561427,793909356, ,0.62447,-1.85921,-1.25243,-1.65514,1.65943,-0.204025, ,-0.000584707,0.00219349,-0.00232169,-0.00110684,0.000646185,0.0012893,
,163,1608561427,809760020, ,0.624461,-1.85918,-1.25247,-1.65516,1.65944,-0.204004, ,0.00258677,0.00123305,0.00145741,-0.000908494,0.000649654,-0.00386668,
,164,1608561427,825610684, ,0.624502,-1.85916,-1.25244,-1.65518,1.65945,-0.204065, ,-0.00216545,-0.00283055,-0.00127387,0.00294242,0.000361533,0.000139629,
,165,1608561427,841461348, ,0.624468,-1.8592,-1.25246,-1.65513,1.65946,-0.204063, ,0.00152538,0.00219986,0.00171811,-0.00228254,-0.000782036,0.00140372,
,166,1608561427,857312012, ,0.624492,-1.85917,-1.25244,-1.65517,1.65944,-0.204041, ,0.00127827,-0.0007743,-0.00159901,-0.000107083,0.000488768,-0.000855643,
,167,1608561427,873162676, ,0.624512,-1.85918,-1.25246,-1.65517,1.65945,-0.204055, ,-0.000766162,0.00127226,4.79095e-05,0.00237746,-0.00520713,0.00300142,
,168,1608561427,889013340, ,0.6245,-1.85916,-1.25246,-1.65513,1.65937,-0.204007, ,-0.00296944,-0.00179715,0.00183727,-0.000661248,0.00254603,-0.00133834,
,169,1608561427,904864004, ,0.624453,-1.85919,-1.25243,-1.65514,1.65941,-0.204028, ,0.00118298,0.000780236,-0.00217939,-0.000779829,0.00214966,0.00297723,
,170,1608561427,920714668, ,0.624472,-1.85918,-1.25247,-1.65515,1.65944,-0.203981, ,0.000424465,-0.000623742,0.00169297,-0.00252943,0.000130599,-0.00497293,
,171,1608561427,936565332, ,0.624478,-1.85919,-1.25244,-1.65519,1.65945,-0.20406, ,0.000178912,0.000475028,0.000870304,0.000916707,-0.000873116,-7.01166e-05,
,172,1608561427,952415996, ,0.624481,-1.85918,-1.25242,-1.65518,1.65943,-0.204061, ,0.00250218,-0.00090771,-0.00165721,0.000642355,-0.000797307,0.00159746,
,173,1608561427,968266660, ,0.624521,-1.85919,-1.25245,-1.65517,1.65942,-0.204036, ,-0.00256251,0.000909407,-0.00190915,-7.57174e-05,0.00232018,0.00189314,
,174,1608561427,984117324, ,0.62448,-1.85918,-1.25248,-1.65517,1.65946,-0.204006, ,-0.0017406,-0.00102038,0.00202571,0.00135155,-0.00260114,-0.00215912,
,175,1608561427,999967988, ,0.624453,-1.85919,-1.25245,-1.65515,1.65942,-0.20404, ,0.00313456,-0.000847426,-0.0007049,-0.0030952,0.00108841,-2.52605e-05,
,176,1608561428,15818652, ,0.624502,-1.85921,-1.25246,-1.6552,1.65943,-0.20404, ,-0.00177616,0.0052805,-0.000595619,0.00165014,0.00124626,0.00207523,
,177,1608561428,31669316, ,0.624474,-1.85912,-1.25247,-1.65517,1.65945,-0.204007, ,0.00192571,-0.00596018,0.00258388,-4.40606e-05,-0.00103818,-0.00387591,
,178,1608561428,47519980, ,0.624505,-1.85922,-1.25243,-1.65517,1.65944,-0.204069, ,-0.00179756,0.00270234,-0.000822126,0.00198869,0.000271664,0.00607358,
,179,1608561428,63370644, ,0.624476,-1.85918,-1.25244,-1.65514,1.65944,-0.203972, ,-0.000709514,0.0003827,0.00138786,0.000633593,-0.00128816,-0.000733889,
,180,1608561428,79221308, ,0.624465,-1.85917,-1.25242,-1.65513,1.65942,-0.203984, ,-8.99845e-05,0.00244258,-0.00250852,0.000351085,0.00127236,-0.00233666,
,181,1608561428,95071972, ,0.624464,-1.85913,-1.25246,-1.65512,1.65944,-0.204021, ,0.000669386,-0.00475672,-0.000100541,-0.000578958,0.000439509,-0.0020485,
,182,1608561428,110922636, ,0.624474,-1.85921,-1.25246,-1.65513,1.65945,-0.204054, ,-0.000324022,0.00135605,0.000475359,-0.00109231,-0.00120053,0.00100144,
,183,1608561428,126773300, ,0.624469,-1.85919,-1.25245,-1.65515,1.65943,-0.204038, ,0.000600916,-0.000128292,-0.00153728,0.00101341,-0.00216442,0.000721987,
,184,1608561428,142623964, ,0.624479,-1.85919,-1.25248,-1.65513,1.65939,-0.204026, ,-0.000375988,0.00333825,0.00182772,-0.00064072,0.00273874,0.000124161,
,185,1608561428,158474628, ,0.624473,-1.85913,-1.25245,-1.65515,1.65944,-0.204024, ,-0.000258519,-0.00354247,-0.000851127,-0.000844557,-0.003063,-0.00012151,
,186,1608561428,174325292, ,0.624468,-1.85919,-1.25246,-1.65516,1.65939,-0.204026, ,0.000483681,0.00126958,0.000745598,0.000931866,0.00542388,-0.00226411,
,187,1608561428,190175956, ,0.624476,-1.85917,-1.25245,-1.65514,1.65947,-0.204062, ,0.0029592,-0.00351343,-0.000106811,0.000803478,-0.000408961,-0.000134634,
,188,1608561428,206026620, ,0.624523,-1.85923,-1.25245,-1.65513,1.65947,-0.204064, ,-0.00151976,0.00553573,-0.000804384,-0.000924171,-0.00138018,0.00133946,
,189,1608561428,221877284, ,0.624499,-1.85914,-1.25247,-1.65515,1.65945,-0.204043, ,-0.000902698,-0.00588398,0.00211563,0.000244324,-0.00128976,-0.00233686,
,190,1608561428,237727948, ,0.624485,-1.85923,-1.25243,-1.65514,1.65943,-0.20408, ,-0.000476646,0.00437362,-0.00296268,-0.0037555,-0.00234107,0.00314029,
,191,1608561428,253578612, ,0.624477,-1.85916,-1.25248,-1.6552,1.65939,-0.20403, ,0.00226526,-0.000489954,0.00307842,0.00196786,7.40188e-05,-0.00307133,
,192,1608561428,269429276, ,0.624513,-1.85917,-1.25243,-1.65517,1.65939,-0.204079, ,-0.00381795,4.05768e-05,-0.000165793,-0.000516812,0.00199018,0.00452606,
,193,1608561428,285279940, ,0.624452,-1.85917,-1.25243,-1.65518,1.65942,-0.204007, ,0.00274236,-0.000972122,-0.00209788,0.00306668,0.00101893,0.000822876,
,194,1608561428,301130604, ,0.624496,-1.85918,-1.25247,-1.65513,1.65944,-0.203994, ,-0.00234793,-0.00015753,0.000104676,-0.00123128,-0.0013862,-0.00204314,
,195,1608561428,316981268, ,0.624459,-1.85919,-1.25246,-1.65515,1.65942,-0.204027, ,0.00134598,0.000321728,-0.000435654,-0.000319582,-0.000978954,0.000691107,
,196,1608561428,332831932, ,0.62448,-1.85918,-1.25247,-1.65515,1.6594,-0.204016, ,-0.00298002,-0.000351527,0.0015104,-0.00143453,0.00319248,-0.000701982,
,197,1608561428,348682596, ,0.624433,-1.85919,-1.25245,-1.65518,1.65945,-0.204027, ,0.00316275,0.00130555,0.00113167,-0.00118313,-0.00102126,0.000824166,
,198,1608561428,364533260, ,0.624483,-1.85917,-1.25243,-1.6552,1.65943,-0.204014, ,0.000372705,-0.000668705,-0.00136271,0.00256579,0.000916956,-0.00124933,
,199,1608561428,380383924, ,0.624489,-1.85918,-1.25245,-1.65516,1.65945,-0.204033, ,-0.00174723,0.000109255,-0.00102427,-0.000792678,-0.000489072,-0.00136662,
,200,1608561428,396234588, ,0.624461,-1.85918,-1.25247,-1.65517,1.65944,-0.204055, ,0.00352246,-0.0013644,-0.00102755,-0.000185374,-0.00109963,-3.55262e-05,
,201,1608561428,412085252, ,0.624517,-1.8592,-1.25248,-1.65517,1.65942,-0.204056, ,-0.00274904,0.0010671,0.0014844,-0.000316339,0.00106994,0.000686118,
,202,1608561428,427935916, ,0.624473,-1.85918,-1.25246,-1.65518,1.65944,-0.204045, ,0.00159459,0.000659634,2.75283e-05,0.000475919,-0.00184184,-0.000113654,
,203,1608561428,443786580, ,0.624499,-1.85917,-1.25246,-1.65517,1.65941,-0.204047, ,-0.000675177,-0.002509,0.00121906,0.00176807,0.00051917,-0.000519986,
,204,1608561428,459637244, ,0.624488,-1.85921,-1.25244,-1.65514,1.65942,-0.204055, ,-0.00291657,0.00251079,0.000154947,-0.00311394,0.00245975,0.00518427,
,205,1608561428,475487908, ,0.624442,-1.85917,-1.25244,-1.65519,1.65946,-0.203973, ,0.00257862,-1.24327e-06,0.00104226,-5.85538e-06,-0.00404911,-0.00355983,
,206,1608561428,491338572, ,0.624483,-1.85917,-1.25242,-1.65519,1.65939,-0.204029, ,0.000287677,-0.000596524,-0.00304985,0.000230275,0.000864535,-0.000627073,
,207,1608561428,507189236, ,0.624487,-1.85918,-1.25247,-1.65519,1.65941,-0.204039, ,-0.00112144,0.000304931,0.00116569,0.00147778,0.00247181,0.000244068,
,208,1608561428,523039900, ,0.624469,-1.85917,-1.25245,-1.65516,1.65945,-0.204035, ,0.000297596,0.00152812,0.00150606,7.34852e-05,0.000319366,0.00112908,
,209,1608561428,538890564, ,0.624474,-1.85915,-1.25243,-1.65516,1.65945,-0.204017, ,0.00144236,-0.0018852,-0.00161405,0.000571017,-0.00191602,-0.0026242,
,210,1608561428,554741228, ,0.624497,-1.85918,-1.25245,-1.65515,1.65942,-0.204059, ,-0.00127051,0.000757621,0.000248147,-0.000606236,-0.00023293,-0.000644461,
,211,1608561428,570591892, ,0.624477,-1.85917,-1.25245,-1.65516,1.65942,-0.204069, ,0.0014619,-0.00237049,0.000735431,-0.00232376,0.00152302,0.00238568,
,212,1608561428,586442556, ,0.6245,-1.85921,-1.25244,-1.6552,1.65944,-0.204031, ,-0.000803985,0.0043247,-0.0020153,0.00264251,-0.003361,0.000785855,
,213,1608561428,602293220, ,0.624487,-1.85914,-1.25247,-1.65516,1.65939,-0.204019, ,-0.00067981,-0.00107743,0.00155696,-0.0019207,0.0027146,0.000816887,
,214,1608561428,618143884, ,0.624477,-1.85915,-1.25244,-1.65519,1.65943,-0.204006, ,0.00059268,0.000111914,-0.000951662,0.00107336,0.00117419,-0.00161955,
,215,1608561428,633994548, ,0.624486,-1.85915,-1.25246,-1.65517,1.65945,-0.204032, ,-0.00132504,-0.0023495,-4.17021e-05,6.40337e-06,-0.000690141,0.00224245,
,216,1608561428,649845212, ,0.624465,-1.85919,-1.25246,-1.65517,1.65944,-0.203996, ,-0.000637021,0.000259088,0.0013575,0.00122692,-0.00248409,-0.00469808,
,217,1608561428,665695876, ,0.624455,-1.85919,-1.25244,-1.65515,1.6594,-0.20407, ,0.00227509,0.0050497,-0.0016092,-0.00158429,0.00311297,0.00204202,
,218,1608561428,681546540, ,0.624491,-1.85911,-1.25246,-1.65518,1.65945,-0.204038, ,-0.00093734,-0.0056023,0.001821,-3.18426e-05,-0.00145434,-0.00101401,
,219,1608561428,697397204, ,0.624476,-1.85919,-1.25244,-1.65518,1.65943,-0.204054, ,0.00110244,0.00189412,-0.000414309,-0.000179998,-0.000931446,0.000777109,
,220,1608561428,713247868, ,0.624493,-1.85916,-1.25244,-1.65518,1.65941,-0.204042, ,0.000590261,-0.000201554,-0.00110168,0.00155276,0.00172572,0.0023466,
,221,1608561428,729098532, ,0.624503,-1.85917,-1.25246,-1.65515,1.65944,-0.204005, ,-0.00254421,-0.00225707,0.00197231,-0.000258247,-0.000661629,-0.00323985,
,222,1608561428,744949196, ,0.624463,-1.8592,-1.25243,-1.65516,1.65943,-0.204056, ,0.00113408,0.000797782,-0.00230599,0.000499121,-0.000874061,0.00306352,
,223,1608561428,760799860, ,0.62448,-1.85919,-1.25246,-1.65515,1.65942,-0.204007, ,-0.0021128,0.000435359,0.00155626,-0.00186095,0.00168944,-0.000346858,
,224,1608561428,776650524, ,0.624447,-1.85918,-1.25244,-1.65518,1.65944,-0.204013, ,0.00177673,-0.000299467,0.000135695,0.00330327,0.000100774,-0.00237685,
,225,1608561428,792501188, ,0.624475,-1.85919,-1.25244,-1.65513,1.65944,-0.204051, ,-0.00014965,0.000447121,0.000516636,-0.00432444,-0.00316331,0.00285596,
,226,1608561428,808351852, ,0.624473,-1.85918,-1.25243,-1.6552,1.65939,-0.204005, ,0.0002247,-0.000611845,-0.00181298,0.00274448,0.000964513,-0.00161548,
,227,1608561428,824202516, ,0.624476,-1.85919,-1.25246,-1.65515,1.65941,-0.204031, ,-0.000715757,0.00387076,0.00115064,0.000167556,0.0019632,-0.00150953,
,228,1608561428,840053180, ,0.624465,-1.85913,-1.25244,-1.65515,1.65944,-0.204055, ,0.0007517,-0.00261035,-0.00124571,-0.00127218,0.000676834,0.00419319,
,229,1608561428,855903844, ,0.624477,-1.85917,-1.25246,-1.65517,1.65945,-0.203988, ,0.0014596,0.000591047,0.00189311,0.00313186,-0.00179222,-0.00413943,
,230,1608561428,871754508, ,0.6245,-1.85916,-1.25243,-1.65512,1.65942,-0.204054, ,-0.00293285,-0.00264583,-0.00126842,-0.00249564,-0.000187876,0.00131104,
,231,1608561428,887605172, ,0.624454,-1.8592,-1.25245,-1.65516,1.65942,-0.204033, ,0.00249193,0.00293637,3.21674e-05,9.34082e-06,-0.000543613,-0.00181783,
,232,1608561428,903455836, ,0.624493,-1.85916,-1.25245,-1.65516,1.65941,-0.204062, ,-0.00085948,-0.000959136,0.000515933,0.00237951,0.00278156,0.00579232,
,233,1608561428,919306500, ,0.624479,-1.85917,-1.25244,-1.65512,1.65945,-0.20397, ,0.000482207,0.0010501,-0.000948515,-0.00251845,-0.00155944,-0.00194562,
,234,1608561428,935157164, ,0.624487,-1.85916,-1.25246,-1.65516,1.65943,-0.204001, ,0.000396649,-0.000621165,0.00127642,8.00306e-05,-0.000689075,-0.00297081,
,235,1608561428,951007828, ,0.624493,-1.85917,-1.25244,-1.65516,1.65942,-0.204048, ,-0.00320502,-0.00262106,-0.0022661,-0.000850461,0.00116081,0.000221875,
,236,1608561428,966858492, ,0.624443,-1.85921,-1.25247,-1.65517,1.65944,-0.204045, ,0.00147849,0.00267084,0.000841606,0.000923747,0.00131718,0.000859021,
,237,1608561428,982709156, ,0.624466,-1.85917,-1.25246,-1.65516,1.65946,-0.204031, ,0.000448434,-0.0001786,0.00171,0.000460866,-0.00250028,0.00154193,
,238,1608561428,998559820, ,0.624473,-1.85917,-1.25243,-1.65515,1.65942,-0.204007, ,0.00026225,-0.000946066,-0.000383618,0.000324642,0.00149904,0.00054003,
,239,1608561429,14410484, ,0.624477,-1.85918,-1.25244,-1.65515,1.65944,-0.203998, ,0.00067599,-0.000445174,0.000470474,-0.00143084,-0.000156298,-0.00440104,
,240,1608561429,30261148, ,0.624488,-1.85919,-1.25243,-1.65517,1.65944,-0.204068, ,-0.000119821,0.000696616,-0.00172572,-0.000478851,-0.00101914,0.00301928,
,241,1608561429,46111812, ,0.624486,-1.85918,-1.25246,-1.65518,1.65942,-0.20402, ,0.00074415,0.0002027,-0.000356313,0.00107605,0.00121033,-0.00283596,
,242,1608561429,61962476, ,0.624498,-1.85918,-1.25246,-1.65516,1.65944,-0.204065, ,-0.000784303,0.000377271,0.000222815,0.000539451,-0.00303979,0.00355103,
,243,1608561429,77813140, ,0.624485,-1.85917,-1.25246,-1.65515,1.65939,-0.204009, ,9.20045e-05,-0.00176507,0.00149964,-0.000192234,0.00330508,-0.00130486,
,244,1608561429,93663804, ,0.624487,-1.8592,-1.25244,-1.65516,1.65945,-0.204029, ,-0.00121973,1.74859e-05,0.00117845,0.00160884,-0.00103339,-5.55395e-05,
,245,1608561429,109514468, ,0.624468,-1.8592,-1.25242,-1.65513,1.65943,-0.20403, ,-0.000374693,0.00165797,-0.00214318,-0.00235777,-0.000728766,-0.000142543,
,246,1608561429,125365132, ,0.624462,-1.85917,-1.25245,-1.65517,1.65942,-0.204032, ,0.00203848,0.000592529,-0.00106797,-0.00202867,-0.000698053,8.48328e-05,
,247,1608561429,141215796, ,0.624494,-1.85916,-1.25247,-1.6552,1.65941,-0.204031, ,-0.000580608,-0.000108318,0.001488,0.000184719,-0.00116605,0.00239052,
,248,1608561429,157066460, ,0.624485,-1.85916,-1.25244,-1.6552,1.65939,-0.203993, ,-0.00133484,-0.00104866,-8.59252e-05,0.00513565,0.000788635,-0.00216949,
,249,1608561429,172917124, ,0.624464,-1.85918,-1.25245,-1.65511,1.6594,-0.204028, ,-0.00129113,0.000668474,-0.00230509,-0.00237007,-0.000698677,-0.00123942,
,250,1608561429,188767788, ,0.624443,-1.85917,-1.25248,-1.65515,1.65939,-0.204047, ,0.000825336,0.00233587,0.000776683,0.000171309,0.00288285,0.000197219,
,251,1608561429,204618452, ,0.624456,-1.85913,-1.25247,-1.65515,1.65944,-0.204044, ,-0.000207246,-0.00362057,-4.86245e-06,-0.00192017,-0.00106965,0.00234489,
,252,1608561429,220469116, ,0.624453,-1.85919,-1.25247,-1.65518,1.65942,-0.204007, ,0.0013824,0.00137184,0.00187872,0.00197244,-0.00194013,0.00201455,
,253,1608561429,236319780, ,0.624475,-1.85917,-1.25244,-1.65515,1.65939,-0.203975, ,0.000461291,-0.000576933,-0.00182111,-0.00019907,0.00060486,-0.00245048,
,254,1608561429,252170444, ,0.624482,-1.85918,-1.25247,-1.65515,1.6594,-0.204014, ,-1.85408e-06,0.000581747,0.00236085,-0.00216365,0.000212178,0.00200883,
,255,1608561429,268021108, ,0.624482,-1.85917,-1.25243,-1.65519,1.6594,-0.203982, ,-0.000939894,-0.0032036,-1.77117e-05,0.00303566,0.000292842,-0.00365785,
,256,1608561429,283871772, ,0.624467,-1.85922,-1.25243,-1.65514,1.65941,-0.20404, ,0.000583989,0.00429578,-4.49671e-06,-0.00218845,0.00135787,-0.00100352,
,257,1608561429,299722436, ,0.624476,-1.85915,-1.25243,-1.65517,1.65943,-0.204056, ,0.000743873,-0.00155024,-0.000892902,0.00169995,-0.00190203,0.00121765,
,258,1608561429,315573100, ,0.624488,-1.85918,-1.25245,-1.65515,1.6594,-0.204037, ,0.00128072,-9.99627e-05,-0.00109244,-0.00140753,0.000308958,0.000661814,
,259,1608561429,331423764, ,0.624509,-1.85918,-1.25246,-1.65517,1.6594,-0.204026, ,-0.00180668,-0.00146111,0.00186755,0.000385499,0.00252844,0.00255664,
,260,1608561429,347274428, ,0.62448,-1.8592,-1.25243,-1.65516,1.65944,-0.203986, ,0.000687023,0.00118075,0.00049372,0.000259471,-0.00321681,-0.00117429,
,261,1608561429,363125092, ,0.624491,-1.85918,-1.25243,-1.65516,1.65939,-0.204004, ,-0.00153508,0.000510595,-0.00181151,0.00199034,0.0021713,-0.000949639,
,262,1608561429,378975756, ,0.624466,-1.85917,-1.25245,-1.65513,1.65943,-0.204019, ,0.00139935,-0.00109753,-0.000924285,-0.00372396,0.000703734,-0.0016847,
,263,1608561429,394826420, ,0.624489,-1.85919,-1.25247,-1.65519,1.65944,-0.204046, ,-4.92023e-05,-0.00248947,0.000595002,0.0028704,-0.00490181,-0.00138563,
,264,1608561429,410677084, ,0.624488,-1.85923,-1.25246,-1.65514,1.65936,-0.204068, ,-0.00273061,0.00257284,0.00135766,0.000243262,0.00576664,0.000833553,
,265,1608561429,426527748, ,0.624445,-1.85919,-1.25244,-1.65514,1.65945,-0.204055, ,0.00205131,-0.00128217,0.000117747,-0.0023509,-0.00160857,0.00217209,
,266,1608561429,442378412, ,0.624477,-1.85921,-1.25244,-1.65517,1.65943,-0.20402, ,-0.00171188,0.00091339,0.000398368,-0.00122336,-0.000713874,0.000238675,
,267,1608561429,458229076, ,0.62445,-1.8592,-1.25243,-1.65519,1.65941,-0.204017, ,0.00197409,0.00302504,-0.00311756,0.00221151,-4.72564e-05,-0.00098495,
,268,1608561429,474079740, ,0.624481,-1.85915,-1.25248,-1.65516,1.65941,-0.204032, ,0.000636476,-0.00368156,0.00340231,0.000510526,0.00245542,0.000344688,
,269,1608561429,489930404, ,0.624491,-1.85921,-1.25243,-1.65515,1.65945,-0.204027, ,-0.00158588,0.00182343,-0.00120489,0.000503232,-0.0036646,0.000188493,
,270,1608561429,505781068, ,0.624466,-1.85918,-1.25244,-1.65514,1.65939,-0.204024, ,0.00050517,-0.000672131,-6.17442e-05,0.000778432,0.00057615,0.000584148,
,271,1608561429,521631732, ,0.624474,-1.85919,-1.25245,-1.65513,1.6594,-0.204014, ,-0.000453868,0.000166103,-0.00112326,-0.00295808,0.00266482,-0.0013978,
,272,1608561429,537482396, ,0.624467,-1.85918,-1.25246,-1.65518,1.65945,-0.204037, ,0.00172685,-0.000125052,0.000500391,0.00130523,-0.000944361,0.00074639,
,273,1608561429,553333060, ,0.624494,-1.85919,-1.25246,-1.65516,1.65943,-0.204025, ,-0.00313472,0.00114342,-0.000109599,-0.00112507,0.000119168,0.000475204,
,274,1608561429,569183724, ,0.624445,-1.85917,-1.25246,-1.65517,1.65943,-0.204017, ,0.00183097,0.0011222,0.0016176,0.000258268,-0.000919568,0.00121895,
,275,1608561429,585034388, ,0.624474,-1.85915,-1.25243,-1.65517,1.65942,-0.203998, ,0.00165156,-0.000581235,0.000120296,0.00247915,0.00135924,-0.00209639,
,276,1608561429,600885052, ,0.6245,-1.85916,-1.25243,-1.65513,1.65944,-0.204031, ,0.000231899,0.000465052,-0.00332316,-0.00140329,-0.00255392,0.00102231,
,277,1608561429,616735716, ,0.624504,-1.85915,-1.25248,-1.65515,1.6594,-0.204015, ,-0.00124167,-0.00186214,0.000529419,-0.000768278,0.00106083,-0.00188603,
,278,1608561429,632586380, ,0.624484,-1.85918,-1.25247,-1.65516,1.65942,-0.204045, ,-0.00261662,0.00188903,0.000577506,-0.00132559,0.000641997,0.00323566,
,279,1608561429,648437044, ,0.624442,-1.85915,-1.25247,-1.65519,1.65943,-0.203994, ,0.00325985,-0.00105225,-0.000144061,0.00161752,-0.00206259,-0.00110219,
,280,1608561429,664287708, ,0.624494,-1.85917,-1.25247,-1.65516,1.65939,-0.204011, ,-0.00218067,0.0013101,0.000139568,-0.000964854,0.00258544,-0.000854942,
,281,1608561429,680138372, ,0.62446,-1.85915,-1.25247,-1.65518,1.65943,-0.204025, ,0.00107011,-0.00206016,0.000540774,8.61351e-05,0.0010294,0.000507115,
,282,1608561429,695989036, ,0.624477,-1.85918,-1.25246,-1.65517,1.65945,-0.204017, ,0.00166414,0.000192698,0.000989426,0.00105145,-0.000981708,-0.00303484,
,283,1608561429,711839700, ,0.624503,-1.85918,-1.25244,-1.65516,1.65944,-0.204065, ,0.000829181,-0.00100792,-0.00121339,-0.000394458,-0.00148386,0.00177296,
,284,1608561429,727690364, ,0.624516,-1.85919,-1.25246,-1.65516,1.65941,-0.204037, ,-0.00311388,0.00128445,-0.0005596,-0.00117283,-0.00119836,6.56317e-05,
,285,1608561429,743541028, ,0.624467,-1.85917,-1.25247,-1.65518,1.65939,-0.204035, ,0.00140354,0.00139651,-0.000892928,0.00242961,0.00254812,-0.00223494,
,286,1608561429,759391692, ,0.624489,-1.85915,-1.25248,-1.65514,1.65943,-0.204071, ,-0.000946761,-0.00231004,4.69062e-05,0.000277491,0.000303071,0.00397567,
,287,1608561429,775242356, ,0.624474,-1.85919,-1.25248,-1.65514,1.65944,-0.204008, ,0.00164905,0.00175062,0.00141419,-0.000683597,-0.0024114,5.66189e-05,
,288,1608561429,791093020, ,0.6245,-1.85916,-1.25246,-1.65515,1.6594,-0.204007, ,-0.00155882,-4.42652e-05,-0.000733093,-2.12881e-05,0.00233783,-0.000977964,
,289,1608561429,806943684, ,0.624475,-1.85916,-1.25247,-1.65515,1.65944,-0.204022, ,0.00118913,1.41506e-05,0.000421538,-0.00279568,0.000412342,0.000647655,
,290,1608561429,822794348, ,0.624494,-1.85916,-1.25246,-1.65519,1.65944,-0.204012, ,-0.00080063,-0.00175764,0.00020806,0.00290253,-0.00132179,-0.00129505,
,291,1608561429,838645012, ,0.624481,-1.85919,-1.25246,-1.65515,1.65942,-0.204033, ,-0.00100374,-0.00128713,0.00102023,-0.000282368,0.00114137,0.000533272,
,292,1608561429,854495676, ,0.624466,-1.85921,-1.25245,-1.65515,1.65944,-0.204024, ,0.00141734,0.000894477,-0.00293953,0.000649371,-0.00122191,0.00122299,
,293,1608561429,870346340, ,0.624488,-1.85919,-1.25249,-1.65514,1.65942,-0.204005, ,-7.46008e-05,-0.00271027,-0.000269508,-0.00171513,-0.000436487,-0.000504118,
,294,1608561429,886197004, ,0.624487,-1.85924,-1.2525,-1.65517,1.65941,-0.204013, ,-0.000198036,0.00346646,0.00232751,-0.00122734,5.61642e-05,-0.00105998,
,295,1608561429,902047668, ,0.624484,-1.85918,-1.25246,-1.65519,1.65942,-0.20403, ,0.00199343,-0.00214608,-0.00218523,-0.000121501,0.00148994,0.000366505,
,296,1608561429,917898332, ,0.624515,-1.85922,-1.25249,-1.65519,1.65944,-0.204024, ,-0.00198767,0.000209941,-0.00289404,0.00210618,-0.000321573,-1.93729e-05,
,297,1608561429,933748996, ,0.624484,-1.85921,-1.25254,-1.65516,1.65943,-0.204024, ,0.000338409,0.00143622,-0.00859492,0.00112659,-0.000279505,-0.00168852,
,298,1608561429,949599660, ,0.624489,-1.85919,-1.25268,-1.65514,1.65943,-0.204051, ,0.000638243,-0.00100056,-0.0125678,0.00392827,-0.00182419,0.00120759,
,299,1608561429,965450324, ,0.624499,-1.85921,-1.25288,-1.65508,1.6594,-0.204032, ,4.60414e-05,0.00292084,-0.0185829,0.00867573,0.00122351,0.000763534,
,300,1608561429,981300988, ,0.6245,-1.85916,-1.25317,-1.65494,1.65942,-0.20402, ,0.00169438,-0.00220398,-0.015581,0.00869049,0.00288016,-0.00312543,
,301,1608561429,997151652, ,0.624527,-1.8592,-1.25342,-1.6548,1.65947,-0.204069, ,0.000254625,-0.00295461,-0.0187603,0.015436,-0.00301771,0.00188742,
,302,1608561430,13002316, ,0.624531,-1.85924,-1.25371,-1.65456,1.65942,-0.204039, ,-0.00120735,0.000471524,-0.0178553,0.0141185,0.00124357,0.00188088,
,303,1608561430,28852980, ,0.624512,-1.85923,-1.254,-1.65433,1.65944,-0.20401, ,-0.0026043,-0.00171936,-0.021391,0.022996,-0.00191208,0.00106942,
,304,1608561430,44703644, ,0.624471,-1.85926,-1.25434,-1.65397,1.65941,-0.203993, ,0.0024564,0.00466953,-0.0210839,0.0223055,0.000966888,-0.00221235,
,305,1608561430,60554308, ,0.624509,-1.85919,-1.25467,-1.65362,1.65942,-0.204028, ,0.000729752,-0.00176834,-0.028105,0.0285425,0.00182161,-0.00042346,
,306,1608561430,76404972, ,0.624521,-1.85922,-1.25512,-1.65316,1.65945,-0.204034, ,-0.00180001,-8.77945e-05,-0.0313523,0.0313994,-0.00324964,0.00258086,
,307,1608561430,92255636, ,0.624492,-1.85922,-1.25561,-1.65267,1.6594,-0.203993, ,0.000917846,-0.000313223,-0.0344315,0.0342711,0.002726,-0.000812631,
,308,1608561430,108106300, ,0.624507,-1.85922,-1.25616,-1.65212,1.65944,-0.204006, ,-0.000122127,0.00454841,-0.037742,0.0376154,0.000609269,0.00159092,
,309,1608561430,123956964, ,0.624505,-1.85915,-1.25676,-1.65153,1.65945,-0.203981, ,0.000857573,0.000508517,-0.0406944,0.0416233,-0.000133784,0.00135208,
,310,1608561430,139807628, ,0.624519,-1.85914,-1.2574,-1.65087,1.65945,-0.20396, ,-0.00184454,0.0064931,-0.043199,0.0418631,-8.32258e-05,0.00553592,
,311,1608561430,155658292, ,0.624489,-1.85904,-1.25809,-1.6502,1.65945,-0.203872, ,0.000661725,0.011912,-0.043716,0.044325,-0.00184084,0.00585064,
,312,1608561430,171508956, ,0.6245,-1.85885,-1.25878,-1.6495,1.65942,-0.203779, ,-0.000626773,0.0136134,-0.0551132,0.0536743,0.00178001,0.00540201,
,313,1608561430,187359620, ,0.62449,-1.85863,-1.25965,-1.64865,1.65945,-0.203694, ,0.000755893,0.0171548,-0.056244,0.0517457,-0.00275303,0.00694426,
,314,1608561430,203210284, ,0.624502,-1.85836,-1.26054,-1.64783,1.6594,-0.203584, ,0.00127048,0.0143641,-0.0574084,0.0550361,0.00225375,0.0132628,
,315,1608561430,219060948, ,0.624522,-1.85813,-1.26145,-1.64696,1.65944,-0.203373, ,0.000885754,0.0180011,-0.0604812,0.0591038,0.00111769,0.0130886,
,316,1608561430,234911612, ,0.624536,-1.85785,-1.26241,-1.64602,1.65946,-0.203166, ,0.00320473,0.0195746,-0.0640769,0.0604793,-0.00166283,0.0127075,
,317,1608561430,250762276, ,0.624587,-1.85754,-1.26343,-1.64506,1.65943,-0.202964, ,0.00156518,0.0214517,-0.0675166,0.0647737,-0.000314487,0.0126123,
,318,1608561430,266612940, ,0.624612,-1.8572,-1.2645,-1.64403,1.65943,-0.202764, ,0.0113019,0.0176113,-0.0678881,0.0670662,0.00119516,0.0108742,
,319,1608561430,282463604, ,0.624791,-1.85692,-1.26558,-1.64297,1.65945,-0.202592, ,0.0133181,0.0189167,-0.0703775,0.0709387,-0.00158822,0.0126641,
,320,1608561430,298314268, ,0.625002,-1.85662,-1.26669,-1.64185,1.65942,-0.202391, ,0.0142493,0.0218173,-0.0797083,0.0764116,0.00248622,0.0138546,
,321,1608561430,314164932, ,0.625228,-1.85627,-1.26795,-1.64064,1.65946,-0.202172, ,0.0160892,0.0144838,-0.0797346,0.0785351,-0.00126449,0.0110266,
,322,1608561430,330015596, ,0.625483,-1.85604,-1.26922,-1.63939,1.65944,-0.201997, ,0.0169759,0.0115952,-0.084212,0.0759835,-0.00172309,0.0159637,
,323,1608561430,345866260, ,0.625752,-1.85586,-1.27055,-1.63819,1.65941,-0.201744, ,0.00902107,0.0132872,-0.0887271,0.0843064,-0.000171348,0.0158934,
,324,1608561430,361716924, ,0.625895,-1.85565,-1.27196,-1.63685,1.65941,-0.201492, ,0.0126241,0.0142283,-0.0910739,0.0847132,0.00230557,0.0156893,
,325,1608561430,377567588, ,0.626095,-1.85542,-1.2734,-1.63551,1.65945,-0.201243, ,0.00865747,0.0114556,-0.0936018,0.0895653,-0.00133286,0.0211472,
,326,1608561430,393418252, ,0.626232,-1.85524,-1.27489,-1.63409,1.65943,-0.200908, ,0.0107307,0.0130615,-0.0942126,0.0915075,0.000588583,0.0165696,
,327,1608561430,409268916, ,0.626402,-1.85504,-1.27638,-1.63264,1.65943,-0.200646, ,0.00908998,0.0142267,-0.100752,0.0990885,6.55539e-05,0.0174153,
,328,1608561430,425119580, ,0.626546,-1.85481,-1.27798,-1.63107,1.65944,-0.200369, ,0.00937242,0.0153607,-0.101425,0.100487,0.0003261,0.0144925,
,329,1608561430,440970244, ,0.626695,-1.85457,-1.27958,-1.62947,1.65944,-0.20014, ,0.00694391,0.0149718,-0.107715,0.101409,-0.00137066,0.0158991,
,330,1608561430,456820908, ,0.626805,-1.85433,-1.28129,-1.62787,1.65942,-0.199888, ,0.00819462,0.0107211,-0.112261,0.109042,0.000922209,0.0189753,
,331,1608561430,472671572, ,0.626935,-1.85416,-1.28307,-1.62614,1.65943,-0.199587, ,0.00967333,0.0119778,-0.111583,0.106486,0.00106502,0.0200698,
,332,1608561430,488522236, ,0.627088,-1.85397,-1.28484,-1.62445,1.65945,-0.199269, ,0.00898053,0.00965048,-0.112226,0.112704,-0.000548808,0.0199648,
,333,1608561430,504372900, ,0.627231,-1.85382,-1.28662,-1.62266,1.65944,-0.198952, ,0.00371748,0.0131599,-0.114086,0.117863,-9.16772e-06,0.0151447,
,334,1608561430,520223564, ,0.62729,-1.85361,-1.28843,-1.6208,1.65944,-0.198712, ,0.0127791,0.0107323,-0.114295,0.116484,-0.00126078,0.0179938,
,335,1608561430,536074228, ,0.627492,-1.85344,-1.29024,-1.61895,1.65942,-0.198427, ,0.0103979,0.00935133,-0.122411,0.121668,-0.000748087,0.0217023,
,336,1608561430,551924892, ,0.627657,-1.85329,-1.29218,-1.61702,1.65941,-0.198083, ,0.0141147,0.00788073,-0.120477,0.125641,0.000773921,0.0172628,
,337,1608561430,567775556, ,0.627881,-1.85317,-1.29409,-1.61503,1.65942,-0.19781, ,0.0149092,0.0103944,-0.12614,0.127507,0.000294778,0.0194063,
,338,1608561430,583626220, ,0.628117,-1.853,-1.29609,-1.61301,1.65943,-0.197502, ,0.0172785,0.0148959,-0.126623,0.133996,-2.45304e-05,0.0207918,
,339,1608561430,599476884, ,0.628391,-1.85276,-1.2981,-1.61088,1.65943,-0.197172, ,0.0133684,0.00689265,-0.130214,0.136866,6.74263e-05,0.0200564,
,340,1608561430,615327548, ,0.628603,-1.85266,-1.30016,-1.60872,1.65943,-0.196854, ,0.0148702,0.0134789,-0.134412,0.132788,0.000460118,0.0205071,
,341,1608561430,631178212, ,0.628838,-1.85244,-1.30229,-1.60661,1.65943,-0.196529, ,0.010974,0.00991684,-0.136211,0.139804,-0.00182076,0.0207175,
,342,1608561430,647028876, ,0.629012,-1.85228,-1.30445,-1.60439,1.65941,-0.196201, ,0.0139345,0.0089445,-0.132413,0.141824,0.00121221,0.0243799,
,343,1608561430,662879540, ,0.629233,-1.85214,-1.30655,-1.60215,1.65943,-0.195815, ,0.0150652,0.00900421,-0.134239,0.143098,0.00110187,0.0240484,
,344,1608561430,678730204, ,0.629472,-1.852,-1.30868,-1.59988,1.65944,-0.195433, ,0.0179339,0.0105445,-0.136871,0.147652,-0.000501696,0.0232067,
,345,1608561430,694580868, ,0.629756,-1.85183,-1.31084,-1.59754,1.65943,-0.195066, ,0.0124032,0.00576924,-0.145296,0.143625,0.000325541,0.0233891,
,346,1608561430,710431532, ,0.629953,-1.85174,-1.31315,-1.59526,1.65944,-0.194695, ,0.0185418,0.00716728,-0.148718,0.144085,-0.00123733,0.017062,
,347,1608561430,726282196, ,0.630247,-1.85163,-1.31551,-1.59298,1.65942,-0.194424, ,0.0149459,0.00427208,-0.14218,0.139825,0.00186364,0.0195738,
,348,1608561430,742132860, ,0.630484,-1.85156,-1.31776,-1.59076,1.65945,-0.194114, ,0.015238,0.00548967,-0.144678,0.140752,0.000774942,0.0231831,
,349,1608561430,757983524, ,0.630725,-1.85147,-1.32005,-1.58853,1.65946,-0.193747, ,0.011137,0.00505851,-0.142643,0.134161,-0.00176726,0.021202,
,350,1608561430,773834188, ,0.630902,-1.85139,-1.32231,-1.5864,1.65943,-0.193411, ,0.01771,0.00660855,-0.14069,0.136869,0.000291986,0.0190974,
,351,1608561430,789684852, ,0.631183,-1.85129,-1.32454,-1.58423,1.65944,-0.193108, ,0.0164948,0.00696903,-0.132883,0.137242,-6.09535e-06,0.0205678,
,352,1608561430,805535516, ,0.631444,-1.85118,-1.32665,-1.58206,1.65944,-0.192782, ,0.0158317,0.00499227,-0.131404,0.141299,0.000391989,0.0202213,
,353,1608561430,821386180, ,0.631695,-1.8511,-1.32873,-1.57982,1.65944,-0.192461, ,0.0131727,0.00744355,-0.129596,0.137781,0.000660578,0.0187358,
,354,1608561430,837236844, ,0.631904,-1.85098,-1.33079,-1.57764,1.65946,-0.192164, ,0.0150689,0.00767589,-0.132993,0.133574,0.00018986,0.021869,
,355,1608561430,853087508, ,0.632143,-1.85086,-1.33289,-1.57552,1.65946,-0.191818, ,0.0128229,0.00735248,-0.131576,0.133146,-0.000244597,0.0224036,
,356,1608561430,868938172, ,0.632346,-1.85074,-1.33498,-1.57341,1.65945,-0.191463, ,0.0133746,0.0107723,-0.13223,0.129371,-0.000104014,0.0190696,
,357,1608561430,884788836, ,0.632558,-1.85057,-1.33708,-1.57136,1.65945,-0.19116, ,0.0131435,0.00904034,-0.13083,0.132861,-0.000674594,0.01933,
,358,1608561430,900639500, ,0.632766,-1.85043,-1.33915,-1.56925,1.65944,-0.190854, ,0.0140803,0.0138074,-0.130657,0.127648,-0.000227736,0.023113,
,359,1608561430,916490164, ,0.632989,-1.85021,-1.34122,-1.56723,1.65944,-0.190488, ,0.015048,0.0119419,-0.134269,0.130373,-0.00180695,0.0147388,
,360,1608561430,932340828, ,0.633228,-1.85002,-1.34335,-1.56516,1.65941,-0.190254, ,0.0182769,0.0113927,-0.144402,0.126639,0.0024733,0.017322,
,361,1608561430,948191492, ,0.633518,-1.84984,-1.34564,-1.56315,1.65945,-0.189979, ,0.011517,0.0104683,-0.143231,0.121716,0.000112009,0.0171619,
,362,1608561430,964042156, ,0.6337,-1.84967,-1.34791,-1.56122,1.65945,-0.189707, ,0.0131681,0.0085212,-0.133266,0.121116,-0.00254668,0.02083,
,363,1608561430,979892820, ,0.633909,-1.84954,-1.35002,-1.5593,1.65941,-0.189377, ,0.0145103,0.0121392,-0.133361,0.12352,0.00187519,0.0156619,
,364,1608561430,995743484, ,0.634139,-1.84935,-1.35213,-1.55735,1.65944,-0.189129, ,0.0139485,0.00976005,-0.134426,0.119297,0.000746846,0.0174499,
,365,1608561431,11594148, ,0.63436,-1.84919,-1.35426,-1.55546,1.65945,-0.188852, ,0.0140482,0.00430996,-0.130172,0.118182,-0.000964178,0.0133035,
,366,1608561431,27444812, ,0.634583,-1.84912,-1.35633,-1.55358,1.65944,-0.188641, ,0.014382,0.0118341,-0.12848,0.123909,-0.00101648,0.0193038,
,367,1608561431,43295476, ,0.634811,-1.84894,-1.35836,-1.55162,1.65942,-0.188336, ,0.0166597,0.0040408,-0.125389,0.120844,0.00245974,0.00970681,
,368,1608561431,59146140, ,0.635075,-1.84887,-1.36035,-1.5497,1.65946,-0.188182, ,0.0110175,0.00944562,-0.128909,0.121492,-0.000781326,0.0173895,
,369,1608561431,74996804, ,0.635249,-1.84872,-1.3624,-1.54778,1.65945,-0.187906, ,0.0151441,0.0062875,-0.129021,0.119115,0.00111036,0.0125593,
,370,1608561431,90847468, ,0.635489,-1.84862,-1.36444,-1.54589,1.65946,-0.187707, ,0.0177682,0.00520429,-0.143661,0.134118,-0.000306035,0.0166881,
,371,1608561431,106698132, ,0.635771,-1.84854,-1.36672,-1.54376,1.65946,-0.187442, ,0.0126128,0.00438177,-0.123714,0.111831,0.000642955,0.0110594,
,372,1608561431,122548796, ,0.635971,-1.84847,-1.36868,-1.54199,1.65947,-0.187267, ,0.0135163,0.00565881,-0.124825,0.115445,-0.00349736,0.00974249,
,373,1608561431,138399460, ,0.636185,-1.84838,-1.37066,-1.54016,1.65941,-0.187113, ,0.0112014,-0.000119439,-0.124411,0.117943,0.00396796,0.0170381,
,374,1608561431,154250124, ,0.636363,-1.84838,-1.37263,-1.53829,1.65948,-0.186843, ,0.015579,0.00168785,-0.124637,0.115373,0.000493618,0.0137311,
,375,1608561431,170100788, ,0.63661,-1.84836,-1.3746,-1.53646,1.65949,-0.186625, ,0.0091589,0.00123671,-0.12951,0.115449,-0.00149261,0.00989792,
,376,1608561431,185951452, ,0.636755,-1.84834,-1.37666,-1.53463,1.65946,-0.186468, ,0.0138926,0.00127451,-0.125963,0.115575,0.000782747,0.0126779,
,377,1608561431,201802116, ,0.636975,-1.84832,-1.37865,-1.5328,1.65947,-0.186267, ,0.0123576,0.00396283,-0.122602,0.112608,-0.000231869,0.00937086,
,378,1608561431,217652780, ,0.637171,-1.84825,-1.3806,-1.53102,1.65947,-0.186119, ,0.0148512,-0.00207219,-0.121242,0.111095,0.00255083,0.0120596,
,379,1608561431,233503444, ,0.637406,-1.84829,-1.38252,-1.52926,1.65951,-0.185927, ,0.00986007,0.00704352,-0.121456,0.109649,-0.00368442,0.0112919,
,380,1608561431,249354108, ,0.637563,-1.84817,-1.38444,-1.52752,1.65945,-0.185748, ,0.0107175,0.0040018,-0.117073,0.103123,-0.000555359,0.0081555,
,381,1608561431,265204772, ,0.637732,-1.84811,-1.3863,-1.52588,1.65944,-0.185619, ,0.0144957,0.00658982,-0.114188,0.104116,0.0020518,0.0113348,
,382,1608561431,281055436, ,0.637962,-1.84801,-1.38811,-1.52423,1.65948,-0.18544, ,0.0120113,0.00645639,-0.112668,0.103229,0.00162149,0.0145063,
,383,1608561431,296906100, ,0.638153,-1.8479,-1.3899,-1.5226,1.6595,-0.18521, ,0.0104371,0.00591817,-0.108684,0.101896,0.00113871,0.0111801,
,384,1608561431,312756764, ,0.638318,-1.84781,-1.39162,-1.52098,1.65952,-0.185032, ,0.0147814,0.0118861,-0.109326,0.10231,0.00933871,0.0121815,
,385,1608561431,328607428, ,0.638552,-1.84762,-1.39335,-1.51936,1.65967,-0.184839, ,0.0106391,0.0169127,-0.11003,0.102391,0.00550236,0.0111042,
,386,1608561431,344458092, ,0.638721,-1.84735,-1.3951,-1.51774,1.65976,-0.184663, ,0.0118493,0.0121116,-0.10951,0.0980542,0.00959208,0.0122166,
,387,1608561431,360308756, ,0.638909,-1.84716,-1.39683,-1.51618,1.65991,-0.18447, ,0.00988102,0.0168414,-0.109528,0.100843,0.0155835,0.0102101,
,388,1608561431,376159420, ,0.639065,-1.84689,-1.39857,-1.51458,1.66015,-0.184308, ,0.0116733,0.0123579,-0.106278,0.0978499,0.00801576,0.0126321,
,389,1608561431,392010084, ,0.63925,-1.8467,-1.40025,-1.51303,1.66028,-0.184108, ,0.00936133,0.0111951,-0.105741,0.0953058,0.00757278,0.00621946,
,390,1608561431,407860748, ,0.639399,-1.84652,-1.40193,-1.51152,1.6604,-0.184009, ,0.0119427,0.0127126,-0.104064,0.0946907,0.00312789,0.00867756,
,391,1608561431,423711412, ,0.639588,-1.84632,-1.40358,-1.51002,1.66045,-0.183871, ,0.011448,0.00825368,-0.102481,0.0930172,0.000911119,0.00766509,
,392,1608561431,439562076, ,0.63977,-1.84619,-1.4052,-1.50855,1.66047,-0.18375, ,0.012053,0.00936936,-0.109445,0.0992297,0.000895131,0.00644958,
,393,1608561431,455412740, ,0.639961,-1.84604,-1.40694,-1.50697,1.66048,-0.183648, ,0.00797427,0.0128838,-0.105174,0.0978371,0.000202678,0.00367997,
,394,1608561431,471263404, ,0.640087,-1.84584,-1.4086,-1.50542,1.66048,-0.183589, ,0.012364,0.00426852,-0.107338,0.100898,0.00180743,0.0019406,
,395,1608561431,487114068, ,0.640283,-1.84577,-1.41031,-1.50382,1.66051,-0.183559, ,0.0104146,0.0118962,-0.105576,0.0992352,0.00306689,0.00949515,
,396,1608561431,502964732, ,0.640448,-1.84558,-1.41198,-1.50225,1.66056,-0.183408, ,0.0155039,0.0061283,-0.104981,0.101594,0.00183274,0.0104131,
,397,1608561431,518815396, ,0.640694,-1.84548,-1.41364,-1.50064,1.66059,-0.183243, ,0.00783177,0.00208244,-0.105442,0.100344,0.0045864,0.0155174,
,398,1608561431,534666060, ,0.640818,-1.84545,-1.41531,-1.49905,1.66066,-0.182997, ,0.0147079,0.00717098,-0.104464,0.0990783,0.00609351,0.015052,
,399,1608561431,550516724, ,0.641051,-1.84534,-1.41697,-1.49748,1.66076,-0.182759, ,0.00956716,0.00185286,-0.107012,0.100346,0.0135045,0.0120194,
,400,1608561431,566367388, ,0.641203,-1.84531,-1.41867,-1.49589,1.66097,-0.182568, ,0.0114545,0.00553733,-0.101065,0.0932083,0.0126552,0.00798932,
,401,1608561431,582218052, ,0.641384,-1.84522,-1.42027,-1.49441,1.66117,-0.182441, ,0.0131083,0.00177688,-0.100119,0.0925807,0.0148344,0.0117443,
,402,1608561431,598068716, ,0.641592,-1.84519,-1.42186,-1.49294,1.66141,-0.182255, ,0.0113339,0.00403178,-0.0981938,0.0901766,0.0115065,0.0022134,
,403,1608561431,613919380, ,0.641772,-1.84513,-1.42341,-1.49151,1.66159,-0.18222, ,0.0127248,0.00505456,-0.103306,0.0948924,0.00896764,0.00246565,
,404,1608561431,629770044, ,0.641973,-1.84505,-1.42505,-1.49001,1.66173,-0.182181, ,0.0130468,0.00497665,-0.101926,0.0906721,0.00956107,0.00397324,
,405,1608561431,645620708, ,0.64218,-1.84497,-1.42666,-1.48857,1.66188,-0.182118, ,0.00997201,0.00780958,-0.10158,0.0891025,0.0100802,-0.00151848,
,406,1608561431,661471372, ,0.642338,-1.84484,-1.42827,-1.48716,1.66204,-0.182142, ,0.00982663,0.00406473,-0.101617,0.0937069,0.00915673,-0.000925893,
,407,1608561431,677322036, ,0.642494,-1.84478,-1.42989,-1.48568,1.66219,-0.182157, ,0.0104612,0.0100682,-0.0980074,0.0911602,0.0101516,0.00175218,
,408,1608561431,693172700, ,0.64266,-1.84462,-1.43144,-1.48423,1.66235,-0.182129, ,0.0113975,0.0111543,-0.0967385,0.0824968,0.010696,0.00338125,
,409,1608561431,709023364, ,0.642841,-1.84444,-1.43297,-1.48292,1.66252,-0.182075, ,0.0110357,0.0104235,-0.0967496,0.08632,0.0137269,0.00886343,
,410,1608561431,724874028, ,0.643015,-1.84428,-1.43451,-1.48156,1.66274,-0.181935, ,0.0104786,0.0157757,-0.0977191,0.0892515,0.0109411,0.0115718,
,411,1608561431,740724692, ,0.643182,-1.84403,-1.43605,-1.48014,1.66291,-0.181752, ,0.0126069,0.0151335,-0.102949,0.0839223,0.0107799,0.0166877,
,412,1608561431,756575356, ,0.643381,-1.84379,-1.43769,-1.47881,1.66308,-0.181487, ,0.0104936,0.013854,-0.103119,0.0842038,0.0127382,0.0122425,
,413,1608561431,772426020, ,0.643548,-1.84357,-1.43932,-1.47748,1.66328,-0.181293, ,0.012504,0.0130801,-0.0987565,0.0841982,0.0110271,0.0071011,
,414,1608561431,788276684, ,0.643746,-1.84336,-1.44089,-1.47614,1.66346,-0.18118, ,0.0098177,0.0158149,-0.0994493,0.0882686,0.0135477,0.00434077,
,415,1608561431,804127348, ,0.643901,-1.84311,-1.44246,-1.47474,1.66367,-0.181112, ,0.0118804,0.0130485,-0.094753,0.0813325,0.0119854,-0.00100442,
,416,1608561431,819978012, ,0.64409,-1.8429,-1.44396,-1.47345,1.66386,-0.181128, ,0.0137556,0.0102123,-0.0952781,0.0832469,0.0117361,0.00329461,
,417,1608561431,835828676, ,0.644308,-1.84274,-1.44547,-1.47213,1.66405,-0.181075, ,0.00757509,0.0117945,-0.0937149,0.0821763,0.0144224,-0.00286565,
,418,1608561431,851679340, ,0.644428,-1.84256,-1.44696,-1.47083,1.66428,-0.181121, ,0.0130363,0.0106398,-0.0909549,0.0815844,0.0109647,0.000964725,
,419,1608561431,867530004, ,0.644635,-1.84239,-1.4484,-1.46954,1.66445,-0.181105, ,0.00897369,0.0117505,-0.0900374,0.0862022,0.0125384,-0.00060541,
,420,1608561431,883380668, ,0.644777,-1.8422,-1.44983,-1.46817,1.66465,-0.181115, ,0.0127792,0.00879241,-0.0854663,0.0748761,0.0119476,2.25565e-06,
,421,1608561431,899231332, ,0.644979,-1.84206,-1.45118,-1.46698,1.66484,-0.181115, ,0.0106804,0.0110643,-0.0874618,0.0802534,0.0162683,0.00346892,
,422,1608561431,915081996, ,0.645149,-1.84189,-1.45257,-1.46571,1.6651,-0.18106, ,0.0109008,0.0081855,-0.081084,0.0731515,0.00826494,0.000492857,
,423,1608561431,930932660, ,0.645321,-1.84176,-1.45386,-1.46455,1.66523,-0.181052, ,0.013552,0.0106624,-0.0854492,0.0758323,0.00952411,0.00298931,
,424,1608561431,946783324, ,0.645536,-1.84159,-1.45521,-1.46335,1.66538,-0.181005, ,0.0121184,0.00832248,-0.0870894,0.0711963,0.0126788,0.00338978,
,425,1608561431,962633988, ,0.645728,-1.84145,-1.45659,-1.46222,1.66558,-0.180951, ,0.0108309,0.00823586,-0.0872245,0.0707598,0.00963385,0.0037806,
,426,1608561431,978484652, ,0.6459,-1.84132,-1.45797,-1.4611,1.66573,-0.180891, ,0.00809956,0.0140797,-0.0870907,0.0728889,0.012911,0.00631887,
,427,1608561431,994335316, ,0.646028,-1.8411,-1.45935,-1.45995,1.66594,-0.180791, ,0.0118073,0.0080614,-0.0875745,0.0698774,0.0107262,0.0044613,
,428,1608561432,10185980, ,0.646216,-1.84097,-1.46074,-1.45884,1.66611,-0.18072, ,0.010302,0.0129275,-0.0841806,0.0715779,0.0120563,0.00293568,
,429,1608561432,26036644, ,0.646379,-1.84077,-1.46208,-1.4577,1.6663,-0.180674, ,0.013579,0.00858471,-0.0840442,0.0687431,0.0115271,0.00273915,
,430,1608561432,41887308, ,0.646594,-1.84063,-1.46341,-1.45661,1.66648,-0.18063, ,0.00911927,0.0110787,-0.0837048,0.0734569,0.010095,-0.000403803,
,431,1608561432,57737972, ,0.646739,-1.84046,-1.46473,-1.45545,1.66664,-0.180637, ,0.0143524,0.0130078,-0.0778881,0.0711814,0.00873396,0.00528881,
,432,1608561432,73588636, ,0.646966,-1.84025,-1.46597,-1.45432,1.66678,-0.180553, ,0.0111526,0.0098537,-0.0850853,0.0706083,0.0142407,-0.00217984,
,433,1608561432,89439300, ,0.647143,-1.84009,-1.46732,-1.4532,1.66701,-0.180587, ,0.0133908,0.010093,-0.086869,0.0714727,0.0131527,-0.00150453,
,434,1608561432,105289964, ,0.647355,-1.83993,-1.46869,-1.45207,1.66721,-0.180611, ,0.00793666,0.0144053,-0.0874307,0.064179,0.0104205,0.00122649,
,435,1608561432,121140628, ,0.647481,-1.83971,-1.47008,-1.45105,1.66738,-0.180592, ,0.00930971,0.0121456,-0.0828089,0.0695,0.0137482,0.00233315,
,436,1608561432,136991292, ,0.647628,-1.83951,-1.47139,-1.44995,1.6676,-0.180555, ,0.010556,0.0113914,-0.0857734,0.0625848,0.0132643,-0.00268262,
,437,1608561432,152841956, ,0.647796,-1.83933,-1.47275,-1.44896,1.66781,-0.180597, ,0.00811775,0.0135854,-0.0843493,0.0677231,0.0129944,0.00175933,
,438,1608561432,168692620, ,0.647924,-1.83912,-1.47409,-1.44788,1.66801,-0.18057, ,0.00917152,0.00952083,-0.0772562,0.0625179,0.013632,0.00283685,
,439,1608561432,184543284, ,0.64807,-1.83897,-1.47531,-1.44689,1.66823,-0.180525, ,0.0116133,0.0115405,-0.0802066,0.0651516,0.0137201,0.00415572,
,440,1608561432,200393948, ,0.648254,-1.83878,-1.47659,-1.44586,1.66845,-0.180459, ,0.00963144,0.0103662,-0.07652,0.0655231,0.0122242,0.00395761,
,441,1608561432,216244612, ,0.648407,-1.83862,-1.4778,-1.44482,1.66864,-0.180396, ,0.0113613,0.00917549,-0.0754733,0.0626411,0.0117452,0.00259209,
,442,1608561432,232095276, ,0.648587,-1.83847,-1.47899,-1.44383,1.66883,-0.180355, ,0.0116369,0.0148356,-0.072405,0.0628929,0.0131789,-0.00179119,
,443,1608561432,247945940, ,0.648771,-1.83824,-1.48014,-1.44283,1.66904,-0.180383, ,0.0113333,0.0112889,-0.0736055,0.0650871,0.010982,-0.000921261,
,444,1608561432,263796604, ,0.648951,-1.83806,-1.48131,-1.4418,1.66921,-0.180398, ,0.00737539,0.0108864,-0.0687632,0.0675266,0.00997131,0.00506949,
,445,1608561432,279647268, ,0.649068,-1.83789,-1.4824,-1.44073,1.66937,-0.180318, ,0.0101494,0.013008,-0.0678433,0.063887,0.0153912,-0.00217105,
,446,1608561432,295497932, ,0.649229,-1.83768,-1.48347,-1.43972,1.66961,-0.180352, ,0.0112223,0.0132544,-0.0675861,0.0605546,0.0121213,0.00150031,
,447,1608561432,311348596, ,0.649406,-1.83747,-1.48455,-1.43876,1.6698,-0.180328, ,0.0109142,0.0153176,-0.0669089,0.0635495,0.0140427,-0.00100461,
,448,1608561432,327199260, ,0.649579,-1.83723,-1.48561,-1.43775,1.67003,-0.180344, ,0.0126503,0.01127,-0.0666237,0.0652998,0.015463,-0.000240963,
,449,1608561432,343049924, ,0.64978,-1.83705,-1.48666,-1.43672,1.67027,-0.180348, ,0.00934619,0.0168465,-0.0664991,0.0584468,0.0125589,-0.000375135,
,450,1608561432,358900588, ,0.649928,-1.83678,-1.48772,-1.43579,1.67047,-0.180354, ,0.0131383,0.0138692,-0.0725712,0.0577099,0.0118482,0.000659609,
,451,1608561432,374751252, ,0.650136,-1.83656,-1.48887,-1.43487,1.67066,-0.180343, ,0.00856861,0.0123104,-0.067698,0.0588649,0.0123262,0.00204459,
,452,1608561432,390601916, ,0.650272,-1.83637,-1.48994,-1.43394,1.67085,-0.180311, ,0.0101399,0.0138273,-0.0711437,0.0580979,0.0114602,-0.000246222,
,453,1608561432,406452580, ,0.650433,-1.83615,-1.49107,-1.43302,1.67104,-0.180315, ,0.0123296,0.0116543,-0.0696073,0.0566337,0.0139005,-0.000206211,
,454,1608561432,422303244, ,0.650628,-1.83596,-1.49217,-1.43212,1.67126,-0.180318, ,0.0111448,0.0123692,-0.0663513,0.0593883,0.0111968,0.00397667,
,455,1608561432,438153908, ,0.650805,-1.83577,-1.49322,-1.43118,1.67143,-0.180255, ,0.00983885,0.010589,-0.0679239,0.0549149,0.0117555,0.00320262,
,456,1608561432,454004572, ,0.650961,-1.8356,-1.4943,-1.43031,1.67162,-0.180204, ,0.0142815,0.0122086,-0.0650479,0.0596049,0.0136943,0.00363368,
,457,1608561432,469855236, ,0.651187,-1.83541,-1.49533,-1.42937,1.67184,-0.180147, ,0.0116887,0.0122971,-0.0636287,0.0575171,0.0109165,0.00655853,
,458,1608561432,485705900, ,0.651373,-1.83521,-1.49634,-1.42845,1.67201,-0.180043, ,0.00959694,0.0115254,-0.0640222,0.0591774,0.0149172,0.00587718,
,459,1608561432,501556564, ,0.651525,-1.83503,-1.49735,-1.42752,1.67225,-0.17995, ,0.015701,0.0148236,-0.0672492,0.0572135,0.0122987,0.00245217,
,460,1608561432,517407228, ,0.651774,-1.83479,-1.49842,-1.42661,1.67244,-0.179911, ,0.0120352,0.0123987,-0.0669653,0.0542324,0.0162648,0.00459552,
,461,1608561432,533257892, ,0.651964,-1.8346,-1.49948,-1.42575,1.6727,-0.179838, ,0.0103511,0.014988,-0.0699605,0.0544042,0.0139351,0.00326695,
,462,1608561432,549108556, ,0.652128,-1.83436,-1.50059,-1.42489,1.67292,-0.179786, ,0.0151025,0.0118233,-0.0725615,0.059827,0.0128224,0.00126586,
,463,1608561432,564959220, ,0.652368,-1.83417,-1.50174,-1.42394,1.67312,-0.179766, ,0.0105444,0.0138205,-0.0701526,0.0549226,0.0136914,0.000123373,
,464,1608561432,580809884, ,0.652535,-1.83395,-1.50285,-1.42307,1.67334,-0.179764, ,0.01122,0.0131724,-0.0665822,0.0554366,0.0138898,0.00107607,
,465,1608561432,596660548, ,0.652713,-1.83374,-1.50391,-1.42219,1.67356,-0.179747, ,0.0147918,0.0118106,-0.0657779,0.0577979,0.0157436,0.00107898,
,466,1608561432,612511212, ,0.652947,-1.83356,-1.50495,-1.42127,1.67381,-0.17973, ,0.0129268,0.0121293,-0.0648874,0.0513516,0.0120443,0.000160644,
,467,1608561432,628361876, ,0.653152,-1.83336,-1.50598,-1.42046,1.674,-0.179727, ,0.00963452,0.0103893,-0.0631385,0.0510499,0.0119547,-0.00230037,
,468,1608561432,644212540, ,0.653305,-1.8332,-1.50698,-1.41965,1.67419,-0.179764, ,0.0117873,0.017649,-0.0618472,0.0498973,0.0119847,-0.000792868,
,469,1608561432,660063204, ,0.653492,-1.83292,-1.50796,-1.41886,1.67438,-0.179776, ,0.0140367,0.00875464,-0.0598124,0.0541015,0.0110038,0.00326651,
,470,1608561432,675913868, ,0.653714,-1.83278,-1.50891,-1.418,1.67455,-0.179725, ,0.0159923,0.014184,-0.0576376,0.050298,0.0152958,-0.00258223,
,471,1608561432,691764532, ,0.653968,-1.83256,-1.50982,-1.4172,1.6748,-0.179766, ,0.0114428,0.0112276,-0.0598478,0.051558,0.00776016,0.00212269,
,472,1608561432,707615196, ,0.654149,-1.83238,-1.51077,-1.41639,1.67492,-0.179732, ,0.0132016,0.0112049,-0.0579771,0.0480391,0.0088473,0.00154083,
,473,1608561432,723465860, ,0.654358,-1.8322,-1.51169,-1.41563,1.67506,-0.179708, ,0.0100212,0.0122558,-0.0600435,0.0518062,0.00905467,-0.00123741,
,474,1608561432,739316524, ,0.654517,-1.83201,-1.51264,-1.41481,1.6752,-0.179727, ,0.0122581,0.0101507,-0.0548907,0.0534947,0.0068026,0.00111085,
,475,1608561432,755167188, ,0.654711,-1.83185,-1.51351,-1.41396,1.67531,-0.17971, ,0.0125433,0.012927,-0.0525147,0.0525368,0.00778391,0.00735266,
,476,1608561432,771017852, ,0.65491,-1.83164,-1.51434,-1.41312,1.67543,-0.179593, ,0.0094292,0.0115974,-0.0539698,0.0519081,0.00753092,0.00739706,
,477,1608561432,786868516, ,0.65506,-1.83146,-1.5152,-1.4123,1.67555,-0.179476, ,0.0149045,0.00964883,-0.0502456,0.0522276,0.00409322,0.00877661,
,478,1608561432,802719180, ,0.655296,-1.8313,-1.51599,-1.41147,1.67562,-0.179337, ,0.0125599,0.010244,-0.052627,0.0504845,0.00704001,0.015673,
,479,1608561432,818569844, ,0.655495,-1.83114,-1.51683,-1.41067,1.67573,-0.179088, ,0.0127437,0.0133618,-0.0536238,0.0481467,0.00499846,0.0111185,
,480,1608561432,834420508, ,0.655697,-1.83093,-1.51768,-1.40991,1.67581,-0.178912, ,0.0120108,0.0100548,-0.0578315,0.0506157,0.00677581,0.00752882,
,481,1608561432,850271172, ,0.655887,-1.83077,-1.5186,-1.40911,1.67592,-0.178793, ,0.0137828,0.0100759,-0.0570386,0.0512668,0.0105759,0.00249908,
,482,1608561432,866121836, ,0.656106,-1.83061,-1.5195,-1.4083,1.67609,-0.178753, ,0.0124159,0.0120138,-0.0557786,0.0506901,0.0133332,-0.00332951,
,483,1608561432,881972500, ,0.656303,-1.83042,-1.52038,-1.40749,1.6763,-0.178806, ,0.0122944,0.00843173,-0.053884,0.0515806,0.0132209,0.00559226,
,484,1608561432,897823164, ,0.656498,-1.83029,-1.52124,-1.40667,1.67651,-0.178717, ,0.0123434,0.0115401,-0.0561909,0.0493385,0.0145705,-0.00127828,
,485,1608561432,913673828, ,0.656693,-1.8301,-1.52213,-1.40589,1.67674,-0.178737, ,0.0114579,0.00830117,-0.0534859,0.0510591,0.0142442,0.00147809,
,486,1608561432,929524492, ,0.656875,-1.82997,-1.52298,-1.40508,1.67696,-0.178714, ,0.0130268,0.0138257,-0.0534433,0.0457076,0.00778677,-0.00145831,
,487,1608561432,945375156, ,0.657081,-1.82975,-1.52382,-1.40436,1.67709,-0.178737, ,0.0149762,0.00955079,-0.0521308,0.0454678,0.0110973,-0.000900452,
,488,1608561432,961225820, ,0.657319,-1.8296,-1.52465,-1.40364,1.67726,-0.178751, ,0.0135489,0.0111765,-0.0488345,0.0464654,0.00971076,-0.000739725,
,489,1608561432,977076484, ,0.657533,-1.82942,-1.52542,-1.4029,1.67742,-0.178763, ,0.0145819,0.00294787,-0.0498702,0.0421713,0.00915318,0.00349365,
,490,1608561432,992927148, ,0.657765,-1.82938,-1.52621,-1.40223,1.67756,-0.178708, ,0.0123494,0.00739504,-0.0450064,0.0454185,0.00943142,0.00365509,
,491,1608561433,8777812, ,0.65796,-1.82926,-1.52693,-1.40151,1.67771,-0.17865, ,0.0134037,0.00762411,-0.043642,0.0430524,0.0081523,0.00602922,
,492,1608561433,24628476, ,0.658173,-1.82914,-1.52762,-1.40083,1.67784,-0.178554, ,0.0141353,0.00810595,-0.0437013,0.0398315,0.00816369,0.00756353,
,493,1608561433,40479140, ,0.658397,-1.82901,-1.52831,-1.4002,1.67797,-0.178434, ,0.0121186,0.00917364,-0.0500382,0.0422034,0.0121097,0.00347048,
,494,1608561433,56329804, ,0.658589,-1.82887,-1.52911,-1.39953,1.67816,-0.178379, ,0.0141369,0.00945445,-0.0533565,0.0390271,0.00867394,0.00427869,
,495,1608561433,72180468, ,0.658813,-1.82872,-1.52995,-1.39891,1.6783,-0.178312, ,0.0133738,0.0105427,-0.0528022,0.0416512,0.00797823,0.00737418,
,496,1608561433,88031132, ,0.659025,-1.82855,-1.53079,-1.39825,1.67843,-0.178195, ,0.0159406,0.0074559,-0.0520165,0.0390034,0.0137454,0.00464509,
,497,1608561433,103881796, ,0.659278,-1.82843,-1.53161,-1.39763,1.67864,-0.178121, ,0.0117805,0.00836246,-0.0530676,0.0366069,0.00951556,0.00460103,
,498,1608561433,119732460, ,0.659464,-1.8283,-1.53245,-1.39705,1.67879,-0.178048, ,0.0137433,0.0111105,-0.0514728,0.042566,0.0107921,0.0036252,
,499,1608561433,135583124, ,0.659682,-1.82812,-1.53327,-1.39638,1.67896,-0.177991, ,0.013883,0.00956394,-0.0486795,0.0400082,0.00841981,-0.000357983,
,500,1608561433,151433788, ,0.659902,-1.82797,-1.53404,-1.39574,1.6791,-0.177996, ,0.015081,0.011497,-0.047919,0.0386316,0.0117941,0.00480019,
,501,1608561433,167284452, ,0.660141,-1.82779,-1.5348,-1.39513,1.67929,-0.17792, ,0.0134322,0.00979277,-0.0421683,0.038569,0.0138549,0.00321091,
,502,1608561433,183135116, ,0.660354,-1.82763,-1.53547,-1.39452,1.6795,-0.177869, ,0.0149661,0.00890538,-0.0440987,0.041255,0.00878693,0.000375891,
,503,1608561433,198985780, ,0.660591,-1.82749,-1.53617,-1.39387,1.67964,-0.177863, ,0.0148987,0.0108603,-0.0417295,0.0413749,0.01297,0.00240993,
,504,1608561433,214836444, ,0.660828,-1.82732,-1.53683,-1.39321,1.67985,-0.177825, ,0.00891974,0.0138567,-0.041756,0.0393159,0.0101049,0.00496238,
,505,1608561433,230687108, ,0.660969,-1.8271,-1.53749,-1.39259,1.68001,-0.177747, ,0.0162262,0.0080145,-0.0429729,0.0346883,0.0146053,0.00493059,
,506,1608561433,246537772, ,0.661226,-1.82697,-1.53817,-1.39204,1.68024,-0.177668, ,0.0114643,0.0138737,-0.0414947,0.0392162,0.00669155,0.0068791,
,507,1608561433,262388436, ,0.661408,-1.82675,-1.53883,-1.39142,1.68035,-0.177559, ,0.0162513,0.00889101,-0.041642,0.0353952,0.0134775,0.00145488,
,508,1608561433,278239100, ,0.661665,-1.82661,-1.53949,-1.39086,1.68056,-0.177536, ,0.0136759,0.0124106,-0.0421669,0.0412294,0.0134857,0.00806359,
,509,1608561433,294089764, ,0.661882,-1.82642,-1.54016,-1.3902,1.68077,-0.177408, ,0.013893,0.00812861,-0.0390204,0.0359736,0.0109356,0.0055528,
,510,1608561433,309940428, ,0.662102,-1.82629,-1.54078,-1.38963,1.68095,-0.17732, ,0.0135604,0.00454645,-0.0413725,0.0334485,0.0111076,0.0121235,
,511,1608561433,325791092, ,0.662317,-1.82622,-1.54143,-1.3891,1.68112,-0.177128, ,0.0141964,0.0100002,-0.0431044,0.0332742,0.0102634,0.00599415,
,512,1608561433,341641756, ,0.662542,-1.82606,-1.54212,-1.38857,1.68129,-0.177033, ,0.0129893,0.00445826,-0.042857,0.0351596,0.012006,0.00740105,
,513,1608561433,357492420, ,0.662748,-1.82599,-1.5428,-1.38802,1.68148,-0.176916, ,0.0156323,0.00851184,-0.0446326,0.0308742,0.0108597,0.00455739,
,514,1608561433,373343084, ,0.662996,-1.82585,-1.5435,-1.38753,1.68165,-0.176844, ,0.0144522,0.00550775,-0.039222,0.0362366,0.0104007,0.00278511,
,515,1608561433,389193748, ,0.663225,-1.82576,-1.54412,-1.38695,1.68181,-0.1768, ,0.0156283,0.00273029,-0.0425811,0.0411506,0.00918661,0.00310401,
,516,1608561433,405044412, ,0.663473,-1.82572,-1.5448,-1.3863,1.68196,-0.17675, ,0.0125974,0.00704087,-0.0368864,0.0405561,0.010749,0.00627019,
,517,1608561433,420895076, ,0.663673,-1.82561,-1.54538,-1.38566,1.68213,-0.176651, ,0.015381,0.00414987,-0.0438165,0.0401164,0.0128253,0.00450154,
,518,1608561433,436745740, ,0.663916,-1.82554,-1.54608,-1.38502,1.68233,-0.17658, ,0.0126187,0.00342317,-0.038889,0.047742,0.00769524,0.00356318,
,519,1608561433,452596404, ,0.664116,-1.82549,-1.5467,-1.38427,1.68246,-0.176523, ,0.0147906,0.00252418,-0.0446483,0.0482154,0.0105446,0.00367876,
,520,1608561433,468447068, ,0.664351,-1.82545,-1.5474,-1.3835,1.68262,-0.176465, ,0.0156699,0.00526172,-0.0491939,0.0486387,0.0151791,0.00211358,
,521,1608561433,484297732, ,0.664599,-1.82537,-1.54818,-1.38273,1.68286,-0.176431, ,0.0126502,0.00638096,-0.0479144,0.0584354,0.014765,0.00574184,
,522,1608561433,500148396, ,0.6648,-1.82526,-1.54894,-1.3818,1.6831,-0.17634, ,0.0132666,0.0034012,-0.0559331,0.0544029,0.0122063,0.00283973,
,523,1608561433,515999060, ,0.66501,-1.82521,-1.54983,-1.38094,1.68329,-0.176295, ,0.0148561,0.00814946,-0.0594597,0.0601103,0.0144632,0.00657081,
,524,1608561433,531849724, ,0.665245,-1.82508,-1.55077,-1.37999,1.68352,-0.176191, ,0.0169722,0.00582379,-0.0577609,0.059621,0.01375,0.0034348,
,525,1608561433,547700388, ,0.665515,-1.82499,-1.55169,-1.37904,1.68374,-0.176137, ,0.0151512,0.00439952,-0.060266,0.0677987,0.012431,0.00995631,
,526,1608561433,563551052, ,0.665755,-1.82492,-1.55264,-1.37797,1.68393,-0.175979, ,0.0145949,0.00961574,-0.0649707,0.0680788,0.0105207,0.00611259,
,527,1608561433,579401716, ,0.665986,-1.82477,-1.55367,-1.37689,1.6841,-0.175882, ,0.0172835,0.00672148,-0.0679565,0.0699456,0.0124927,0.00937225,
,528,1608561433,595252380, ,0.66626,-1.82466,-1.55475,-1.37578,1.6843,-0.175733, ,0.0179707,0.00681143,-0.0693517,0.0756466,0.0106939,0.0115865,
,529,1608561433,611103044, ,0.666545,-1.82455,-1.55585,-1.37458,1.68447,-0.17555, ,0.0178267,0.00562,-0.0689659,0.0739935,0.0113328,0.0122679,
,530,1608561433,626953708, ,0.666827,-1.82446,-1.55694,-1.37341,1.68465,-0.175355, ,0.0164694,0.00535745,-0.0709051,0.0827028,0.00766838,0.00980282,
,531,1608561433,642804372, ,0.667088,-1.82438,-1.55807,-1.3721,1.68477,-0.1752, ,0.0159581,0.00833393,-0.0745073,0.0798158,0.0137892,0.00669077,
,532,1608561433,658655036, ,0.667341,-1.82425,-1.55925,-1.37083,1.68499,-0.175094, ,0.0150158,0.00219687,-0.0767639,0.080236,0.0129424,0.0109015,
,533,1608561433,674505700, ,0.667579,-1.82421,-1.56046,-1.36956,1.68519,-0.174921, ,0.0167904,0.00591727,-0.0813228,0.0866586,0.0103159,0.0132405,
,534,1608561433,690356364, ,0.667846,-1.82412,-1.56175,-1.36819,1.68536,-0.174711, ,0.018089,0.001524,-0.0837814,0.0878303,0.0153109,0.0100336,
,535,1608561433,706207028, ,0.668132,-1.82409,-1.56308,-1.3668,1.6856,-0.174552, ,0.0154869,0.00357649,-0.0867584,0.0876926,0.010716,0.0122461,
,536,1608561433,722057692, ,0.668378,-1.82404,-1.56446,-1.36541,1.68577,-0.174358, ,0.0154466,-0.00157165,-0.0899451,0.0945768,0.0098821,0.0125634,
,537,1608561433,737908356, ,0.668623,-1.82406,-1.56588,-1.36391,1.68593,-0.174159, ,0.0203962,-0.000192017,-0.0907881,0.0934961,0.0129035,0.0154929,
,538,1608561433,753759020, ,0.668946,-1.82406,-1.56732,-1.36242,1.68613,-0.173913, ,0.0139757,-0.00022653,-0.0922501,0.102068,0.0115924,0.012297,
,539,1608561433,769609684, ,0.669167,-1.82407,-1.56878,-1.36081,1.68632,-0.173718, ,0.0195122,-0.000108384,-0.0918866,0.10444,0.0129267,0.0171699,
,540,1608561433,785460348, ,0.669477,-1.82407,-1.57024,-1.35915,1.68652,-0.173446, ,0.0142623,-0.000185377,-0.0918125,0.104644,0.00949663,0.012826,
,541,1608561433,801311012, ,0.669703,-1.82407,-1.57169,-1.35749,1.68667,-0.173243, ,0.0168139,1.23439e-05,-0.0906256,0.104364,0.0126567,0.0157836,
,542,1608561433,817161676, ,0.669969,-1.82407,-1.57313,-1.35584,1.68687,-0.172993, ,0.0145874,0.00117132,-0.0960263,0.111115,0.00900396,0.0171127,
,543,1608561433,833012340, ,0.6702,-1.82405,-1.57465,-1.35408,1.68701,-0.172722, ,0.0159856,0.00160299,-0.0937056,0.112496,0.0125822,0.0160901,
,544,1608561433,848863004, ,0.670454,-1.82403,-1.57614,-1.35229,1.68721,-0.172467, ,0.0142726,0.000468689,-0.0899051,0.115298,0.00959603,0.0193162,
,545,1608561433,864713668, ,0.67068,-1.82402,-1.57756,-1.35047,1.68737,-0.17216, ,0.0149997,-0.00168536,-0.0906238,0.120424,0.0106665,0.0158571,
,546,1608561433,880564332, ,0.670918,-1.82405,-1.579,-1.34856,1.68753,-0.171909, ,0.0166201,0.00292525,-0.0902059,0.118474,0.0111458,0.016852,
,547,1608561433,896414996, ,0.671181,-1.824,-1.58043,-1.34668,1.68771,-0.171642, ,0.0172985,-0.00274837,-0.0896444,0.113526,0.0126659,0.017337,
,548,1608561433,912265660, ,0.671455,-1.82405,-1.58185,-1.34488,1.68791,-0.171367, ,0.0170234,0.00189722,-0.0977145,0.116621,0.0112324,0.019359,
,549,1608561433,928116324, ,0.671725,-1.82401,-1.5834,-1.34303,1.68809,-0.17106, ,0.0163606,-0.00139765,-0.0915003,0.11683,0.0124672,0.0148816,
,550,1608561433,943966988, ,0.671985,-1.82404,-1.58485,-1.34118,1.68829,-0.170824, ,0.0147215,-0.00298466,-0.0993748,0.113513,0.0109454,0.0212889,
,551,1608561433,959817652, ,0.672218,-1.82408,-1.58642,-1.33938,1.68846,-0.170487, ,0.0179731,0.00156145,-0.096161,0.107835,0.0106621,0.0125292,
,552,1608561433,975668316, ,0.672503,-1.82406,-1.58795,-1.33767,1.68863,-0.170288, ,0.0134874,-0.000938678,-0.0988235,0.110314,0.012385,0.0188224,
,553,1608561433,991518980, ,0.672717,-1.82407,-1.58952,-1.33592,1.68883,-0.16999, ,0.0147428,0.000258976,-0.0944397,0.110589,0.00914625,0.0160923,
,554,1608561434,7369644, ,0.67295,-1.82407,-1.59101,-1.33417,1.68897,-0.169735, ,0.0146305,-0.000851389,-0.0995417,0.112515,0.0118313,0.0154434,
,555,1608561434,23220308, ,0.673182,-1.82408,-1.59259,-1.33239,1.68916,-0.16949, ,0.0127684,0.000881835,-0.101503,0.109328,0.00924821,0.016282,
,556,1608561434,39070972, ,0.673385,-1.82407,-1.5942,-1.33065,1.68931,-0.169232, ,0.0108075,0.000934635,-0.103478,0.110158,0.0125783,0.0151153,
,557,1608561434,54921636, ,0.673556,-1.82406,-1.59584,-1.32891,1.6895,-0.168992, ,0.0126598,-0.00098723,-0.0979035,0.108726,0.0137495,0.0158649,
,558,1608561434,70772300, ,0.673757,-1.82407,-1.59739,-1.32718,1.68972,-0.168741, ,0.0118809,-0.00196191,-0.0969055,0.10712,0.00890708,0.0129546,
,559,1608561434,86622964, ,0.673945,-1.8241,-1.59893,-1.32549,1.68986,-0.168536, ,0.0137512,0.00198176,-0.0978396,0.102897,0.0142554,0.0189538,
,560,1608561434,102473628, ,0.674163,-1.82407,-1.60048,-1.32386,1.69009,-0.168235, ,0.0114859,0.0014762,-0.0924909,0.104337,0.0111359,0.0145866,
,561,1608561434,118324292, ,0.674345,-1.82405,-1.60194,-1.3222,1.69027,-0.168004, ,0.0111648,-0.00148909,-0.0920098,0.103489,0.0110135,0.0147464,
,562,1608561434,134174956, ,0.674522,-1.82407,-1.6034,-1.32056,1.69044,-0.16777, ,0.0121516,0.00155892,-0.0923763,0.106461,0.0121968,0.011819,
,563,1608561434,150025620, ,0.674714,-1.82405,-1.60487,-1.31887,1.69063,-0.167583, ,0.00747888,-0.00214135,-0.0909868,0.104227,0.0160854,0.016455,
,564,1608561434,165876284, ,0.674833,-1.82408,-1.60631,-1.31722,1.69089,-0.167322, ,0.0112459,-0.00129462,-0.0905845,0.109968,0.0141534,0.0133963,
,565,1608561434,181726948, ,0.675011,-1.8241,-1.60774,-1.31548,1.69111,-0.16711, ,0.0135611,0.00245296,-0.083458,0.105997,0.0132804,0.0165302,
,566,1608561434,197577612, ,0.675226,-1.82406,-1.60907,-1.3138,1.69132,-0.166848, ,0.0112767,-0.00160862,-0.0870336,0.108421,0.0126321,0.0187123,
,567,1608561434,213428276, ,0.675405,-1.82409,-1.61045,-1.31208,1.69152,-0.166551, ,0.0106446,0.000709044,-0.0865095,0.103765,0.0158649,0.0132499,
,568,1608561434,229278940, ,0.675574,-1.82408,-1.61182,-1.31043,1.69178,-0.166341, ,0.00951151,-0.00186399,-0.0911233,0.0992495,0.0122538,0.0184389,
,569,1608561434,245129604, ,0.675724,-1.82411,-1.61326,-1.30886,1.69197,-0.166049, ,0.00877436,0.00205059,-0.0892679,0.100843,0.0153331,0.0120676,
,570,1608561434,260980268, ,0.675864,-1.82407,-1.61468,-1.30726,1.69221,-0.165858, ,0.00980827,-0.000657291,-0.0904893,0.0954891,0.011606,0.0175189,
,571,1608561434,276830932, ,0.676019,-1.82408,-1.61611,-1.30575,1.6924,-0.16558, ,0.0108794,0.0016691,-0.0965082,0.0949209,0.0186036,0.0124719,
,572,1608561434,292681596, ,0.676191,-1.82406,-1.61764,-1.30425,1.69269,-0.165382, ,0.0098174,-0.00191756,-0.0933736,0.0969568,0.0149502,0.0179056,
,573,1608561434,308532260, ,0.676347,-1.82409,-1.61912,-1.30271,1.69293,-0.165098, ,0.00930569,-0.00158692,-0.0921586,0.0966642,0.018999,0.013205,
,574,1608561434,324382924, ,0.676495,-1.82411,-1.62058,-1.30118,1.69323,-0.164889, ,0.00849035,-0.00101607,-0.0871811,0.0941139,0.0134501,0.0111602,
,575,1608561434,340233588, ,0.676629,-1.82413,-1.62196,-1.29968,1.69344,-0.164712, ,0.0119643,0.00180509,-0.0899,0.0979657,0.0199725,0.0171556,
,576,1608561434,356084252, ,0.676819,-1.8241,-1.62339,-1.29813,1.69376,-0.16444, ,0.00883285,0.00139859,-0.0949893,0.093277,0.0152633,0.0132439,
,577,1608561434,371934916, ,0.676959,-1.82408,-1.62489,-1.29665,1.694,-0.16423, ,0.0100974,-0.00109923,-0.0911456,0.0955741,0.018842,0.0160785,
,578,1608561434,387785580, ,0.677119,-1.8241,-1.62634,-1.29514,1.6943,-0.163975, ,0.0109069,0.000426012,-0.091299,0.089098,0.0141528,0.0124373,
,579,1608561434,403636244, ,0.677292,-1.82409,-1.62779,-1.29373,1.69452,-0.163778, ,0.00684058,-0.00137243,-0.090844,0.0884848,0.0174102,0.0109466,
,580,1608561434,419486908, ,0.6774,-1.82411,-1.62923,-1.29232,1.6948,-0.163605, ,0.00981969,-0.00265648,-0.0890635,0.0895203,0.0178414,0.0153851,
,581,1608561434,435337572, ,0.677556,-1.82415,-1.63064,-1.2909,1.69508,-0.163361, ,0.00764913,0.000773191,-0.0867978,0.0876792,0.0172664,0.00815029,
,582,1608561434,451188236, ,0.677677,-1.82414,-1.63201,-1.28951,1.69536,-0.163232, ,0.00905376,-4.65535e-05,-0.0839384,0.0858826,0.0168333,0.0112431,
,583,1608561434,467038900, ,0.677821,-1.82414,-1.63334,-1.28815,1.69562,-0.163054, ,0.00684632,-0.00116481,-0.081807,0.0927127,0.0172627,0.00362938,
,584,1608561434,482889564, ,0.677929,-1.82416,-1.63464,-1.28668,1.6959,-0.162996, ,0.00628591,0.0016205,-0.0809846,0.0934454,0.0197544,0.00645024,
,585,1608561434,498740228, ,0.678029,-1.82413,-1.63592,-1.2852,1.69621,-0.162894, ,0.00605218,-0.000625345,-0.0816346,0.0911437,0.0133082,0.0033102,
,586,1608561434,514590892, ,0.678125,-1.82414,-1.63722,-1.28376,1.69642,-0.162841, ,0.00820867,4.93208e-05,-0.0809683,0.0841718,0.0179596,0.00623997,
,587,1608561434,530441556, ,0.678255,-1.82414,-1.6385,-1.28242,1.69671,-0.162742, ,0.00505899,-0.000453094,-0.0754974,0.0916364,0.0172437,0.00823611,
,588,1608561434,546292220, ,0.678335,-1.82415,-1.6397,-1.28097,1.69698,-0.162612, ,0.00369781,6.04723e-05,-0.0786882,0.0865992,0.0135041,0.00459738,
,589,1608561434,562142884, ,0.678394,-1.82415,-1.64095,-1.2796,1.69719,-0.162539, ,0.00749412,-0.000170781,-0.0779674,0.0833465,0.0154048,0.00722512,
,590,1608561434,577993548, ,0.678512,-1.82415,-1.64218,-1.27828,1.69744,-0.162424, ,0.00741099,-0.00324135,-0.0782841,0.0821592,0.0159427,0.0118936,
,591,1608561434,593844212, ,0.67863,-1.8242,-1.64342,-1.27698,1.69769,-0.162236, ,0.00600192,-0.00283322,-0.0788748,0.0847085,0.0133754,0.0117769,
,592,1608561434,609694876, ,0.678725,-1.82425,-1.64467,-1.27563,1.6979,-0.162049, ,0.00862004,-0.00469161,-0.0819943,0.0753074,0.0129348,0.0101425,
,593,1608561434,625545540, ,0.678862,-1.82432,-1.64597,-1.27444,1.69811,-0.161889, ,0.00735998,-0.000675646,-0.0791721,0.0742453,0.0149083,0.0121979,
,594,1608561434,641396204, ,0.678978,-1.82433,-1.64723,-1.27326,1.69834,-0.161695, ,0.00978443,-0.00370112,-0.082517,0.0797889,0.0135662,0.00857087,
,595,1608561434,657246868, ,0.679133,-1.82439,-1.64854,-1.272,1.69856,-0.161559, ,0.0113385,-0.00116654,-0.0817416,0.070143,0.0149327,0.00451083,
,596,1608561434,673097532, ,0.679313,-1.82441,-1.64983,-1.27089,1.6988,-0.161488, ,0.0072929,-0.00124476,-0.0778716,0.0774779,0.0160927,0.00338243,
,597,1608561434,688948196, ,0.679429,-1.82443,-1.65107,-1.26966,1.69905,-0.161434, ,0.00847536,-0.00496174,-0.0754087,0.0736909,0.0119407,0.00109637,
,598,1608561434,704798860, ,0.679563,-1.82451,-1.65226,-1.26849,1.69924,-0.161417, ,0.0112137,-0.00330341,-0.0751076,0.0719875,0.0123035,-0.00213108,
,599,1608561434,720649524, ,0.679741,-1.82456,-1.65345,-1.26735,1.69944,-0.161451, ,0.00946954,0.00260143,-0.0742878,0.07741,0.0129274,0.000540063,
,600,1608561434,736500188, ,0.679891,-1.82452,-1.65463,-1.26612,1.69964,-0.161442, ,0.00655989,-0.0031345,-0.076214,0.0754168,0.0142963,0.000321851,
,601,1608561434,752350852, ,0.679995,-1.82457,-1.65584,-1.26493,1.69987,-0.161437, ,0.00226794,-0.00198526,-0.07747,0.0777496,0.01313,0.00250859,
,602,1608561434,768201516, ,0.680031,-1.8246,-1.65706,-1.26369,1.70007,-0.161397, ,0.00512901,0.00257662,-0.0774444,0.0716888,0.00886376,0.00851726,
,603,1608561434,784052180, ,0.680112,-1.82456,-1.65829,-1.26256,1.70022,-0.161262, ,-0.000453564,-0.00321752,-0.0762279,0.0697205,0.0147289,0.00700565,
,604,1608561434,799902844, ,0.680105,-1.82461,-1.6595,-1.26145,1.70045,-0.161151, ,0.000969951,-0.00165853,-0.0731665,0.0706948,0.0114802,0.012323,
,605,1608561434,815753508, ,0.68012,-1.82464,-1.66066,-1.26033,1.70063,-0.160956, ,0.000759072,0.00129302,-0.074161,0.0780673,0.00968693,0.0130093,
,606,1608561434,831604172, ,0.680132,-1.82462,-1.66184,-1.25909,1.70078,-0.16075, ,0.00176078,-0.00100782,-0.0737634,0.0738783,0.0155491,0.0106043,
,607,1608561434,847454836, ,0.68016,-1.82463,-1.66301,-1.25792,1.70103,-0.160582, ,0.00314072,-0.00242685,-0.0652875,0.0740715,0.0128347,0.00676985,
,608,1608561434,863305500, ,0.68021,-1.82467,-1.66404,-1.25675,1.70123,-0.160474, ,0.00620765,-0.0012851,-0.0680846,0.0752721,0.0109142,0.00214326,
,609,1608561434,879156164, ,0.680308,-1.82469,-1.66512,-1.25556,1.70141,-0.16044, ,-0.00080336,-0.000818308,-0.0696985,0.0771906,0.0121025,0.000422722,
,610,1608561434,895006828, ,0.680296,-1.8247,-1.66622,-1.25433,1.7016,-0.160434, ,0.0068086,-0.00153671,-0.0672957,0.0755149,0.0133692,-0.00332346,
,611,1608561434,910857492, ,0.680404,-1.82473,-1.66729,-1.25314,1.70181,-0.160486, ,0.00393838,0.00055699,-0.0667774,0.0734516,0.0113157,0.00159813,
,612,1608561434,926708156, ,0.680466,-1.82472,-1.66835,-1.25197,1.70199,-0.160461, ,0.00647548,-0.00244899,-0.0643252,0.0706812,0.010592,0.00233752,
,613,1608561434,942558820, ,0.680569,-1.82476,-1.66937,-1.25085,1.70216,-0.160424, ,0.0062147,-0.000469302,-0.0635349,0.0694359,0.0116177,-0.00237075,
,614,1608561434,958409484, ,0.680667,-1.82477,-1.67038,-1.24975,1.70234,-0.160461, ,0.0096987,0.000488917,-0.059067,0.0698237,0.00532488,-0.000748492,
,615,1608561434,974260148, ,0.680821,-1.82476,-1.67131,-1.24864,1.70243,-0.160473, ,0.0115825,-0.00272787,-0.0584643,0.0663433,0.00919123,0.00763028,
,616,1608561434,990110812, ,0.681004,-1.8248,-1.67224,-1.24759,1.70257,-0.160352, ,0.015555,0.00131411,-0.0581636,0.0652276,0.00676364,0.00643855,
,617,1608561435,5961476, ,0.681251,-1.82478,-1.67316,-1.24656,1.70268,-0.16025, ,0.0113809,-0.00155038,-0.0598688,0.0628503,0.00991865,0.0113995,
,618,1608561435,21812140, ,0.681431,-1.82481,-1.67411,-1.24556,1.70284,-0.16007, ,0.0120314,-0.00150979,-0.057013,0.0627996,0.00822756,0.0146557,
,619,1608561435,37662804, ,0.681622,-1.82483,-1.67501,-1.24457,1.70297,-0.159837, ,0.00396382,0.00228659,-0.0633383,0.0560587,0.00996273,0.0106384,
,620,1608561435,53513468, ,0.681685,-1.82479,-1.67602,-1.24368,1.70313,-0.159669, ,0.00200109,-0.00396692,-0.0633257,0.0600814,0.00970342,0.00970327,
,621,1608561435,69364132, ,0.681717,-1.82486,-1.67702,-1.24273,1.70328,-0.159515, ,0.00206563,0.0017562,-0.0602302,0.0547166,0.00674738,0.00773426,
,622,1608561435,85214796, ,0.681749,-1.82483,-1.67798,-1.24186,1.70339,-0.159392, ,-0.00489287,-0.00197534,-0.0582266,0.0573128,0.00778664,-0.00261906,
,623,1608561435,101065460, ,0.681672,-1.82486,-1.6789,-1.24095,1.70351,-0.159434, ,0.000709099,0.0024928,-0.065012,0.0541921,0.0107773,6.29436e-05,
,624,1608561435,116916124, ,0.681683,-1.82482,-1.67993,-1.24009,1.70368,-0.159433, ,0.00148191,-0.00304775,-0.0593517,0.0543916,0.00504701,0.00256085,
,625,1608561435,132766788, ,0.681707,-1.82487,-1.68087,-1.23923,1.70376,-0.159392, ,-4.82961e-05,0.00248684,-0.0588639,0.0496921,0.0112067,-0.00255378,
,626,1608561435,148617452, ,0.681706,-1.82483,-1.6818,-1.23844,1.70394,-0.159433, ,-0.000466385,-0.000904092,-0.0547641,0.0496084,0.00813042,-0.00156282,
,627,1608561435,164468116, ,0.681698,-1.82484,-1.68267,-1.23765,1.70407,-0.159457, ,0.00116994,0.0038782,-0.0498476,0.0495459,0.00676541,0.00421053,
,628,1608561435,180318780, ,0.681717,-1.82478,-1.68346,-1.23687,1.70417,-0.159391, ,0.00062254,-0.0019615,-0.049387,0.0485771,0.00843526,0.000555869,
,629,1608561435,196169444, ,0.681727,-1.82481,-1.68424,-1.2361,1.70431,-0.159382, ,0.000222004,-0.000541274,-0.0556186,0.0507041,0.00827915,-0.00112486,
,630,1608561435,212020108, ,0.68173,-1.82482,-1.68513,-1.2353,1.70444,-0.1594, ,0.000398872,-0.000326637,-0.0476881,0.0443841,0.0111692,-0.00152306,
,631,1608561435,227870772, ,0.681737,-1.82483,-1.68588,-1.23459,1.70462,-0.159424, ,-0.00261071,0.000183749,-0.0488771,0.0363877,0.0109865,0.00276572,
,632,1608561435,243721436, ,0.681695,-1.82482,-1.68666,-1.23402,1.70479,-0.15938, ,0.00257066,0.00443447,-0.0491335,0.0337942,0.0115163,-0.00158031,
,633,1608561435,259572100, ,0.681736,-1.82475,-1.68743,-1.23348,1.70497,-0.159405, ,0.0029058,-0.00435564,-0.0468936,0.0337676,0.0110731,0.00118988,
,634,1608561435,275422764, ,0.681782,-1.82482,-1.68818,-1.23294,1.70515,-0.159386, ,0.000631605,0.00414456,-0.0433859,0.0317234,0.00770261,6.90265e-05,
,635,1608561435,291273428, ,0.681792,-1.82476,-1.68887,-1.23244,1.70527,-0.159385, ,0.00453712,0.00295401,-0.0431332,0.0240515,0.0100688,-0.0014716,
,636,1608561435,307124092, ,0.681864,-1.82471,-1.68955,-1.23206,1.70543,-0.159408, ,0.00531166,-0.00128324,-0.0362465,0.0185798,0.00815177,0.00297335,
,637,1608561435,322974756, ,0.681948,-1.82473,-1.69012,-1.23177,1.70556,-0.159361, ,0.00886741,0.000577081,-0.0362138,0.0210776,0.00470368,-0.0013563,
,638,1608561435,338825420, ,0.682089,-1.82472,-1.6907,-1.23143,1.70563,-0.159383, ,0.0160542,0.00419987,-0.0301751,0.0178622,0.00515104,-0.000299965,
,639,1608561435,354676084, ,0.682343,-1.82465,-1.69118,-1.23115,1.70572,-0.159388, ,0.0153525,-3.64039e-05,-0.0283763,0.0129791,0.00267608,-6.07296e-05,
,640,1608561435,370526748, ,0.682587,-1.82466,-1.69163,-1.23094,1.70576,-0.159389, ,0.0140822,0.00404949,-0.0235732,0.00894548,0.00521343,0.00174371,
,641,1608561435,386377412, ,0.68281,-1.82459,-1.692,-1.2308,1.70584,-0.159361, ,0.00938,0.000814284,-0.020976,0.00224271,0.00569235,-0.000522692,
,642,1608561435,402228076, ,0.682958,-1.82458,-1.69233,-1.23077,1.70593,-0.159369, ,0.00707511,0.00461081,-0.0223577,0.000127581,0.00673105,-0.00256187,
,643,1608561435,418078740, ,0.683071,-1.8245,-1.69269,-1.23076,1.70604,-0.15941, ,0.000807595,0.00433886,-0.0148893,0.00163648,0.00919987,0.000984261,
,644,1608561435,433929404, ,0.683083,-1.82444,-1.69292,-1.23074,1.70618,-0.159394, ,4.58252e-05,0.00662916,-0.0111472,-0.000337523,0.0139815,0.00193288,
,645,1608561435,449780068, ,0.683084,-1.82433,-1.6931,-1.23074,1.7064,-0.159364, ,-0.00128699,0.00268453,-0.00742619,-0.00340544,0.0152274,-0.00512485,
,646,1608561435,465630732, ,0.683064,-1.82429,-1.69322,-1.2308,1.70665,-0.159445, ,-0.00193519,0.00688271,-0.00404565,0.00158994,0.013109,0.00367939,
,647,1608561435,481481396, ,0.683033,-1.82418,-1.69328,-1.23077,1.70685,-0.159386, ,-0.00150477,0.00880936,0.000705034,-0.00430289,0.0167764,0.000846338,
,648,1608561435,497332060, ,0.683009,-1.82404,-1.69327,-1.23084,1.70712,-0.159373, ,-0.00207468,0.0100839,0.00456922,-0.000937472,0.00751838,-0.000150459,
,649,1608561435,513182724, ,0.682976,-1.82388,-1.6932,-1.23085,1.70724,-0.159375, ,0.000996746,0.01251,0.00470012,-0.00824555,0.00651479,0.00132313,
,650,1608561435,529033388, ,0.682992,-1.82368,-1.69312,-1.23099,1.70734,-0.159354, ,-0.00381255,0.00927061,0.0069941,-0.00904184,0.00327839,-0.0009869,
,651,1608561435,544884052, ,0.682932,-1.82353,-1.69301,-1.23113,1.70739,-0.15937, ,-0.00142088,0.0146933,0.0113686,-0.00917313,-0.00189167,-0.00208455,
,652,1608561435,560734716, ,0.682909,-1.8233,-1.69283,-1.23127,1.70736,-0.159403, ,0.00117047,0.0163064,0.0136547,-0.0145525,0.00204098,0.000884959,
,653,1608561435,576585380, ,0.682928,-1.82304,-1.69262,-1.2315,1.7074,-0.159389, ,-0.000662327,0.011919,0.0135489,-0.0163735,-0.00219414,0.00124138,
,654,1608561435,592436044, ,0.682917,-1.82285,-1.6924,-1.23176,1.70736,-0.159369, ,-0.00261664,0.0153158,0.00925295,-0.0147442,0.000601008,-0.00161232,
,655,1608561435,608286708, ,0.682876,-1.82261,-1.69225,-1.232,1.70737,-0.159395, ,-0.00158464,0.0106817,0.00645622,-0.0226045,-0.000391355,-0.00145259,
,656,1608561435,624137372, ,0.682851,-1.82244,-1.69215,-1.23236,1.70736,-0.159418, ,-0.00077042,0.0136433,0.00729858,-0.022237,-0.000412889,-0.00161579,
,657,1608561435,639988036, ,0.682838,-1.82223,-1.69204,-1.23271,1.70736,-0.159444, ,-0.0003969,0.0134325,0.00027641,-0.0230011,-0.000468047,0.00124009,
,658,1608561435,655838700, ,0.682832,-1.82201,-1.69203,-1.23307,1.70735,-0.159424, ,0.000755348,0.0103598,0.000186446,-0.0238524,0.000620756,-0.00315743,
,659,1608561435,671689364, ,0.682844,-1.82185,-1.69203,-1.23345,1.70736,-0.159474, ,-0.00385736,0.0144507,-0.000715368,-0.0282696,0.00249497,-0.00590575,
,660,1608561435,687540028, ,0.682783,-1.82162,-1.69204,-1.2339,1.7074,-0.159568, ,-6.49029e-05,0.00848974,-0.00580788,-0.0304127,0.00211863,-0.00888159,
,661,1608561435,703390692, ,0.682782,-1.82149,-1.69213,-1.23438,1.70743,-0.159708, ,0.00106929,0.0127285,-0.00463452,-0.0300995,0.00295217,-0.014183,
